; generated by Slic3r 1.2.9 on 2017-05-11 at 12:27:22

; external perimeters extrusion width = 0.50mm
; perimeters extrusion width = 0.50mm
; infill extrusion width = 0.50mm
; solid infill extrusion width = 0.50mm
; top infill extrusion width = 0.50mm

M107
M190 S57 ; set bed temperature
G28 ; home all axes
M83;
G10 P0 S195 R160                       ; Set tool 0 operating and standby temperatures
T0

G21 ; set units to millimeters
G90 ; use absolute coordinates
M83 ; use relative distances for extrusion
G1 E-3.50000 F2400.00000
G1 Z0.300 F9000.000
G1 X49.892 Y41.659 F9000.000
G1 E3.50000 F2400.00000
G1 X50.810 Y40.561 E0.13130 F600.000
G1 X53.050 Y39.814 E0.21667
G1 X146.950 Y39.814 E8.61537
G1 X148.621 Y40.209 E0.15755
G1 X149.939 Y41.310 E0.15755 F600.000
G1 X150.686 Y43.550 E0.21667
G1 X150.686 Y156.450 E10.35863
G1 X150.291 Y158.121 E0.15755
G1 X149.190 Y159.439 E0.15755
G1 X146.950 Y160.186 E0.21667
G1 X53.050 Y160.186 E8.61537
G1 X51.379 Y159.791 E0.15755
G1 X50.061 Y158.690 E0.15755
G1 X49.314 Y156.450 E0.21667
G1 X49.314 Y43.550 E10.35863
G1 X49.709 Y41.879 E0.15755
G1 X49.844 Y41.717 E0.01937
G1 E-3.50000 F2400.00000
G1 X127.814 Y114.314 F9000.000
G1 E3.50000 F2400.00000
G1 X138.186 Y114.314 E0.95157 F450.000
G1 X138.186 Y146.686 E2.97008
G1 X127.814 Y146.686 E0.95157
G1 X127.814 Y114.389 E2.96320
G1 X128.550 Y126.050 F9000.000
G1 X137.450 Y126.050 E0.81658 F450.000
G1 X137.450 Y145.950 E1.82584
G1 X128.550 Y145.950 E0.81658
G1 X128.550 Y126.125 E1.81895
G1 X128.550 Y125.550 F9000.000
G1 X128.550 Y124.950 F9000.000
G1 X128.550 Y115.050 E0.90833 F450.000
G1 X137.450 Y115.050 E0.81658
G1 X137.450 Y124.950 E0.90833
G1 X128.625 Y124.950 E0.80970
G1 X128.050 Y124.950 F9000.000
G1 X127.186 Y114.314 F9000.000
G1 X127.186 Y146.686 E2.97008 F450.000
G1 X116.814 Y146.686 E0.95157
G1 X116.814 Y114.314 E2.97008
G1 X127.111 Y114.314 E0.94469
G1 X126.450 Y136.050 F9000.000
G1 X126.450 Y145.950 E0.90833 F450.000
G1 X117.550 Y145.950 E0.81658
G1 X117.550 Y136.050 E0.90833
G1 X126.375 Y136.050 E0.80970
G1 X126.950 Y136.050 F9000.000
G1 X126.450 Y134.950 F9000.000
G1 X117.550 Y134.950 E0.81658 F450.000
G1 X117.550 Y115.050 E1.82584
G1 X126.450 Y115.050 E0.81658
G1 X126.450 Y134.875 E1.81895
G1 X126.450 Y135.450 F9000.000
G1 E-3.50000 F2400.00000
G1 X116.950 Y146.550 F9000.000
G1 X116.500 Y146.550 F9000.000
G1 X116.050 Y146.550 F9000.000
G1 X116.186 Y146.686 F9000.000
G1 E3.50000 F2400.00000
G1 X105.814 Y146.686 E0.95157 F450.000
G1 X105.814 Y114.314 E2.97008
G1 X116.186 Y114.314 E0.95157
G1 X116.186 Y146.611 E2.96320
G1 X115.450 Y145.950 F9000.000
G1 X106.550 Y145.950 E0.81658 F450.000
G1 X106.550 Y126.050 E1.82584
G1 X115.450 Y126.050 E0.81658
G1 X115.450 Y145.875 E1.81895
G1 X115.450 Y146.450 F9000.000
G1 X115.450 Y124.950 F9000.000
G1 X106.550 Y124.950 E0.81658 F450.000
G1 X106.550 Y115.050 E0.90833
G1 X115.450 Y115.050 E0.81658
G1 X115.450 Y124.875 E0.90145
G1 X115.450 Y125.450 F9000.000
G1 E-3.50000 F2400.00000
G1 X105.950 Y114.450 F9000.000
G1 X105.500 Y114.450 F9000.000
G1 X105.050 Y114.450 F9000.000
G1 X105.186 Y114.314 F9000.000
G1 E3.50000 F2400.00000
G1 X105.186 Y146.686 E2.97008 F450.000
G1 X94.814 Y146.686 E0.95157
G1 X94.814 Y114.314 E2.97008
G1 X105.111 Y114.314 E0.94469
G1 X104.450 Y136.050 F9000.000
G1 X104.450 Y145.950 E0.90833 F450.000
G1 X95.550 Y145.950 E0.81658
G1 X95.550 Y136.050 E0.90833
G1 X104.375 Y136.050 E0.80970
G1 X104.950 Y136.050 F9000.000
G1 X104.450 Y134.950 F9000.000
G1 X95.550 Y134.950 E0.81658 F450.000
G1 X95.550 Y115.050 E1.82584
G1 X104.450 Y115.050 E0.81658
G1 X104.450 Y134.875 E1.81895
G1 X104.450 Y135.450 F9000.000
G1 E-3.50000 F2400.00000
G1 X94.950 Y146.550 F9000.000
G1 X94.500 Y146.550 F9000.000
G1 X94.050 Y146.550 F9000.000
G1 X94.186 Y146.686 F9000.000
G1 E3.50000 F2400.00000
G1 X83.814 Y146.686 E0.95157 F450.000
G1 X83.814 Y114.314 E2.97008
G1 X94.186 Y114.314 E0.95157
G1 X94.186 Y146.611 E2.96320
G1 X93.450 Y145.950 F9000.000
G1 X84.550 Y145.950 E0.81658 F450.000
G1 X84.550 Y126.050 E1.82584
G1 X93.450 Y126.050 E0.81658
G1 X93.450 Y145.875 E1.81895
G1 X93.450 Y146.450 F9000.000
G1 X93.450 Y124.950 F9000.000
G1 X84.550 Y124.950 E0.81658 F450.000
G1 X84.550 Y115.050 E0.90833
G1 X93.450 Y115.050 E0.81658
G1 X93.450 Y124.875 E0.90145
G1 X93.450 Y125.450 F9000.000
G1 E-3.50000 F2400.00000
G1 X83.950 Y114.450 F9000.000
G1 X83.500 Y114.450 F9000.000
G1 X83.050 Y114.450 F9000.000
G1 X83.186 Y114.314 F9000.000
G1 E3.50000 F2400.00000
G1 X83.186 Y146.686 E2.97008 F450.000
G1 X72.814 Y146.686 E0.95157
G1 X72.814 Y114.314 E2.97008
G1 X83.111 Y114.314 E0.94469
G1 X82.450 Y136.050 F9000.000
G1 X82.450 Y145.950 E0.90833 F450.000
G1 X73.550 Y145.950 E0.81658
G1 X73.550 Y136.050 E0.90833
G1 X82.375 Y136.050 E0.80970
G1 X82.950 Y136.050 F9000.000
G1 X82.450 Y134.950 F9000.000
G1 X73.550 Y134.950 E0.81658 F450.000
G1 X73.550 Y115.050 E1.82584
G1 X82.450 Y115.050 E0.81658
G1 X82.450 Y134.875 E1.81895
G1 X82.450 Y135.450 F9000.000
G1 E-3.50000 F2400.00000
G1 X72.950 Y146.550 F9000.000
G1 X72.500 Y146.550 F9000.000
G1 X72.050 Y146.550 F9000.000
G1 X72.186 Y146.686 F9000.000
G1 E3.50000 F2400.00000
G1 X61.814 Y146.686 E0.95157 F450.000
G1 X61.814 Y114.314 E2.97008
G1 X72.186 Y114.314 E0.95157
G1 X72.186 Y146.611 E2.96320
G1 X71.450 Y145.950 F9000.000
G1 X62.550 Y145.950 E0.81658 F450.000
G1 X62.550 Y126.050 E1.82584
G1 X71.450 Y126.050 E0.81658
G1 X71.450 Y145.875 E1.81895
G1 X71.450 Y146.450 F9000.000
G1 X71.450 Y124.950 F9000.000
G1 X62.550 Y124.950 E0.81658 F450.000
G1 X62.550 Y115.050 E0.90833
G1 X71.450 Y115.050 E0.81658
G1 X71.450 Y124.875 E0.90145
G1 X71.450 Y125.450 F9000.000
G1 X72.050 Y114.450 F9000.000
G1 X68.950 Y108.250 F9000.000
G1 X68.000 Y102.050 F9000.000
G1 X67.050 Y102.050 F9000.000
G1 X67.186 Y102.186 F9000.000
G1 X62.814 Y102.186 E0.40106 F450.000
G1 X62.814 Y83.814 E1.68557
G1 X67.186 Y83.814 E0.40106
G1 X67.186 Y102.111 E1.67869
G1 X66.450 Y101.450 F9000.000
G1 X63.550 Y101.450 E0.26608 F450.000
G1 X63.550 Y96.550 E0.44958
G1 X66.450 Y96.550 E0.26608
G1 X66.450 Y101.375 E0.44270
G1 X66.450 Y101.950 F9000.000
G1 X66.450 Y95.450 F9000.000
G1 X63.550 Y95.450 E0.26608 F450.000
G1 X63.550 Y92.550 E0.26608
G1 X66.450 Y92.550 E0.26608
G1 X66.450 Y95.375 E0.25920
G1 X66.450 Y95.950 F9000.000
G1 X66.450 Y91.450 F9000.000
G1 X63.550 Y91.450 E0.26608 F450.000
G1 X63.550 Y88.550 E0.26608
G1 X66.450 Y88.550 E0.26608
G1 X66.450 Y91.375 E0.25920
G1 X66.450 Y91.950 F9000.000
G1 X66.450 Y87.450 F9000.000
G1 X63.550 Y87.450 E0.26608 F450.000
G1 X63.550 Y84.550 E0.26608
G1 X66.450 Y84.550 E0.26608
G1 X66.450 Y87.375 E0.25920
G1 X66.450 Y87.950 F9000.000
G1 X68.814 Y83.814 F9000.000
G1 X73.186 Y83.814 E0.40106 F450.000
G1 X73.186 Y102.186 E1.68557
G1 X68.814 Y102.186 E0.40106
G1 X68.814 Y83.889 E1.67869
G1 X69.550 Y98.550 F9000.000
G1 X72.450 Y98.550 E0.26608 F450.000
G1 X72.450 Y101.450 E0.26608
G1 X69.550 Y101.450 E0.26608
G1 X69.550 Y98.625 E0.25920
G1 X69.550 Y98.050 F9000.000
G1 X69.550 Y97.450 F9000.000
G1 X69.550 Y94.550 E0.26608 F450.000
G1 X72.450 Y94.550 E0.26608
G1 X72.450 Y97.450 E0.26608
G1 X69.625 Y97.450 E0.25920
G1 X69.050 Y97.450 F9000.000
G1 X69.550 Y93.450 F9000.000
G1 X69.550 Y90.550 E0.26608 F450.000
G1 X72.450 Y90.550 E0.26608
G1 X72.450 Y93.450 E0.26608
G1 X69.625 Y93.450 E0.25920
G1 X69.050 Y93.450 F9000.000
G1 X69.550 Y89.450 F9000.000
G1 X69.550 Y84.550 E0.44958 F450.000
G1 X72.450 Y84.550 E0.26608
G1 X72.450 Y89.450 E0.44958
G1 X69.625 Y89.450 E0.25920
G1 X69.050 Y89.450 F9000.000
G1 E-3.50000 F2400.00000
G1 X73.050 Y83.950 F9000.000
G1 X74.000 Y83.950 F9000.000
G1 X74.950 Y83.950 F9000.000
G1 X74.814 Y83.814 F9000.000
G1 E3.50000 F2400.00000
G1 X79.186 Y83.814 E0.40106 F450.000
G1 X79.186 Y102.186 E1.68557
G1 X74.814 Y102.186 E0.40106
G1 X74.814 Y83.889 E1.67869
G1 X75.550 Y96.550 F9000.000
G1 X78.450 Y96.550 E0.26608 F450.000
G1 X78.450 Y101.450 E0.44958
G1 X75.550 Y101.450 E0.26608
G1 X75.550 Y96.625 E0.44270
G1 X75.550 Y96.050 F9000.000
G1 X75.550 Y95.450 F9000.000
G1 X75.550 Y92.550 E0.26608 F450.000
G1 X78.450 Y92.550 E0.26608
G1 X78.450 Y95.450 E0.26608
G1 X75.625 Y95.450 E0.25920
G1 X75.050 Y95.450 F9000.000
G1 X75.550 Y91.450 F9000.000
G1 X75.550 Y88.550 E0.26608 F450.000
G1 X78.450 Y88.550 E0.26608
G1 X78.450 Y91.450 E0.26608
G1 X75.625 Y91.450 E0.25920
G1 X75.050 Y91.450 F9000.000
G1 X75.550 Y87.450 F9000.000
G1 X75.550 Y84.550 E0.26608 F450.000
G1 X78.450 Y84.550 E0.26608
G1 X78.450 Y87.450 E0.26608
G1 X75.625 Y87.450 E0.25920
G1 X75.050 Y87.450 F9000.000
G1 E-3.50000 F2400.00000
G1 X79.050 Y83.950 F9000.000
G1 X80.000 Y83.950 F9000.000
G1 X80.950 Y83.950 F9000.000
G1 X80.814 Y83.814 F9000.000
G1 E3.50000 F2400.00000
G1 X85.186 Y83.814 E0.40106 F450.000
G1 X85.186 Y102.186 E1.68557
G1 X80.814 Y102.186 E0.40106
G1 X80.814 Y83.889 E1.67869
G1 X81.550 Y98.550 F9000.000
G1 X84.450 Y98.550 E0.26608 F450.000
G1 X84.450 Y101.450 E0.26608
G1 X81.550 Y101.450 E0.26608
G1 X81.550 Y98.625 E0.25920
G1 X81.550 Y98.050 F9000.000
G1 X81.550 Y97.450 F9000.000
G1 X81.550 Y94.550 E0.26608 F450.000
G1 X84.450 Y94.550 E0.26608
G1 X84.450 Y97.450 E0.26608
G1 X81.625 Y97.450 E0.25920
G1 X81.050 Y97.450 F9000.000
G1 X81.550 Y93.450 F9000.000
G1 X81.550 Y90.550 E0.26608 F450.000
G1 X84.450 Y90.550 E0.26608
G1 X84.450 Y93.450 E0.26608
G1 X81.625 Y93.450 E0.25920
G1 X81.050 Y93.450 F9000.000
G1 X81.550 Y89.450 F9000.000
G1 X81.550 Y84.550 E0.44958 F450.000
G1 X84.450 Y84.550 E0.26608
G1 X84.450 Y89.450 E0.44958
G1 X81.625 Y89.450 E0.25920
G1 X81.050 Y89.450 F9000.000
G1 E-3.50000 F2400.00000
G1 X85.050 Y83.950 F9000.000
G1 X86.000 Y83.950 F9000.000
G1 X86.950 Y83.950 F9000.000
G1 X86.814 Y83.814 F9000.000
G1 E3.50000 F2400.00000
G1 X91.186 Y83.814 E0.40106 F450.000
G1 X91.186 Y102.186 E1.68557
G1 X86.814 Y102.186 E0.40106
G1 X86.814 Y83.889 E1.67869
G1 X87.550 Y96.550 F9000.000
G1 X90.450 Y96.550 E0.26608 F450.000
G1 X90.450 Y101.450 E0.44958
G1 X87.550 Y101.450 E0.26608
G1 X87.550 Y96.625 E0.44270
G1 X87.550 Y96.050 F9000.000
G1 X87.550 Y95.450 F9000.000
G1 X87.550 Y92.550 E0.26608 F450.000
G1 X90.450 Y92.550 E0.26608
G1 X90.450 Y95.450 E0.26608
G1 X87.625 Y95.450 E0.25920
G1 X87.050 Y95.450 F9000.000
G1 X87.550 Y91.450 F9000.000
G1 X87.550 Y88.550 E0.26608 F450.000
G1 X90.450 Y88.550 E0.26608
G1 X90.450 Y91.450 E0.26608
G1 X87.625 Y91.450 E0.25920
G1 X87.050 Y91.450 F9000.000
G1 X87.550 Y87.450 F9000.000
G1 X87.550 Y84.550 E0.26608 F450.000
G1 X90.450 Y84.550 E0.26608
G1 X90.450 Y87.450 E0.26608
G1 X87.625 Y87.450 E0.25920
G1 X87.050 Y87.450 F9000.000
G1 E-3.50000 F2400.00000
G1 X91.050 Y83.950 F9000.000
G1 X92.000 Y83.950 F9000.000
G1 X92.950 Y83.950 F9000.000
G1 X92.814 Y83.814 F9000.000
G1 E3.50000 F2400.00000
G1 X97.186 Y83.814 E0.40106 F450.000
G1 X97.186 Y102.186 E1.68557
G1 X92.814 Y102.186 E0.40106
G1 X92.814 Y83.889 E1.67869
G1 X93.550 Y98.550 F9000.000
G1 X96.450 Y98.550 E0.26608 F450.000
G1 X96.450 Y101.450 E0.26608
G1 X93.550 Y101.450 E0.26608
G1 X93.550 Y98.625 E0.25920
G1 X93.550 Y98.050 F9000.000
G1 X93.550 Y97.450 F9000.000
G1 X93.550 Y94.550 E0.26608 F450.000
G1 X96.450 Y94.550 E0.26608
G1 X96.450 Y97.450 E0.26608
G1 X93.625 Y97.450 E0.25920
G1 X93.050 Y97.450 F9000.000
G1 X93.550 Y93.450 F9000.000
G1 X93.550 Y90.550 E0.26608 F450.000
G1 X96.450 Y90.550 E0.26608
G1 X96.450 Y93.450 E0.26608
G1 X93.625 Y93.450 E0.25920
G1 X93.050 Y93.450 F9000.000
G1 X93.550 Y89.450 F9000.000
G1 X93.550 Y84.550 E0.44958 F450.000
G1 X96.450 Y84.550 E0.26608
G1 X96.450 Y89.450 E0.44958
G1 X93.625 Y89.450 E0.25920
G1 X93.050 Y89.450 F9000.000
G1 E-3.50000 F2400.00000
G1 X97.050 Y83.950 F9000.000
G1 X98.000 Y83.950 F9000.000
G1 X98.950 Y83.950 F9000.000
G1 X98.814 Y83.814 F9000.000
G1 E3.50000 F2400.00000
G1 X103.186 Y83.814 E0.40106 F450.000
G1 X103.186 Y102.186 E1.68557
G1 X98.814 Y102.186 E0.40106
G1 X98.814 Y83.889 E1.67869
G1 X99.550 Y96.550 F9000.000
G1 X102.450 Y96.550 E0.26608 F450.000
G1 X102.450 Y101.450 E0.44958
G1 X99.550 Y101.450 E0.26608
G1 X99.550 Y96.625 E0.44270
G1 X99.550 Y96.050 F9000.000
G1 X99.550 Y95.450 F9000.000
G1 X99.550 Y92.550 E0.26608 F450.000
G1 X102.450 Y92.550 E0.26608
G1 X102.450 Y95.450 E0.26608
G1 X99.625 Y95.450 E0.25920
G1 X99.050 Y95.450 F9000.000
G1 X99.550 Y91.450 F9000.000
G1 X99.550 Y88.550 E0.26608 F450.000
G1 X102.450 Y88.550 E0.26608
G1 X102.450 Y91.450 E0.26608
G1 X99.625 Y91.450 E0.25920
G1 X99.050 Y91.450 F9000.000
G1 X99.550 Y87.450 F9000.000
G1 X99.550 Y84.550 E0.26608 F450.000
G1 X102.450 Y84.550 E0.26608
G1 X102.450 Y87.450 E0.26608
G1 X99.625 Y87.450 E0.25920
G1 X99.050 Y87.450 F9000.000
G1 E-3.50000 F2400.00000
G1 X103.050 Y83.950 F9000.000
G1 X104.000 Y83.950 F9000.000
G1 X104.950 Y83.950 F9000.000
G1 X104.814 Y83.814 F9000.000
G1 E3.50000 F2400.00000
G1 X109.186 Y83.814 E0.40106 F450.000
G1 X109.186 Y102.186 E1.68557
G1 X104.814 Y102.186 E0.40106
G1 X104.814 Y83.889 E1.67869
G1 X105.550 Y98.550 F9000.000
G1 X108.450 Y98.550 E0.26608 F450.000
G1 X108.450 Y101.450 E0.26608
G1 X105.550 Y101.450 E0.26608
G1 X105.550 Y98.625 E0.25920
G1 X105.550 Y98.050 F9000.000
G1 X105.550 Y97.450 F9000.000
G1 X105.550 Y94.550 E0.26608 F450.000
G1 X108.450 Y94.550 E0.26608
G1 X108.450 Y97.450 E0.26608
G1 X105.625 Y97.450 E0.25920
G1 X105.050 Y97.450 F9000.000
G1 X105.550 Y93.450 F9000.000
G1 X105.550 Y90.550 E0.26608 F450.000
G1 X108.450 Y90.550 E0.26608
G1 X108.450 Y93.450 E0.26608
G1 X105.625 Y93.450 E0.25920
G1 X105.050 Y93.450 F9000.000
G1 X105.550 Y89.450 F9000.000
G1 X105.550 Y84.550 E0.44958 F450.000
G1 X108.450 Y84.550 E0.26608
G1 X108.450 Y89.450 E0.44958
G1 X105.625 Y89.450 E0.25920
G1 X105.050 Y89.450 F9000.000
G1 E-3.50000 F2400.00000
G1 X109.050 Y83.950 F9000.000
G1 X110.000 Y83.950 F9000.000
G1 X110.950 Y83.950 F9000.000
G1 X110.814 Y83.814 F9000.000
G1 E3.50000 F2400.00000
G1 X115.186 Y83.814 E0.40106 F450.000
G1 X115.186 Y102.186 E1.68557
G1 X110.814 Y102.186 E0.40106
G1 X110.814 Y83.889 E1.67869
G1 X111.550 Y96.550 F9000.000
G1 X114.450 Y96.550 E0.26608 F450.000
G1 X114.450 Y101.450 E0.44958
G1 X111.550 Y101.450 E0.26608
G1 X111.550 Y96.625 E0.44270
G1 X111.550 Y96.050 F9000.000
G1 X111.550 Y95.450 F9000.000
G1 X111.550 Y92.550 E0.26608 F450.000
G1 X114.450 Y92.550 E0.26608
G1 X114.450 Y95.450 E0.26608
G1 X111.625 Y95.450 E0.25920
G1 X111.050 Y95.450 F9000.000
G1 X111.550 Y91.450 F9000.000
G1 X111.550 Y88.550 E0.26608 F450.000
G1 X114.450 Y88.550 E0.26608
G1 X114.450 Y91.450 E0.26608
G1 X111.625 Y91.450 E0.25920
G1 X111.050 Y91.450 F9000.000
G1 X111.550 Y87.450 F9000.000
G1 X111.550 Y84.550 E0.26608 F450.000
G1 X114.450 Y84.550 E0.26608
G1 X114.450 Y87.450 E0.26608
G1 X111.625 Y87.450 E0.25920
G1 X111.050 Y87.450 F9000.000
G1 E-3.50000 F2400.00000
G1 X115.050 Y83.950 F9000.000
G1 X116.000 Y83.950 F9000.000
G1 X116.950 Y83.950 F9000.000
G1 X116.814 Y83.814 F9000.000
G1 E3.50000 F2400.00000
G1 X121.186 Y83.814 E0.40106 F450.000
G1 X121.186 Y102.186 E1.68557
G1 X116.814 Y102.186 E0.40106
G1 X116.814 Y83.889 E1.67869
G1 X117.550 Y98.550 F9000.000
G1 X120.450 Y98.550 E0.26608 F450.000
G1 X120.450 Y101.450 E0.26608
G1 X117.550 Y101.450 E0.26608
G1 X117.550 Y98.625 E0.25920
G1 X117.550 Y98.050 F9000.000
G1 X117.550 Y97.450 F9000.000
G1 X117.550 Y94.550 E0.26608 F450.000
G1 X120.450 Y94.550 E0.26608
G1 X120.450 Y97.450 E0.26608
G1 X117.625 Y97.450 E0.25920
G1 X117.050 Y97.450 F9000.000
G1 X117.550 Y93.450 F9000.000
G1 X117.550 Y90.550 E0.26608 F450.000
G1 X120.450 Y90.550 E0.26608
G1 X120.450 Y93.450 E0.26608
G1 X117.625 Y93.450 E0.25920
G1 X117.050 Y93.450 F9000.000
G1 X117.550 Y89.450 F9000.000
G1 X117.550 Y84.550 E0.44958 F450.000
G1 X120.450 Y84.550 E0.26608
G1 X120.450 Y89.450 E0.44958
G1 X117.625 Y89.450 E0.25920
G1 X117.050 Y89.450 F9000.000
G1 E-3.50000 F2400.00000
G1 X121.050 Y83.950 F9000.000
G1 X122.000 Y83.950 F9000.000
G1 X122.950 Y83.950 F9000.000
G1 X122.814 Y83.814 F9000.000
G1 E3.50000 F2400.00000
G1 X127.186 Y83.814 E0.40106 F450.000
G1 X127.186 Y102.186 E1.68557
G1 X122.814 Y102.186 E0.40106
G1 X122.814 Y83.889 E1.67869
G1 X123.550 Y96.550 F9000.000
G1 X126.450 Y96.550 E0.26608 F450.000
