; generated by Slic3r 1.2.9 on 2017-05-11 at 12:26:53

; external perimeters extrusion width = 0.50mm
; perimeters extrusion width = 0.50mm
; infill extrusion width = 0.50mm
; solid infill extrusion width = 0.50mm
; top infill extrusion width = 0.50mm

M107
M190 S57 ; set bed temperature
G28 ; home all axes
M83;
G10 P0 S195 R160                       ; Set tool 0 operating and standby temperatures
T0

G21 ; set units to millimeters
G90 ; use absolute coordinates
M83 ; use relative distances for extrusion
G1 E-3.50000 F2400.00000
G1 Z0.300 F9000.000
G1 X54.810 Y53.561 F9000.000
G1 E3.50000 F2400.00000
G1 X57.050 Y52.814 E0.21667 F600.000
G1 X142.950 Y52.814 E7.88137
G1 X144.621 Y53.209 E0.15755
G1 X145.939 Y54.310 E0.15755 F600.000
G1 X146.686 Y56.550 E0.21667
G1 X146.686 Y143.450 E7.97312
G1 X146.291 Y145.121 E0.15755
G1 X145.190 Y146.439 E0.15755
G1 X142.950 Y147.186 E0.21667
G1 X57.050 Y147.186 E7.88137
G1 X55.379 Y146.791 E0.15755
G1 X54.061 Y145.690 E0.15755
G1 X53.314 Y143.450 E0.21667
G1 X53.314 Y56.550 E7.97312
G1 X53.709 Y54.879 E0.15755
G1 X54.762 Y53.618 E0.15067
G1 E-3.50000 F2400.00000
G1 X126.314 Y76.686 F9000.000
G1 E3.50000 F2400.00000
G1 X126.314 Y76.186 E0.04588 F450.000
G1 X125.314 Y76.186 E0.09175
G1 X125.314 Y75.686 E0.04588
G1 X124.814 Y75.686 E0.04588
G1 X124.814 Y75.186 E0.04588
G1 X124.314 Y75.186 E0.04588
G1 X124.314 Y74.186 E0.09175
G1 X123.814 Y74.186 E0.04588
G1 X123.814 Y66.814 E0.67632
G1 X124.314 Y66.814 E0.04588
G1 X124.314 Y65.814 E0.09175
G1 X124.814 Y65.814 E0.04588
G1 X124.814 Y65.314 E0.04588
G1 X125.314 Y65.314 E0.04588
G1 X125.314 Y64.814 E0.04588
G1 X126.314 Y64.814 E0.09175
G1 X126.314 Y64.314 E0.04588
G1 X133.686 Y64.314 E0.67632
G1 X133.686 Y64.814 E0.04588
G1 X134.686 Y64.814 E0.09175
G1 X134.686 Y65.314 E0.04588
G1 X135.186 Y65.314 E0.04588
G1 X135.186 Y65.814 E0.04588
G1 X135.686 Y65.814 E0.04588
G1 X135.686 Y66.814 E0.09175
G1 X136.186 Y66.814 E0.04588
G1 X136.186 Y74.186 E0.67632
G1 X135.686 Y74.186 E0.04588
G1 X135.686 Y75.186 E0.09175
G1 X135.186 Y75.186 E0.04588
G1 X135.186 Y75.686 E0.04588
G1 X134.686 Y75.686 E0.04588
G1 X134.686 Y76.186 E0.04588
G1 X133.686 Y76.186 E0.09175
G1 X133.686 Y76.686 E0.04588
G1 X126.389 Y76.686 E0.66943
G1 X127.050 Y75.950 F9000.000
G1 X127.050 Y75.450 E0.04588 F450.000
G1 X126.050 Y75.450 E0.09175
G1 X126.050 Y74.950 E0.04588
G1 X125.550 Y74.950 E0.04588
G1 X125.550 Y74.450 E0.04588
G1 X125.050 Y74.450 E0.04588
G1 X125.050 Y73.450 E0.09175
G1 X124.550 Y73.450 E0.04588
G1 X124.550 Y67.550 E0.54133
G1 X125.050 Y67.550 E0.04588
G1 X125.050 Y66.550 E0.09175
G1 X125.550 Y66.550 E0.04588
G1 X125.550 Y66.050 E0.04588
G1 X126.050 Y66.050 E0.04588
G1 X126.050 Y65.550 E0.04588
G1 X127.050 Y65.550 E0.09175
G1 X127.050 Y65.050 E0.04588
G1 X132.950 Y65.050 E0.54133
G1 X132.950 Y65.550 E0.04588
G1 X133.950 Y65.550 E0.09175
G1 X133.950 Y66.050 E0.04588
G1 X134.450 Y66.050 E0.04588
G1 X134.450 Y66.550 E0.04588
G1 X134.950 Y66.550 E0.04588
G1 X134.950 Y67.550 E0.09175
G1 X135.450 Y67.550 E0.04588
G1 X135.450 Y73.450 E0.54133
G1 X134.950 Y73.450 E0.04588
G1 X134.950 Y74.450 E0.09175
G1 X134.450 Y74.450 E0.04588
G1 X134.450 Y74.950 E0.04588
G1 X133.950 Y74.950 E0.04588
G1 X133.950 Y75.450 E0.04588
G1 X132.950 Y75.450 E0.09175
G1 X132.950 Y75.950 E0.04588
G1 X127.125 Y75.950 E0.53445
G1 X126.550 Y75.950 F9000.000
G1 X116.186 Y74.186 F9000.000
G1 X115.686 Y74.186 E0.04588 F450.000
G1 X115.686 Y75.186 E0.09175
G1 X115.186 Y75.186 E0.04588
G1 X115.186 Y75.686 E0.04588
G1 X114.686 Y75.686 E0.04588
G1 X114.686 Y76.186 E0.04588
G1 X113.686 Y76.186 E0.09175
G1 X113.686 Y76.686 E0.04588
G1 X106.314 Y76.686 E0.67632
G1 X106.314 Y76.186 E0.04588
G1 X105.314 Y76.186 E0.09175
G1 X105.314 Y75.686 E0.04588
G1 X104.814 Y75.686 E0.04588
G1 X104.814 Y75.186 E0.04588
G1 X104.314 Y75.186 E0.04588
G1 X104.314 Y74.186 E0.09175
G1 X103.814 Y74.186 E0.04588
G1 X103.814 Y66.814 E0.67632
G1 X104.314 Y66.814 E0.04588
G1 X104.314 Y65.814 E0.09175
G1 X104.814 Y65.814 E0.04588
G1 X104.814 Y65.314 E0.04588
G1 X105.314 Y65.314 E0.04588
G1 X105.314 Y64.814 E0.04588
G1 X106.314 Y64.814 E0.09175
G1 X106.314 Y64.314 E0.04588
G1 X113.686 Y64.314 E0.67632
G1 X113.686 Y64.814 E0.04588
G1 X114.686 Y64.814 E0.09175
G1 X114.686 Y65.314 E0.04588
G1 X115.186 Y65.314 E0.04588
G1 X115.186 Y65.814 E0.04588
G1 X115.686 Y65.814 E0.04588
G1 X115.686 Y66.814 E0.09175
G1 X116.186 Y66.814 E0.04588
G1 X116.186 Y74.111 E0.66943
G1 X115.450 Y73.450 F9000.000
G1 X114.950 Y73.450 E0.04588 F450.000
G1 X114.950 Y74.450 E0.09175
G1 X114.450 Y74.450 E0.04588
G1 X114.450 Y74.950 E0.04588
G1 X113.950 Y74.950 E0.04588
G1 X113.950 Y75.450 E0.04588
G1 X112.950 Y75.450 E0.09175
G1 X112.950 Y75.950 E0.04588
G1 X107.050 Y75.950 E0.54133
G1 X107.050 Y75.450 E0.04588
G1 X106.050 Y75.450 E0.09175
G1 X106.050 Y74.950 E0.04588
G1 X105.550 Y74.950 E0.04588
G1 X105.550 Y74.450 E0.04588
G1 X105.050 Y74.450 E0.04588
G1 X105.050 Y73.450 E0.09175
G1 X104.550 Y73.450 E0.04588
G1 X104.550 Y67.550 E0.54133
G1 X105.050 Y67.550 E0.04588
G1 X105.050 Y66.550 E0.09175
G1 X105.550 Y66.550 E0.04588
G1 X105.550 Y66.050 E0.04588
G1 X106.050 Y66.050 E0.04588
G1 X106.050 Y65.550 E0.04588
G1 X107.050 Y65.550 E0.09175
G1 X107.050 Y65.050 E0.04588
G1 X112.950 Y65.050 E0.54133
G1 X112.950 Y65.550 E0.04588
G1 X113.950 Y65.550 E0.09175
G1 X113.950 Y66.050 E0.04588
G1 X114.450 Y66.050 E0.04588
G1 X114.450 Y66.550 E0.04588
G1 X114.950 Y66.550 E0.04588
G1 X114.950 Y67.550 E0.09175
G1 X115.450 Y67.550 E0.04588
G1 X115.450 Y73.375 E0.53445
G1 X115.450 Y73.950 F9000.000
G1 E-3.50000 F2400.00000
G1 X104.450 Y74.050 F9000.000
G1 X103.950 Y74.050 F9000.000
G1 X100.000 Y74.050 F9000.000
G1 X96.050 Y74.050 F9000.000
G1 X96.186 Y74.186 F9000.000
G1 E3.50000 F2400.00000
G1 X95.686 Y74.186 E0.04588 F450.000
G1 X95.686 Y75.186 E0.09175
G1 X95.186 Y75.186 E0.04588
G1 X95.186 Y75.686 E0.04588
G1 X94.686 Y75.686 E0.04588
G1 X94.686 Y76.186 E0.04588
G1 X93.686 Y76.186 E0.09175
G1 X93.686 Y76.686 E0.04588
G1 X86.314 Y76.686 E0.67632
G1 X86.314 Y76.186 E0.04588
G1 X85.314 Y76.186 E0.09175
G1 X85.314 Y75.686 E0.04588
G1 X84.814 Y75.686 E0.04588
G1 X84.814 Y75.186 E0.04588
G1 X84.314 Y75.186 E0.04588
G1 X84.314 Y74.186 E0.09175
G1 X83.814 Y74.186 E0.04588
G1 X83.814 Y66.814 E0.67632
G1 X84.314 Y66.814 E0.04588
G1 X84.314 Y65.814 E0.09175
G1 X84.814 Y65.814 E0.04588
G1 X84.814 Y65.314 E0.04588
G1 X85.314 Y65.314 E0.04588
G1 X85.314 Y64.814 E0.04588
G1 X86.314 Y64.814 E0.09175
G1 X86.314 Y64.314 E0.04588
G1 X93.686 Y64.314 E0.67632
G1 X93.686 Y64.814 E0.04588
G1 X94.686 Y64.814 E0.09175
G1 X94.686 Y65.314 E0.04588
G1 X95.186 Y65.314 E0.04588
G1 X95.186 Y65.814 E0.04588
G1 X95.686 Y65.814 E0.04588
G1 X95.686 Y66.814 E0.09175
G1 X96.186 Y66.814 E0.04588
G1 X96.186 Y74.111 E0.66943
G1 X95.450 Y73.450 F9000.000
G1 X94.950 Y73.450 E0.04588 F450.000
G1 X94.950 Y74.450 E0.09175
G1 X94.450 Y74.450 E0.04588
G1 X94.450 Y74.950 E0.04588
G1 X93.950 Y74.950 E0.04588
G1 X93.950 Y75.450 E0.04588
G1 X92.950 Y75.450 E0.09175
G1 X92.950 Y75.950 E0.04588
G1 X87.050 Y75.950 E0.54133
G1 X87.050 Y75.450 E0.04588
G1 X86.050 Y75.450 E0.09175
G1 X86.050 Y74.950 E0.04588
G1 X85.550 Y74.950 E0.04588
G1 X85.550 Y74.450 E0.04588
G1 X85.050 Y74.450 E0.04588
G1 X85.050 Y73.450 E0.09175
G1 X84.550 Y73.450 E0.04588
G1 X84.550 Y67.550 E0.54133
G1 X85.050 Y67.550 E0.04588
G1 X85.050 Y66.550 E0.09175
G1 X85.550 Y66.550 E0.04588
G1 X85.550 Y66.050 E0.04588
G1 X86.050 Y66.050 E0.04588
G1 X86.050 Y65.550 E0.04588
G1 X87.050 Y65.550 E0.09175
G1 X87.050 Y65.050 E0.04588
G1 X92.950 Y65.050 E0.54133
G1 X92.950 Y65.550 E0.04588
G1 X93.950 Y65.550 E0.09175
G1 X93.950 Y66.050 E0.04588
G1 X94.450 Y66.050 E0.04588
G1 X94.450 Y66.550 E0.04588
G1 X94.950 Y66.550 E0.04588
G1 X94.950 Y67.550 E0.09175
G1 X95.450 Y67.550 E0.04588
G1 X95.450 Y73.375 E0.53445
G1 X95.450 Y73.950 F9000.000
G1 E-3.50000 F2400.00000
G1 X84.450 Y74.050 F9000.000
G1 X83.950 Y74.050 F9000.000
G1 X80.000 Y74.050 F9000.000
G1 X76.050 Y74.050 F9000.000
G1 X76.186 Y74.186 F9000.000
G1 E3.50000 F2400.00000
G1 X75.686 Y74.186 E0.04588 F450.000
G1 X75.686 Y75.186 E0.09175
G1 X75.186 Y75.186 E0.04588
G1 X75.186 Y75.686 E0.04588
G1 X74.686 Y75.686 E0.04588
G1 X74.686 Y76.186 E0.04588
G1 X73.686 Y76.186 E0.09175
G1 X73.686 Y76.686 E0.04588
G1 X66.314 Y76.686 E0.67632
G1 X66.314 Y76.186 E0.04588
G1 X65.314 Y76.186 E0.09175
G1 X65.314 Y75.686 E0.04588
G1 X64.814 Y75.686 E0.04588
G1 X64.814 Y75.186 E0.04588
G1 X64.314 Y75.186 E0.04588
G1 X64.314 Y74.186 E0.09175
G1 X63.814 Y74.186 E0.04588
G1 X63.814 Y66.814 E0.67632
G1 X64.314 Y66.814 E0.04588
G1 X64.314 Y65.814 E0.09175
G1 X64.814 Y65.814 E0.04588
G1 X64.814 Y65.314 E0.04588
G1 X65.314 Y65.314 E0.04588
G1 X65.314 Y64.814 E0.04588
G1 X66.314 Y64.814 E0.09175
G1 X66.314 Y64.314 E0.04588
G1 X73.686 Y64.314 E0.67632
G1 X73.686 Y64.814 E0.04588
G1 X74.686 Y64.814 E0.09175
G1 X74.686 Y65.314 E0.04588
G1 X75.186 Y65.314 E0.04588
G1 X75.186 Y65.814 E0.04588
G1 X75.686 Y65.814 E0.04588
G1 X75.686 Y66.814 E0.09175
G1 X76.186 Y66.814 E0.04588
G1 X76.186 Y74.111 E0.66943
G1 X75.450 Y73.450 F9000.000
G1 X74.950 Y73.450 E0.04588 F450.000
G1 X74.950 Y74.450 E0.09175
G1 X74.450 Y74.450 E0.04588
G1 X74.450 Y74.950 E0.04588
G1 X73.950 Y74.950 E0.04588
G1 X73.950 Y75.450 E0.04588
G1 X72.950 Y75.450 E0.09175
G1 X72.950 Y75.950 E0.04588
G1 X67.050 Y75.950 E0.54133
G1 X67.050 Y75.450 E0.04588
G1 X66.050 Y75.450 E0.09175
G1 X66.050 Y74.950 E0.04588
G1 X65.550 Y74.950 E0.04588
G1 X65.550 Y74.450 E0.04588
G1 X65.050 Y74.450 E0.04588
G1 X65.050 Y73.450 E0.09175
G1 X64.550 Y73.450 E0.04588
G1 X64.550 Y67.550 E0.54133
G1 X65.050 Y67.550 E0.04588
G1 X65.050 Y66.550 E0.09175
G1 X65.550 Y66.550 E0.04588
G1 X65.550 Y66.050 E0.04588
G1 X66.050 Y66.050 E0.04588
G1 X66.050 Y65.550 E0.04588
G1 X67.050 Y65.550 E0.09175
G1 X67.050 Y65.050 E0.04588
G1 X72.950 Y65.050 E0.54133
G1 X72.950 Y65.550 E0.04588
G1 X73.950 Y65.550 E0.09175
G1 X73.950 Y66.050 E0.04588
G1 X74.450 Y66.050 E0.04588
G1 X74.450 Y66.550 E0.04588
G1 X74.950 Y66.550 E0.04588
G1 X74.950 Y67.550 E0.09175
G1 X75.450 Y67.550 E0.04588
G1 X75.450 Y73.375 E0.53445
G1 X75.450 Y73.950 F9000.000
G1 E-3.50000 F2400.00000
G1 X66.450 Y64.950 F9000.000
G1 X65.450 Y63.700 F9000.000
G1 X62.385 Y61.885 F9000.000
G1 X58.050 Y57.550 F9000.000
G1 X58.186 Y57.686 F9000.000
G1 E3.50000 F2400.00000
G1 X141.814 Y57.686 E7.67298 F450.000
G1 X141.814 Y142.314 E7.76473
G1 X58.186 Y142.314 E7.67298
G1 X58.186 Y57.761 E7.75785
G1 X57.450 Y56.950 F9000.000
G1 X142.550 Y56.950 E7.80797 F450.000
G1 X142.550 Y143.050 E7.89972
G1 X57.450 Y143.050 E7.80797
G1 X57.450 Y57.025 E7.89284
G1 X57.883 Y57.200 F9000.000
G1 X65.865 Y64.301 F9000.000
G1 X59.699 Y58.135 E0.80182 F450.000
G1 X58.665 Y58.144 E0.09499
G1 X64.886 Y64.365 E0.80888
G1 X64.365 Y64.886 E0.06778
G1 X58.635 Y59.156 E0.74509
G1 X58.635 Y60.199 E0.09585
G1 X63.865 Y65.429 E0.68008
G1 X63.759 Y66.365 E0.08663
G1 X58.635 Y61.241 E0.66626
G1 X58.635 Y62.284 E0.09585
G1 X63.365 Y67.014 E0.61507
G1 X63.365 Y68.056 E0.09585
G1 X58.635 Y63.326 E0.61507
G1 X58.635 Y64.369 E0.09585
G1 X63.365 Y69.099 E0.61507
G1 X63.365 Y70.141 E0.09585
G1 X58.635 Y65.411 E0.61507
G1 X58.635 Y66.454 E0.09585
G1 X63.365 Y71.184 E0.61507
G1 X63.365 Y72.226 E0.09585
G1 X58.635 Y67.496 E0.61507
G1 X58.635 Y68.539 E0.09585
G1 X63.365 Y73.269 E0.61507
G1 X63.365 Y74.311 E0.09585
G1 X58.635 Y69.581 E0.61507
G1 X58.635 Y70.624 E0.09585
G1 X129.876 Y141.865 E9.26324
G1 X130.919 Y141.865 E0.09585
G1 X66.189 Y77.135 E8.41660
G1 X67.231 Y77.135 E0.09585
G1 X131.961 Y141.865 E8.41660
G1 X133.004 Y141.865 E0.09585
G1 X68.274 Y77.135 E8.41660
G1 X69.316 Y77.135 E0.09585
G1 X134.046 Y141.865 E8.41660
G1 X135.089 Y141.865 E0.09585
G1 X70.359 Y77.135 E8.41660
G1 X71.401 Y77.135 E0.09585
G1 X136.131 Y141.865 E8.41660
G1 X137.174 Y141.865 E0.09585
G1 X72.444 Y77.135 E8.41660
G1 X73.486 Y77.135 E0.09585
G1 X138.216 Y141.865 E8.41660
G1 X139.259 Y141.865 E0.09585
G1 X74.135 Y76.741 E8.46780
G1 X75.071 Y76.635 E0.08663
G1 X140.301 Y141.865 E8.48162
G1 X141.335 Y141.856 E0.09499
G1 X75.614 Y76.135 E8.54541
G1 X76.135 Y75.614 E0.06778
G1 X141.365 Y140.844 E8.48162
G1 X141.365 Y139.801 E0.09585
G1 X76.199 Y74.635 E8.47334
G1 X76.635 Y74.029 F9000.000
G1 X141.365 Y138.759 E8.41660 F450.000
G1 X141.365 Y137.716 E0.09585
G1 X76.635 Y72.986 E8.41660
G1 X76.635 Y71.944 E0.09585
G1 X141.365 Y136.674 E8.41660
G1 X141.365 Y135.632 E0.09585
G1 X76.635 Y70.901 E8.41660
G1 X76.635 Y69.859 E0.09585
G1 X141.365 Y134.589 E8.41660
G1 X141.365 Y133.547 E0.09585
G1 X76.635 Y68.816 E8.41660
G1 X73.769 Y63.865 F9000.000
G1 X68.038 Y58.135 E0.74509 F450.000
G1 X66.996 Y58.135 E0.09585
G1 X72.726 Y63.865 E0.74509
G1 X71.684 Y63.865 E0.09585
G1 X65.953 Y58.135 E0.74509
G1 X64.911 Y58.135 E0.09585
G1 X70.641 Y63.865 E0.74509
G1 X69.599 Y63.865 E0.09585
G1 X63.868 Y58.135 E0.74509
G1 X62.826 Y58.135 E0.09585
G1 X68.556 Y63.865 E0.74509
G1 X67.514 Y63.865 E0.09585
G1 X61.784 Y58.135 E0.74509
G1 X60.741 Y58.135 E0.09585
G1 X66.471 Y63.865 E0.74509
G1 X58.635 Y71.666 F9000.000
G1 X128.834 Y141.865 E9.12768 F450.000
G1 X127.791 Y141.865 E0.09585
G1 X58.635 Y72.709 E8.99213
G1 X58.635 Y73.751 E0.09585
G1 X126.749 Y141.865 E8.85658
G1 X125.706 Y141.865 E0.09585
G1 X58.635 Y74.794 E8.72103
G1 X58.635 Y75.836 E0.09585
G1 X124.664 Y141.865 E8.58548
G1 X123.621 Y141.865 E0.09585
G1 X58.635 Y76.879 E8.44993
G1 X58.635 Y77.921 E0.09585
G1 X122.579 Y141.865 E8.31438
G1 X121.536 Y141.865 E0.09585
G1 X58.635 Y78.964 E8.17883
G1 X58.635 Y80.006 E0.09585
G1 X120.494 Y141.865 E8.04328
G1 X119.451 Y141.865 E0.09585
G1 X58.635 Y81.049 E7.90773
G1 X58.635 Y82.091 E0.09585
G1 X118.409 Y141.865 E7.77217
G1 X117.366 Y141.865 E0.09585
G1 X58.635 Y83.133 E7.63662
G1 X58.635 Y84.176 E0.09585
G1 X116.324 Y141.865 E7.50107
G1 X115.282 Y141.865 E0.09585
G1 X58.635 Y85.218 E7.36552
G1 X58.635 Y86.261 E0.09585
G1 X114.239 Y141.865 E7.22997
G1 X113.197 Y141.865 E0.09585
G1 X58.635 Y87.303 E7.09442
G1 X58.635 Y88.346 E0.09585
G1 X112.154 Y141.865 E6.95887
G1 X111.112 Y141.865 E0.09585
G1 X58.635 Y89.388 E6.82332
G1 X58.635 Y90.431 E0.09585
G1 X110.069 Y141.865 E6.68777
G1 X109.027 Y141.865 E0.09585
G1 X58.635 Y91.473 E6.55222
G1 X58.635 Y92.516 E0.09585
G1 X107.984 Y141.865 E6.41666
G1 X106.942 Y141.865 E0.09585
G1 X58.635 Y93.558 E6.28111
G1 X58.635 Y94.601 E0.09585
G1 X105.899 Y141.865 E6.14556
G1 X104.857 Y141.865 E0.09585
G1 X58.635 Y95.643 E6.01001
G1 X58.635 Y96.686 E0.09585
G1 X103.814 Y141.865 E5.87446
G1 X102.772 Y141.865 E0.09585
G1 X58.635 Y97.728 E5.73891
G1 X58.635 Y98.771 E0.09585
G1 X101.729 Y141.865 E5.60336
G1 X100.687 Y141.865 E0.09585
G1 X58.635 Y99.813 E5.46781
G1 X58.635 Y100.856 E0.09585
G1 X99.644 Y141.865 E5.33226
G1 X98.602 Y141.865 E0.09585
G1 X58.635 Y101.898 E5.19671
G1 X58.635 Y102.941 E0.09585
G1 X97.559 Y141.865 E5.06115
G1 X96.517 Y141.865 E0.09585
G1 X58.635 Y103.983 E4.92560
G1 X58.635 Y105.026 E0.09585
G1 X95.474 Y141.865 E4.79005
G1 X94.432 Y141.865 E0.09585
G1 X58.635 Y106.068 E4.65450
G1 X58.635 Y107.111 E0.09585
G1 X93.389 Y141.865 E4.51895
G1 X92.347 Y141.865 E0.09585
G1 X58.635 Y108.153 E4.38340
G1 X58.635 Y109.196 E0.09585
G1 X91.304 Y141.865 E4.24785
G1 X90.262 Y141.865 E0.09585
G1 X58.635 Y110.238 E4.11230
G1 X58.635 Y111.281 E0.09585
G1 X89.219 Y141.865 E3.97675
G1 X88.177 Y141.865 E0.09585
G1 X58.635 Y112.323 E3.84120
G1 X58.635 Y113.366 E0.09585
G1 X87.134 Y141.865 E3.70564
G1 X86.092 Y141.865 E0.09585
G1 X58.635 Y114.408 E3.57009
G1 X58.635 Y115.451 E0.09585
G1 X85.049 Y141.865 E3.43454
G1 X84.007 Y141.865 E0.09585
G1 X58.635 Y116.493 E3.29899
G1 X58.635 Y117.536 E0.09585
G1 X82.964 Y141.865 E3.16344
G1 X81.922 Y141.865 E0.09585
G1 X58.635 Y118.578 E3.02789
G1 X58.635 Y119.621 E0.09585
G1 X80.879 Y141.865 E2.89234
G1 X79.837 Y141.865 E0.09585
G1 X58.635 Y120.663 E2.75679
G1 X58.635 Y121.706 E0.09585
G1 X78.794 Y141.865 E2.62124
G1 X77.752 Y141.865 E0.09585
G1 X58.635 Y122.748 E2.48569
G1 X58.635 Y123.791 E0.09585
G1 X76.709 Y141.865 E2.35013
G1 X75.667 Y141.865 E0.09585
G1 X58.635 Y124.833 E2.21458
