; generated by Slic3r 1.2.9 on 2017-05-11 at 11:38:41

; external perimeters extrusion width = 0.50mm
; perimeters extrusion width = 0.50mm
; infill extrusion width = 0.50mm
; solid infill extrusion width = 0.50mm
; top infill extrusion width = 0.50mm

M107
M190 S57 ; set bed temperature
G28 ; home all axes
M83;
G10 P0 S195 R160                       ; Set tool 0 operating and standby temperatures
T0

G21 ; set units to millimeters
G90 ; use absolute coordinates
M83 ; use relative distances for extrusion
G1 E-3.50000 F2400.00000
G1 Z0.300 F9000.000
G1 X58.942 Y54.978 F9000.000
G1 E3.50000 F2400.00000
G1 X60.197 Y53.806 E0.15755 F600.000
G1 X62.050 Y53.314 E0.17589
G1 X137.950 Y53.314 E6.96386
G1 X139.621 Y53.709 E0.15755
G1 X141.058 Y54.978 E0.17589 F600.000
G1 X143.058 Y57.978 E0.33081
G1 X143.686 Y60.050 E0.19864
G1 X143.686 Y139.950 E7.33087
G1 X143.058 Y142.022 E0.19864
G1 X141.058 Y145.022 E0.33081
G1 X139.803 Y146.194 E0.15755
G1 X137.950 Y146.686 E0.17589
G1 X62.050 Y146.686 E6.96386
G1 X60.379 Y146.291 E0.15755
G1 X58.942 Y145.022 E0.17589
G1 X56.942 Y142.022 E0.33081
G1 X56.314 Y139.950 E0.19864
G1 X56.314 Y60.050 E7.33087
G1 X56.942 Y57.978 E0.19864
G1 X58.900 Y55.040 E0.32393
G1 E-3.50000 F2400.00000
G1 X127.814 Y126.814 F9000.000
G1 E3.50000 F2400.00000
G1 X137.186 Y126.814 E0.85982 F450.000
G1 X137.186 Y137.186 E0.95157
G1 X123.814 Y137.186 E1.22682
G1 X123.814 Y129.814 E0.67632
G1 X127.814 Y129.814 E0.36700
G1 X127.814 Y126.889 E0.26837
G1 X128.550 Y127.550 F9000.000
G1 X136.450 Y127.550 E0.72483 F450.000
G1 X136.450 Y136.450 E0.81658
G1 X124.550 Y136.450 E1.09183
G1 X124.550 Y130.550 E0.54133
G1 X128.550 Y130.550 E0.36700
G1 X128.550 Y127.625 E0.26837
G1 X128.550 Y127.050 F9000.000
G1 X128.814 Y125.186 F9000.000
G1 X128.814 Y123.186 E0.18350 F450.000
G1 X123.814 Y123.186 E0.45875
G1 X123.814 Y114.814 E0.76807
G1 X128.814 Y114.814 E0.45875
G1 X128.814 Y112.814 E0.18350
G1 X135.186 Y112.814 E0.58456
G1 X135.186 Y125.186 E1.13507
G1 X128.889 Y125.186 E0.57768
G1 X129.550 Y124.450 F9000.000
G1 X129.550 Y113.550 E1.00008 F450.000
G1 X134.450 Y113.550 E0.44958
G1 X134.450 Y124.450 E1.00008
G1 X129.625 Y124.450 E0.44270
G1 X129.050 Y124.450 F9000.000
G1 X128.450 Y122.450 F9000.000
G1 X124.550 Y122.450 E0.35783 F450.000
G1 X124.550 Y115.550 E0.63308
G1 X128.450 Y115.550 E0.35783
G1 X128.450 Y122.375 E0.62620
G1 X128.450 Y122.950 F9000.000
G1 X127.814 Y111.186 F9000.000
G1 X127.814 Y108.186 E0.27525 F450.000
G1 X123.814 Y108.186 E0.36700
G1 X123.814 Y100.814 E0.67632
G1 X137.186 Y100.814 E1.22682
G1 X137.186 Y111.186 E0.95157
G1 X127.889 Y111.186 E0.85293
G1 X128.550 Y110.450 F9000.000
G1 X128.550 Y107.450 E0.27525 F450.000
G1 X124.550 Y107.450 E0.36700
G1 X124.550 Y101.550 E0.54133
G1 X136.450 Y101.550 E1.09183
G1 X136.450 Y110.450 E0.81658
G1 X128.625 Y110.450 E0.71795
G1 X128.050 Y110.450 F9000.000
G1 X121.186 Y111.186 F9000.000
G1 X111.814 Y111.186 E0.85982 F450.000
G1 X111.814 Y100.814 E0.95157
G1 X117.186 Y100.814 E0.49281
G1 X117.186 Y103.814 E0.27525
G1 X119.491 Y103.814 E0.21153
G1 X121.186 Y105.509 E0.21987
G1 X121.186 Y111.111 E0.51396
G1 X120.450 Y110.450 F9000.000
G1 X112.550 Y110.450 E0.72483 F450.000
G1 X112.550 Y101.550 E0.81658
G1 X116.450 Y101.550 E0.35783
G1 X116.450 Y104.550 E0.27525
G1 X119.186 Y104.550 E0.25107
G1 X120.450 Y105.814 E0.16396
G1 X120.450 Y110.375 E0.41851
G1 X120.450 Y110.950 F9000.000
G1 E-3.50000 F2400.00000
G1 X119.435 Y103.950 F9000.000
G1 X120.129 Y100.950 F9000.000
G1 X117.050 Y100.000 F9000.000
G1 X117.050 Y99.050 F9000.000
G1 X117.186 Y99.186 F9000.000
G1 E3.50000 F2400.00000
G1 X111.814 Y99.186 E0.49281 F450.000
G1 X111.814 Y88.814 E0.95157
G1 X121.186 Y88.814 E0.85982
G1 X121.186 Y94.491 E0.52084
G1 X119.491 Y96.186 E0.21987
G1 X117.186 Y96.186 E0.21153
G1 X117.186 Y99.111 E0.26837
G1 X116.450 Y98.450 F9000.000
G1 X112.550 Y98.450 E0.35783 F450.000
G1 X112.550 Y89.550 E0.81658
G1 X120.450 Y89.550 E0.72483
G1 X120.450 Y94.186 E0.42539
G1 X119.186 Y95.450 E0.16396
G1 X116.450 Y95.450 E0.25107
G1 X116.450 Y98.375 E0.26837
G1 X116.450 Y98.950 F9000.000
G1 E-3.50000 F2400.00000
G1 X111.950 Y88.950 F9000.000
G1 X111.950 Y87.000 F9000.000
G1 X111.950 Y85.050 F9000.000
G1 X111.814 Y85.186 F9000.000
G1 E3.50000 F2400.00000
G1 X111.814 Y76.814 E0.76807 F450.000
G1 X121.186 Y76.814 E0.85982
G1 X121.186 Y85.186 E0.76807
G1 X111.889 Y85.186 E0.85293
G1 X112.550 Y84.450 F9000.000
G1 X112.550 Y77.550 E0.63308 F450.000
G1 X120.450 Y77.550 E0.72483
G1 X120.450 Y84.450 E0.63308
G1 X112.625 Y84.450 E0.71795
G1 X112.050 Y84.450 F9000.000
G1 X109.186 Y85.186 F9000.000
G1 X99.814 Y85.186 E0.85982 F450.000
G1 X99.814 Y76.814 E0.76807
G1 X109.186 Y76.814 E0.85982
G1 X109.186 Y85.111 E0.76118
G1 X108.450 Y84.450 F9000.000
G1 X100.550 Y84.450 E0.72483 F450.000
G1 X100.550 Y77.550 E0.63308
G1 X108.450 Y77.550 E0.72483
G1 X108.450 Y84.375 E0.62620
G1 X108.450 Y84.950 F9000.000
G1 X97.186 Y85.186 F9000.000
G1 X87.814 Y85.186 E0.85982 F450.000
G1 X87.814 Y76.814 E0.76807
G1 X97.186 Y76.814 E0.85982
G1 X97.186 Y85.111 E0.76118
G1 X96.450 Y84.450 F9000.000
G1 X88.550 Y84.450 E0.72483 F450.000
G1 X88.550 Y77.550 E0.63308
G1 X96.450 Y77.550 E0.72483
G1 X96.450 Y84.375 E0.62620
G1 X96.450 Y84.950 F9000.000
G1 X85.186 Y85.186 F9000.000
G1 X75.814 Y85.186 E0.85982 F450.000
G1 X75.814 Y76.814 E0.76807
G1 X85.186 Y76.814 E0.85982
G1 X85.186 Y85.111 E0.76118
G1 X84.450 Y84.450 F9000.000
G1 X76.550 Y84.450 E0.72483 F450.000
G1 X76.550 Y77.550 E0.63308
G1 X84.450 Y77.550 E0.72483
G1 X84.450 Y84.375 E0.62620
G1 X84.450 Y84.950 F9000.000
G1 X73.186 Y85.186 F9000.000
G1 X63.814 Y85.186 E0.85982 F450.000
G1 X63.814 Y76.814 E0.76807
G1 X73.186 Y76.814 E0.85982
G1 X73.186 Y85.111 E0.76118
G1 X72.450 Y84.450 F9000.000
G1 X64.550 Y84.450 E0.72483 F450.000
G1 X64.550 Y77.550 E0.63308
G1 X72.450 Y77.550 E0.72483
G1 X72.450 Y84.375 E0.62620
G1 X72.450 Y84.950 F9000.000
G1 X73.186 Y88.814 F9000.000
G1 X73.186 Y99.186 E0.95157 F450.000
G1 X63.814 Y99.186 E0.85982
G1 X63.814 Y88.814 E0.95157
G1 X73.111 Y88.814 E0.85293
G1 X72.450 Y89.550 F9000.000
G1 X72.450 Y98.450 E0.81658 F450.000
G1 X64.550 Y98.450 E0.72483
G1 X64.550 Y89.550 E0.81658
G1 X72.375 Y89.550 E0.71795
G1 X72.950 Y89.550 F9000.000
G1 X75.814 Y88.814 F9000.000
G1 X85.186 Y88.814 E0.85982 F450.000
G1 X85.186 Y99.186 E0.95157
G1 X75.814 Y99.186 E0.85982
G1 X75.814 Y88.889 E0.94469
G1 X76.550 Y89.550 F9000.000
G1 X84.450 Y89.550 E0.72483 F450.000
G1 X84.450 Y98.450 E0.81658
G1 X76.550 Y98.450 E0.72483
G1 X76.550 Y89.625 E0.80970
G1 X76.550 Y89.050 F9000.000
G1 X87.814 Y88.814 F9000.000
G1 X97.186 Y88.814 E0.85982 F450.000
G1 X97.186 Y99.186 E0.95157
G1 X87.814 Y99.186 E0.85982
G1 X87.814 Y88.889 E0.94469
G1 X88.550 Y89.550 F9000.000
G1 X96.450 Y89.550 E0.72483 F450.000
G1 X96.450 Y98.450 E0.81658
G1 X88.550 Y98.450 E0.72483
G1 X88.550 Y89.625 E0.80970
G1 X88.550 Y89.050 F9000.000
G1 X99.814 Y88.814 F9000.000
G1 X109.186 Y88.814 E0.85982 F450.000
G1 X109.186 Y99.186 E0.95157
G1 X99.814 Y99.186 E0.85982
G1 X99.814 Y88.889 E0.94469
G1 X100.550 Y89.550 F9000.000
G1 X108.450 Y89.550 E0.72483 F450.000
G1 X108.450 Y98.450 E0.81658
G1 X100.550 Y98.450 E0.72483
G1 X100.550 Y89.625 E0.80970
G1 X100.550 Y89.050 F9000.000
G1 X99.814 Y100.814 F9000.000
G1 X109.186 Y100.814 E0.85982 F450.000
G1 X109.186 Y111.186 E0.95157
G1 X99.814 Y111.186 E0.85982
G1 X99.814 Y100.889 E0.94469
G1 X100.550 Y101.550 F9000.000
G1 X108.450 Y101.550 E0.72483 F450.000
G1 X108.450 Y110.450 E0.81658
G1 X100.550 Y110.450 E0.72483
G1 X100.550 Y101.625 E0.80970
G1 X100.550 Y101.050 F9000.000
G1 X97.186 Y100.814 F9000.000
G1 X97.186 Y111.186 E0.95157 F450.000
G1 X87.814 Y111.186 E0.85982
G1 X87.814 Y100.814 E0.95157
G1 X97.111 Y100.814 E0.85293
G1 X96.450 Y101.550 F9000.000
G1 X96.450 Y110.450 E0.81658 F450.000
G1 X88.550 Y110.450 E0.72483
G1 X88.550 Y101.550 E0.81658
G1 X96.375 Y101.550 E0.71795
G1 X96.950 Y101.550 F9000.000
G1 X85.186 Y100.814 F9000.000
G1 X85.186 Y111.186 E0.95157 F450.000
G1 X75.814 Y111.186 E0.85982
G1 X75.814 Y100.814 E0.95157
G1 X85.111 Y100.814 E0.85293
G1 X84.450 Y101.550 F9000.000
G1 X84.450 Y110.450 E0.81658 F450.000
G1 X76.550 Y110.450 E0.72483
G1 X76.550 Y101.550 E0.81658
G1 X84.375 Y101.550 E0.71795
G1 X84.950 Y101.550 F9000.000
G1 X73.186 Y100.814 F9000.000
G1 X73.186 Y111.186 E0.95157 F450.000
G1 X63.814 Y111.186 E0.85982
G1 X63.814 Y100.814 E0.95157
G1 X73.111 Y100.814 E0.85293
G1 X72.450 Y101.550 F9000.000
G1 X72.450 Y110.450 E0.81658 F450.000
G1 X64.550 Y110.450 E0.72483
G1 X64.550 Y101.550 E0.81658
G1 X72.375 Y101.550 E0.71795
G1 X72.950 Y101.550 F9000.000
G1 X73.186 Y114.814 F9000.000
G1 X73.186 Y123.186 E0.76807 F450.000
G1 X63.814 Y123.186 E0.85982
G1 X63.814 Y114.814 E0.76807
G1 X73.111 Y114.814 E0.85293
G1 X72.450 Y115.550 F9000.000
G1 X72.450 Y122.450 E0.63308 F450.000
G1 X64.550 Y122.450 E0.72483
G1 X64.550 Y115.550 E0.63308
G1 X72.375 Y115.550 E0.71795
G1 X72.950 Y115.550 F9000.000
G1 X75.814 Y114.814 F9000.000
G1 X85.186 Y114.814 E0.85982 F450.000
G1 X85.186 Y123.186 E0.76807
G1 X75.814 Y123.186 E0.85982
G1 X75.814 Y114.889 E0.76118
G1 X76.550 Y115.550 F9000.000
G1 X84.450 Y115.550 E0.72483 F450.000
G1 X84.450 Y122.450 E0.63308
G1 X76.550 Y122.450 E0.72483
G1 X76.550 Y115.625 E0.62620
G1 X76.550 Y115.050 F9000.000
G1 X87.814 Y114.814 F9000.000
G1 X97.186 Y114.814 E0.85982 F450.000
G1 X97.186 Y123.186 E0.76807
G1 X87.814 Y123.186 E0.85982
G1 X87.814 Y114.889 E0.76118
G1 X88.550 Y115.550 F9000.000
G1 X96.450 Y115.550 E0.72483 F450.000
G1 X96.450 Y122.450 E0.63308
G1 X88.550 Y122.450 E0.72483
G1 X88.550 Y115.625 E0.62620
G1 X88.550 Y115.050 F9000.000
G1 X99.814 Y114.814 F9000.000
G1 X109.186 Y114.814 E0.85982 F450.000
G1 X109.186 Y123.186 E0.76807
G1 X99.814 Y123.186 E0.85982
G1 X99.814 Y114.889 E0.76118
G1 X100.550 Y115.550 F9000.000
G1 X108.450 Y115.550 E0.72483 F450.000
G1 X108.450 Y122.450 E0.63308
G1 X100.550 Y122.450 E0.72483
G1 X100.550 Y115.625 E0.62620
G1 X100.550 Y115.050 F9000.000
G1 X111.814 Y114.814 F9000.000
G1 X121.186 Y114.814 E0.85982 F450.000
G1 X121.186 Y123.186 E0.76807
G1 X111.814 Y123.186 E0.85982
G1 X111.814 Y114.889 E0.76118
G1 X112.550 Y115.550 F9000.000
G1 X120.450 Y115.550 E0.72483 F450.000
G1 X120.450 Y122.450 E0.63308
G1 X112.550 Y122.450 E0.72483
G1 X112.550 Y115.625 E0.62620
G1 X112.550 Y115.050 F9000.000
G1 X111.814 Y126.814 F9000.000
G1 X121.186 Y126.814 E0.85982 F450.000
G1 X121.186 Y132.491 E0.52084
G1 X119.491 Y134.186 E0.21987
G1 X117.186 Y134.186 E0.21153
G1 X117.186 Y137.186 E0.27525
G1 X111.814 Y137.186 E0.49281
G1 X111.814 Y126.889 E0.94469
G1 X112.550 Y127.550 F9000.000
G1 X120.450 Y127.550 E0.72483 F450.000
G1 X120.450 Y132.186 E0.42539
G1 X119.186 Y133.450 E0.16396
G1 X116.450 Y133.450 E0.25107
G1 X116.450 Y136.450 E0.27525
G1 X112.550 Y136.450 E0.35783
G1 X112.550 Y127.625 E0.80970
G1 X112.550 Y127.050 F9000.000
G1 X109.186 Y126.814 F9000.000
G1 X109.186 Y137.186 E0.95157 F450.000
G1 X99.814 Y137.186 E0.85982
G1 X99.814 Y126.814 E0.95157
G1 X109.111 Y126.814 E0.85293
G1 X108.450 Y127.550 F9000.000
G1 X108.450 Y136.450 E0.81658 F450.000
G1 X100.550 Y136.450 E0.72483
G1 X100.550 Y127.550 E0.81658
G1 X108.375 Y127.550 E0.71795
G1 X108.950 Y127.550 F9000.000
G1 X97.186 Y126.814 F9000.000
G1 X97.186 Y137.186 E0.95157 F450.000
G1 X87.814 Y137.186 E0.85982
G1 X87.814 Y126.814 E0.95157
G1 X97.111 Y126.814 E0.85293
G1 X96.450 Y127.550 F9000.000
G1 X96.450 Y136.450 E0.81658 F450.000
G1 X88.550 Y136.450 E0.72483
G1 X88.550 Y127.550 E0.81658
G1 X96.375 Y127.550 E0.71795
G1 X96.950 Y127.550 F9000.000
G1 X85.186 Y126.814 F9000.000
G1 X85.186 Y137.186 E0.95157 F450.000
G1 X75.814 Y137.186 E0.85982
G1 X75.814 Y126.814 E0.95157
G1 X85.111 Y126.814 E0.85293
G1 X84.450 Y127.550 F9000.000
G1 X84.450 Y136.450 E0.81658 F450.000
G1 X76.550 Y136.450 E0.72483
G1 X76.550 Y127.550 E0.81658
G1 X84.375 Y127.550 E0.71795
G1 X84.950 Y127.550 F9000.000
G1 X73.186 Y126.814 F9000.000
G1 X73.186 Y137.186 E0.95157 F450.000
G1 X63.814 Y137.186 E0.85982
G1 X63.814 Y126.814 E0.95157
G1 X73.111 Y126.814 E0.85293
G1 X72.450 Y127.550 F9000.000
G1 X72.450 Y136.450 E0.81658 F450.000
G1 X64.550 Y136.450 E0.72483
G1 X64.550 Y127.550 E0.81658
G1 X72.375 Y127.550 E0.71795
G1 X72.950 Y127.550 F9000.000
G1 X73.186 Y73.186 F9000.000
G1 X63.814 Y73.186 E0.85982 F450.000
G1 X63.814 Y62.814 E0.95157
G1 X73.186 Y62.814 E0.85982
G1 X73.186 Y73.111 E0.94469
G1 X72.450 Y72.450 F9000.000
G1 X64.550 Y72.450 E0.72483 F450.000
G1 X64.550 Y63.550 E0.81658
G1 X72.450 Y63.550 E0.72483
G1 X72.450 Y72.375 E0.80970
G1 X72.450 Y72.950 F9000.000
G1 X75.814 Y73.186 F9000.000
G1 X75.814 Y62.814 E0.95157 F450.000
G1 X85.186 Y62.814 E0.85982
G1 X85.186 Y73.186 E0.95157
G1 X75.889 Y73.186 E0.85293
G1 X76.550 Y72.450 F9000.000
G1 X76.550 Y63.550 E0.81658 F450.000
G1 X84.450 Y63.550 E0.72483
G1 X84.450 Y72.450 E0.81658
G1 X76.625 Y72.450 E0.71795
G1 X76.050 Y72.450 F9000.000
G1 X87.814 Y73.186 F9000.000
G1 X87.814 Y62.814 E0.95157 F450.000
G1 X97.186 Y62.814 E0.85982
G1 X97.186 Y73.186 E0.95157
G1 X87.889 Y73.186 E0.85293
G1 X88.550 Y72.450 F9000.000
G1 X88.550 Y63.550 E0.81658 F450.000
G1 X96.450 Y63.550 E0.72483
G1 X96.450 Y72.450 E0.81658
G1 X88.625 Y72.450 E0.71795
G1 X88.050 Y72.450 F9000.000
G1 X99.814 Y73.186 F9000.000
G1 X99.814 Y62.814 E0.95157 F450.000
G1 X109.186 Y62.814 E0.85982
G1 X109.186 Y73.186 E0.95157
G1 X99.889 Y73.186 E0.85293
G1 X100.550 Y72.450 F9000.000
G1 X100.550 Y63.550 E0.81658 F450.000
G1 X108.450 Y63.550 E0.72483
G1 X108.450 Y72.450 E0.81658
G1 X100.625 Y72.450 E0.71795
G1 X100.050 Y72.450 F9000.000
G1 X111.814 Y73.186 F9000.000
G1 X111.814 Y62.814 E0.95157 F450.000
G1 X117.186 Y62.814 E0.49281
G1 X117.186 Y65.814 E0.27525
G1 X119.491 Y65.814 E0.21153
G1 X121.186 Y67.509 E0.21987
G1 X121.186 Y73.186 E0.52084
G1 X111.889 Y73.186 E0.85293
G1 X112.550 Y72.450 F9000.000
G1 X112.550 Y63.550 E0.81658 F450.000
G1 X116.450 Y63.550 E0.35783
G1 X116.450 Y66.550 E0.27525
G1 X119.186 Y66.550 E0.25107
G1 X120.450 Y67.814 E0.16396
G1 X120.450 Y72.450 E0.42539
G1 X112.625 Y72.450 E0.71795
G1 X112.050 Y72.450 F9000.000
G1 X121.050 Y73.050 F9000.000
G1 X124.050 Y73.050 F9000.000
G1 X123.950 Y72.950 F9000.000
G1 X123.950 Y70.050 F9000.000
G1 X123.814 Y70.186 F9000.000
G1 X123.814 Y62.814 E0.67632 F450.000
G1 X137.186 Y62.814 E1.22682
G1 X137.186 Y73.186 E0.95157
G1 X127.814 Y73.186 E0.85982
G1 X127.814 Y70.186 E0.27525
G1 X123.889 Y70.186 E0.36012
G1 X124.550 Y69.450 F9000.000
G1 X124.550 Y63.550 E0.54133 F450.000
G1 X136.450 Y63.550 E1.09183
G1 X136.450 Y72.450 E0.81658
G1 X128.550 Y72.450 E0.72483
G1 X128.550 Y69.450 E0.27525
G1 X124.625 Y69.450 E0.36012
G1 X124.050 Y69.450 F9000.000
G1 X128.814 Y74.814 F9000.000
G1 X135.186 Y74.814 E0.58456 F450.000
G1 X135.186 Y87.186 E1.13507
G1 X128.814 Y87.186 E0.58456
G1 X128.814 Y85.186 E0.18350
G1 X123.814 Y85.186 E0.45875
G1 X123.814 Y76.814 E0.76807
G1 X128.814 Y76.814 E0.45875
G1 X128.814 Y74.889 E0.17662
G1 X129.550 Y75.550 F9000.000
G1 X134.450 Y75.550 E0.44958 F450.000
G1 X134.450 Y86.450 E1.00008
G1 X129.550 Y86.450 E0.44958
G1 X129.550 Y75.625 E0.99320
G1 X129.550 Y75.050 F9000.000
G1 X128.450 Y77.550 F9000.000
G1 X128.450 Y84.450 E0.63308 F450.000
G1 X124.550 Y84.450 E0.35783
G1 X124.550 Y77.550 E0.63308
G1 X128.375 Y77.550 E0.35095
G1 X128.950 Y77.550 F9000.000
G1 X127.814 Y88.814 F9000.000
G1 X137.186 Y88.814 E0.85982 F450.000
G1 X137.186 Y99.186 E0.95157
G1 X123.814 Y99.186 E1.22682
G1 X123.814 Y91.814 E0.67632
G1 X127.814 Y91.814 E0.36700
G1 X127.814 Y88.889 E0.26837
G1 X128.550 Y89.550 F9000.000
G1 X136.450 Y89.550 E0.72483 F450.000
G1 X136.450 Y98.450 E0.81658
G1 X124.550 Y98.450 E1.09183
G1 X124.550 Y92.550 E0.54133
G1 X128.550 Y92.550 E0.36700
G1 X128.550 Y89.625 E0.26837
G1 X128.550 Y89.050 F9000.000
G1 X128.814 Y61.186 F9000.000
G1 X135.186 Y61.186 E0.58456 F450.000
G1 X135.186 Y58.186 E0.27525
G1 X136.814 Y58.186 E0.14944
G1 X136.814 Y61.186 E0.27525
G1 X138.814 Y61.186 E0.18350
G1 X138.814 Y138.814 E7.12248
G1 X136.814 Y138.814 E0.18350
G1 X136.814 Y141.814 E0.27525
