; generated by Slic3r 1.2.9 on 2017-05-11 at 12:25:56

; external perimeters extrusion width = 0.50mm
; perimeters extrusion width = 0.50mm
; infill extrusion width = 0.50mm
; solid infill extrusion width = 0.50mm
; top infill extrusion width = 0.50mm

M107
M190 S57 ; set bed temperature
G28 ; home all axes
M83;
G10 P0 S195 R160                       ; Set tool 0 operating and standby temperatures
T0

G21 ; set units to millimeters
G90 ; use absolute coordinates
M83 ; use relative distances for extrusion
G1 E-3.50000 F2400.00000
G1 Z0.300 F9000.000
G1 X49.892 Y41.659 F9000.000
G1 E3.50000 F2400.00000
G1 X50.810 Y40.561 E0.13130 F600.000
G1 X53.050 Y39.814 E0.21667
G1 X146.950 Y39.814 E8.61537
G1 X148.621 Y40.209 E0.15755
G1 X149.939 Y41.310 E0.15755 F600.000
G1 X150.686 Y43.550 E0.21667
G1 X150.686 Y156.450 E10.35863
G1 X150.291 Y158.121 E0.15755
G1 X149.190 Y159.439 E0.15755
G1 X146.950 Y160.186 E0.21667
G1 X53.050 Y160.186 E8.61537
G1 X51.379 Y159.791 E0.15755
G1 X50.061 Y158.690 E0.15755
G1 X49.314 Y156.450 E0.21667
G1 X49.314 Y43.550 E10.35863
G1 X49.709 Y41.879 E0.15755
G1 X49.844 Y41.717 E0.01937
G1 E-3.50000 F2400.00000
G1 X81.987 Y130.704 F9000.000
G1 E3.50000 F2400.00000
G1 X82.884 Y131.184 E0.09337 F450.000
G1 X83.671 Y131.829 E0.09337
G1 X84.316 Y132.616 E0.09337
G1 X84.796 Y133.513 E0.09337
G1 X85.092 Y134.487 E0.09337
G1 X85.191 Y135.500 E0.09337
G1 X85.092 Y136.513 E0.09337
G1 X84.796 Y137.487 E0.09337
G1 X84.316 Y138.384 E0.09337
G1 X83.671 Y139.171 E0.09337
G1 X82.884 Y139.816 E0.09337
G1 X81.987 Y140.296 E0.09337
G1 X81.013 Y140.592 E0.09337
G1 X80.000 Y140.691 E0.09337
G1 X78.987 Y140.592 E0.09337
G1 X78.013 Y140.296 E0.09337
G1 X77.116 Y139.816 E0.09337
G1 X76.329 Y139.171 E0.09337
G1 X75.684 Y138.384 E0.09337
G1 X75.204 Y137.487 E0.09337
G1 X74.908 Y136.513 E0.09337
G1 X74.809 Y135.500 E0.09337
G1 X74.908 Y134.487 E0.09337
G1 X75.204 Y133.513 E0.09337
G1 X75.684 Y132.616 E0.09337
G1 X76.329 Y131.829 E0.09337
G1 X77.116 Y131.184 E0.09337
G1 X78.013 Y130.704 E0.09337
G1 X78.987 Y130.408 E0.09337
G1 X79.689 Y130.339 E0.06467
G1 X80.000 Y130.309 E0.02870 F450.000
G1 X81.013 Y130.408 E0.09337
G1 X81.915 Y130.682 E0.08649
G1 X81.704 Y131.387 F9000.000
G1 X82.473 Y131.798 E0.08008 F450.000
G1 X83.148 Y132.352 E0.08008
G1 X83.702 Y133.027 E0.08008
G1 X84.113 Y133.796 E0.08008
G1 X84.367 Y134.631 E0.08008
G1 X84.452 Y135.500 E0.08008
G1 X84.367 Y136.369 E0.08008
G1 X84.113 Y137.204 E0.08008
G1 X83.702 Y137.973 E0.08008
G1 X83.148 Y138.648 E0.08008
G1 X82.473 Y139.202 E0.08008
G1 X81.704 Y139.613 E0.08008
G1 X80.869 Y139.867 E0.08008
G1 X80.000 Y139.952 E0.08008
G1 X79.131 Y139.867 E0.08008
G1 X78.296 Y139.613 E0.08008
G1 X77.527 Y139.202 E0.08008
G1 X76.852 Y138.648 E0.08008
G1 X76.298 Y137.973 E0.08008
G1 X75.887 Y137.204 E0.08008
G1 X75.633 Y136.369 E0.08008
G1 X75.548 Y135.500 E0.08008
G1 X75.633 Y134.631 E0.08008
G1 X75.887 Y133.796 E0.08008
G1 X76.298 Y133.027 E0.08008
G1 X76.852 Y132.352 E0.08008
G1 X77.527 Y131.798 E0.08008
G1 X78.296 Y131.387 E0.08008
G1 X79.131 Y131.133 E0.08008
G1 X79.761 Y131.071 E0.05803
G1 X80.000 Y131.048 E0.02205 F450.000
G1 X80.869 Y131.133 E0.08008
G1 X81.632 Y131.365 E0.07320
G1 X82.110 Y131.095 F9000.000
G1 X95.814 Y128.991 F9000.000
G1 X95.814 Y122.009 E0.64062 F450.000
G1 X98.509 Y119.314 E0.34963
G1 X106.491 Y119.314 E0.73237 F450.000
G1 X109.186 Y122.009 E0.34963
G1 X109.186 Y128.991 E0.64062
G1 X106.491 Y131.686 E0.34963
G1 X98.509 Y131.686 E0.73237
G1 X95.867 Y129.044 E0.34275
G1 X96.550 Y128.686 F9000.000
G1 X96.550 Y122.314 E0.58471 F450.000
G1 X98.814 Y120.050 E0.29371
G1 X106.186 Y120.050 E0.67646 F450.000
G1 X108.450 Y122.314 E0.29371
G1 X108.450 Y128.686 E0.58471
G1 X106.186 Y130.950 E0.29371
G1 X98.814 Y130.950 E0.67646
G1 X96.603 Y128.739 E0.28683
G1 X96.067 Y128.557 F9000.000
G1 E-3.50000 F2400.00000
G1 X106.435 Y131.550 F9000.000
G1 X110.522 Y132.126 F9000.000
G1 X110.897 Y130.782 F9000.000
G1 X111.062 Y130.235 F9000.000
G1 X113.445 Y130.000 F9000.000
G1 X113.309 Y130.000 F9000.000
G1 E3.50000 F2400.00000
G1 X113.370 Y129.377 E0.05740 F450.000
G1 X113.552 Y128.779 E0.05740
G1 X113.846 Y128.227 E0.05740
G1 X114.243 Y127.743 E0.05740
G1 X114.727 Y127.346 E0.05740
G1 X115.282 Y127.050 E0.05769
G1 X115.892 Y126.869 E0.05845
G1 X116.500 Y126.809 E0.05604 F450.000
G1 X117.123 Y126.870 E0.05740
G1 X117.721 Y127.052 E0.05740
G1 X118.273 Y127.346 E0.05740
G1 X118.757 Y127.743 E0.05740
G1 X119.154 Y128.227 E0.05740
G1 X119.448 Y128.779 E0.05740
G1 X119.630 Y129.377 E0.05740
G1 X119.691 Y130.000 E0.05740
G1 X119.630 Y130.623 E0.05740
G1 X119.448 Y131.221 E0.05740
G1 X119.153 Y131.773 E0.05740
G1 X118.757 Y132.257 E0.05740
G1 X118.273 Y132.654 E0.05740
G1 X117.721 Y132.948 E0.05740
G1 X117.123 Y133.130 E0.05740
G1 X116.500 Y133.191 E0.05740
G1 X115.877 Y133.130 E0.05740
G1 X115.279 Y132.948 E0.05740
G1 X114.727 Y132.654 E0.05740
G1 X114.243 Y132.257 E0.05740
G1 X113.846 Y131.773 E0.05740
G1 X113.552 Y131.221 E0.05740
G1 X113.370 Y130.623 E0.05740
G1 X113.316 Y130.075 E0.05052
G1 X114.048 Y130.000 F9000.000
G1 X114.095 Y129.522 E0.04411 F450.000
G1 X114.234 Y129.062 E0.04411
G1 X114.461 Y128.638 E0.04410
G1 X114.766 Y128.266 E0.04411
G1 X115.138 Y127.961 E0.04411
G1 X115.563 Y127.734 E0.04421
G1 X116.034 Y127.594 E0.04516
G1 X116.500 Y127.548 E0.04293 F450.000
G1 X116.978 Y127.595 E0.04410
G1 X117.438 Y127.734 E0.04410
G1 X117.862 Y127.961 E0.04411
G1 X118.234 Y128.266 E0.04411
G1 X118.539 Y128.638 E0.04410
G1 X118.766 Y129.062 E0.04411
G1 X118.905 Y129.522 E0.04410
G1 X118.952 Y130.000 E0.04411
G1 X118.905 Y130.478 E0.04411
G1 X118.766 Y130.938 E0.04411
G1 X118.539 Y131.362 E0.04411
G1 X118.234 Y131.734 E0.04410
G1 X117.862 Y132.039 E0.04411
G1 X117.438 Y132.266 E0.04410
G1 X116.978 Y132.405 E0.04410
G1 X116.500 Y132.452 E0.04411
G1 X116.022 Y132.405 E0.04411
G1 X115.562 Y132.266 E0.04410
G1 X115.138 Y132.039 E0.04411
G1 X114.766 Y131.734 E0.04411
G1 X114.461 Y131.362 E0.04411
G1 X114.234 Y130.938 E0.04410
G1 X114.095 Y130.478 E0.04411
G1 X114.055 Y130.075 E0.03723
G1 X113.640 Y129.746 F9000.000
G1 X141.186 Y49.686 F9000.000
G1 X141.186 Y44.686 E0.45875 F450.000
G1 X145.814 Y44.686 E0.42469
G1 X145.814 Y155.314 E10.15025
G1 X54.186 Y155.314 E8.40699
G1 X54.186 Y44.686 E10.15025
G1 X58.814 Y44.686 E0.42469
G1 X58.814 Y49.686 E0.45875
G1 X141.111 Y49.686 E7.55072
G1 X140.450 Y48.950 F9000.000
G1 X140.450 Y43.950 E0.45875 F450.000
G1 X146.550 Y43.950 E0.55968
G1 X146.550 Y156.050 E10.28523
G1 X53.450 Y156.050 E8.54197
G1 X53.450 Y43.950 E10.28523
G1 X59.550 Y43.950 E0.55968
G1 X59.550 Y48.950 E0.45875
G1 X140.375 Y48.950 E7.41574
G1 X140.950 Y48.950 F9000.000
G1 X145.365 Y45.487 F9000.000
G1 X145.013 Y45.135 E0.04569 F450.000
G1 X143.973 Y45.135 E0.09546
G1 X145.365 Y46.527 E0.18070
G1 X145.365 Y47.568 E0.09546
G1 X142.932 Y45.135 E0.31570
G1 X141.892 Y45.135 E0.09546
G1 X145.365 Y48.608 E0.45071
G1 X145.365 Y49.649 E0.09546
G1 X141.635 Y45.918 E0.48407
G1 X141.635 Y46.959 E0.09546
G1 X145.365 Y50.689 E0.48407
G1 X145.365 Y51.729 E0.09546
G1 X141.635 Y47.999 E0.48407
G1 X141.635 Y49.039 E0.09546
G1 X145.365 Y52.770 E0.48407
G1 X145.365 Y53.810 E0.09546
G1 X141.635 Y50.080 E0.48407
G1 X140.649 Y50.135 E0.09055
G1 X145.365 Y54.851 E0.61193
G1 X145.365 Y55.891 E0.09546
G1 X139.609 Y50.135 E0.74693
G1 X138.569 Y50.135 E0.09546
G1 X145.365 Y56.931 E0.88194
G1 X145.365 Y57.972 E0.09546
G1 X137.528 Y50.135 E1.01695
G1 X136.488 Y50.135 E0.09546
G1 X145.365 Y59.012 E1.15195
G1 X145.365 Y60.053 E0.09546
G1 X135.447 Y50.135 E1.28696
G1 X134.407 Y50.135 E0.09546
G1 X145.365 Y61.093 E1.42197
G1 X145.365 Y62.133 E0.09546
G1 X133.367 Y50.135 E1.55697
G1 X132.326 Y50.135 E0.09546
G1 X145.365 Y63.174 E1.69198
G1 X145.365 Y64.214 E0.09546
G1 X131.286 Y50.135 E1.82699
G1 X130.245 Y50.135 E0.09546
G1 X145.365 Y65.255 E1.96199
G1 X145.365 Y66.295 E0.09546
G1 X129.205 Y50.135 E2.09700
G1 X128.165 Y50.135 E0.09546
G1 X145.365 Y67.335 E2.23201
G1 X145.365 Y68.376 E0.09546
G1 X127.124 Y50.135 E2.36701
G1 X126.084 Y50.135 E0.09546
G1 X145.365 Y69.416 E2.50202
G1 X145.365 Y70.457 E0.09546
G1 X125.043 Y50.135 E2.63703
G1 X124.003 Y50.135 E0.09546
G1 X145.365 Y71.497 E2.77203
G1 X145.365 Y72.537 E0.09546
G1 X122.963 Y50.135 E2.90704
G1 X121.922 Y50.135 E0.09546
G1 X145.365 Y73.578 E3.04205
G1 X145.365 Y74.618 E0.09546
G1 X120.882 Y50.135 E3.17705
G1 X119.841 Y50.135 E0.09546
G1 X145.365 Y75.658 E3.31206
G1 X145.365 Y76.699 E0.09546
G1 X118.801 Y50.135 E3.44707
G1 X117.761 Y50.135 E0.09546
G1 X145.365 Y77.739 E3.58207
G1 X145.365 Y78.780 E0.09546
G1 X116.720 Y50.135 E3.71708
G1 X115.680 Y50.135 E0.09546
G1 X145.365 Y79.820 E3.85209
G1 X145.365 Y80.860 E0.09546
G1 X114.640 Y50.135 E3.98710
G1 X113.599 Y50.135 E0.09546
G1 X145.365 Y81.901 E4.12210
G1 X145.365 Y82.941 E0.09546
G1 X112.559 Y50.135 E4.25711
G1 X111.518 Y50.135 E0.09546
G1 X145.365 Y83.982 E4.39211
G1 X145.365 Y85.022 E0.09546
G1 X110.478 Y50.135 E4.52712
G1 X109.438 Y50.135 E0.09546
G1 X145.365 Y86.062 E4.66213
G1 X145.365 Y87.103 E0.09546
G1 X108.397 Y50.135 E4.79713
G1 X107.357 Y50.135 E0.09546
G1 X145.365 Y88.143 E4.93214
G1 X145.365 Y89.184 E0.09546
G1 X106.316 Y50.135 E5.06715
G1 X105.276 Y50.135 E0.09546
G1 X145.365 Y90.224 E5.20215
G1 X145.365 Y91.264 E0.09546
G1 X104.236 Y50.135 E5.33716
G1 X103.195 Y50.135 E0.09546
G1 X145.365 Y92.305 E5.47217
G1 X145.365 Y93.345 E0.09546
G1 X102.155 Y50.135 E5.60718
G1 X101.114 Y50.135 E0.09546
G1 X145.365 Y94.386 E5.74218
G1 X145.365 Y95.426 E0.09546
G1 X100.074 Y50.135 E5.87719
G1 X99.034 Y50.135 E0.09546
G1 X145.365 Y96.466 E6.01220
G1 X145.365 Y97.507 E0.09546
G1 X97.993 Y50.135 E6.14720
G1 X96.953 Y50.135 E0.09546
G1 X145.365 Y98.547 E6.28221
G1 X145.365 Y99.588 E0.09546
G1 X95.912 Y50.135 E6.41721
G1 X94.872 Y50.135 E0.09546
G1 X145.365 Y100.628 E6.55222
G1 X145.365 Y101.668 E0.09546
G1 X93.832 Y50.135 E6.68723
G1 X92.791 Y50.135 E0.09546
G1 X145.365 Y102.709 E6.82223
G1 X145.365 Y103.749 E0.09546
G1 X91.751 Y50.135 E6.95724
G1 X90.710 Y50.135 E0.09546
G1 X145.365 Y104.790 E7.09225
G1 X145.365 Y105.830 E0.09546
G1 X89.670 Y50.135 E7.22726
G1 X88.630 Y50.135 E0.09546
G1 X145.365 Y106.870 E7.36226
G1 X145.365 Y107.911 E0.09546
G1 X87.589 Y50.135 E7.49727
G1 X86.549 Y50.135 E0.09546
G1 X145.365 Y108.951 E7.63228
G1 X145.365 Y109.992 E0.09546
G1 X85.508 Y50.135 E7.76728
G1 X84.468 Y50.135 E0.09546
G1 X145.365 Y111.032 E7.90229
G1 X145.365 Y112.072 E0.09546
G1 X83.428 Y50.135 E8.03729
G1 X82.387 Y50.135 E0.09546
G1 X145.365 Y113.113 E8.17230
G1 X145.365 Y114.153 E0.09546
G1 X81.347 Y50.135 E8.30731
G1 X80.306 Y50.135 E0.09546
G1 X145.365 Y115.194 E8.44232
G1 X145.365 Y116.234 E0.09546
G1 X79.266 Y50.135 E8.57732
G1 X78.226 Y50.135 E0.09546
G1 X145.365 Y117.274 E8.71233
G1 X145.365 Y118.315 E0.09546
G1 X77.185 Y50.135 E8.84734
G1 X76.145 Y50.135 E0.09546
G1 X145.365 Y119.355 E8.98234
G1 X145.365 Y120.396 E0.09546
G1 X75.104 Y50.135 E9.11735
G1 X74.064 Y50.135 E0.09546
G1 X145.365 Y121.436 E9.25236
G1 X145.365 Y122.476 E0.09546
G1 X73.024 Y50.135 E9.38736
G1 X71.983 Y50.135 E0.09546
G1 X145.365 Y123.517 E9.52237
G1 X145.365 Y124.557 E0.09546
G1 X70.943 Y50.135 E9.65737
G1 X69.902 Y50.135 E0.09546
G1 X145.365 Y125.598 E9.79238
G1 X145.365 Y126.638 E0.09546
G1 X68.862 Y50.135 E9.92739
G1 X67.822 Y50.135 E0.09546
G1 X145.365 Y127.678 E10.06240
G1 X145.365 Y128.719 E0.09546
G1 X66.781 Y50.135 E10.19740
G1 X65.741 Y50.135 E0.09546
G1 X145.365 Y129.759 E10.33241
G1 X145.365 Y130.800 E0.09546
G1 X64.700 Y50.135 E10.46742
G1 X63.660 Y50.135 E0.09546
G1 X145.365 Y131.840 E10.60242
G1 X145.365 Y132.880 E0.09546
G1 X62.620 Y50.135 E10.73743
G1 X61.579 Y50.135 E0.09546
G1 X145.365 Y133.921 E10.87244
G1 X145.365 Y134.961 E0.09546
G1 X60.539 Y50.135 E11.00744
G1 X59.498 Y50.135 E0.09546
G1 X145.365 Y136.002 E11.14245
G1 X145.365 Y137.042 E0.09546
G1 X54.635 Y46.312 E11.77356
G1 X54.635 Y47.352 E0.09546
G1 X145.365 Y138.082 E11.77356
G1 X145.365 Y139.123 E0.09546
G1 X54.635 Y48.392 E11.77356
G1 X54.635 Y49.433 E0.09546
G1 X145.365 Y140.163 E11.77356
G1 X145.365 Y141.204 E0.09546
G1 X54.635 Y50.473 E11.77356
G1 X54.635 Y51.514 E0.09546
G1 X145.365 Y142.244 E11.77356
G1 X145.365 Y143.284 E0.09546
G1 X54.635 Y52.554 E11.77356
G1 X54.635 Y53.594 E0.09546
G1 X145.365 Y144.325 E11.77356
G1 X145.365 Y145.365 E0.09546
G1 X54.635 Y54.635 E11.77356
G1 X54.635 Y55.675 E0.09546
G1 X145.365 Y146.406 E11.77356
G1 X145.365 Y147.446 E0.09546
G1 X54.635 Y56.716 E11.77356
G1 X54.635 Y57.756 E0.09546
G1 X145.365 Y148.486 E11.77356
G1 X145.365 Y149.527 E0.09546
G1 X54.635 Y58.796 E11.77356
G1 X54.635 Y59.837 E0.09546
G1 X145.365 Y150.567 E11.77356
G1 X145.365 Y151.608 E0.09546
G1 X54.635 Y60.877 E11.77356
G1 X54.635 Y61.918 E0.09546
G1 X145.365 Y152.648 E11.77356
G1 X145.365 Y153.688 E0.09546
G1 X119.610 Y127.934 E3.34205
G1 X118.566 Y126.890 F9000.000
G1 X54.635 Y62.958 E8.29603 F450.000
G1 X54.635 Y63.998 E0.09546
G1 X117.030 Y126.393 E8.09662
G1 X116.016 Y126.420 E0.09308
G1 X54.635 Y65.039 E7.96502
G1 X54.635 Y66.079 E0.09546
G1 X115.202 Y126.646 E7.85940
G1 X114.527 Y127.012 E0.07041
G1 X109.635 Y122.120 E0.63482
G1 X109.635 Y123.160 E0.09546
G1 X113.958 Y127.483 E0.56099
G1 X113.491 Y128.056 E0.06785
G1 X109.635 Y124.200 E0.50037
G1 X109.635 Y125.241 E0.09546
G1 X113.134 Y128.740 E0.45409
G1 X112.915 Y129.562 E0.07800
G1 X109.635 Y126.281 E0.42566
G1 X109.635 Y127.322 E0.09546
G1 X112.899 Y130.586 E0.42355
G1 X113.448 Y132.175 F9000.000
G1 X109.635 Y128.362 E0.49477 F450.000
G1 X109.476 Y129.244 E0.08223
G1 X135.098 Y154.865 E3.32470
G1 X136.138 Y154.865 E0.09546
G1 X114.325 Y133.052 E2.83052
G1 X115.914 Y133.601 F9000.000
G1 X137.178 Y154.865 E2.75931 F450.000
G1 X138.219 Y154.865 E0.09546
G1 X116.938 Y133.585 E2.76142
G1 X117.760 Y133.366 E0.07800
G1 X139.259 Y154.865 E2.78984
G1 X140.300 Y154.865 E0.09546
G1 X118.444 Y133.009 E2.83612
G1 X119.017 Y132.542 E0.06785
G1 X141.340 Y154.865 E2.89675
G1 X142.380 Y154.865 E0.09546
G1 X119.488 Y131.973 E2.97058
G1 X119.854 Y131.298 E0.07041
G1 X143.421 Y154.865 E3.05812
G1 X144.461 Y154.865 E0.09546
G1 X120.080 Y130.484 E3.16375
G1 X120.107 Y129.470 E0.09308
G1 X145.365 Y154.729 E3.27765
G1 X134.057 Y154.865 F9000.000
G1 X108.956 Y129.764 E3.25720 F450.000
G1 X108.436 Y130.285 E0.06750
G1 X133.017 Y154.865 E3.18969
G1 X131.976 Y154.865 E0.09546
G1 X107.916 Y130.805 E3.12219
G1 X107.396 Y131.325 E0.06750
G1 X130.936 Y154.865 E3.05469
G1 X129.896 Y154.865 E0.09546
G1 X106.875 Y131.845 E2.98718
G1 X106.125 Y132.135 E0.07383
G1 X128.855 Y154.865 E2.94959
G1 X127.815 Y154.865 E0.09546
G1 X105.084 Y132.135 E2.94959
G1 X104.044 Y132.135 E0.09546
G1 X126.774 Y154.865 E2.94959
G1 X125.734 Y154.865 E0.09546
G1 X103.004 Y132.135 E2.94959
G1 X101.963 Y132.135 E0.09546
G1 X124.694 Y154.865 E2.94959
G1 X123.653 Y154.865 E0.09546
G1 X100.923 Y132.135 E2.94959
G1 X99.882 Y132.135 E0.09546
G1 X122.613 Y154.865 E2.94959
G1 X121.572 Y154.865 E0.09546
G1 X98.842 Y132.135 E2.94959
G1 X95.365 Y128.658 F9000.000
G1 X54.635 Y87.928 E5.28534 F450.000
G1 X54.635 Y88.968 E0.09546
G1 X120.532 Y154.865 E8.55109
G1 X119.492 Y154.865 E0.09546
G1 X54.635 Y90.008 E8.41609
G1 X54.635 Y91.049 E0.09546
G1 X118.451 Y154.865 E8.28108
G1 X117.411 Y154.865 E0.09546
G1 X54.635 Y92.089 E8.14607
G1 X54.635 Y93.130 E0.09546
G1 X116.370 Y154.865 E8.01107
G1 X115.330 Y154.865 E0.09546
G1 X54.635 Y94.170 E7.87606
G1 X54.635 Y95.210 E0.09546
G1 X114.290 Y154.865 E7.74105
G1 X113.249 Y154.865 E0.09546
G1 X54.635 Y96.251 E7.60605
G1 X54.635 Y97.291 E0.09546
G1 X112.209 Y154.865 E7.47104
G1 X111.168 Y154.865 E0.09546
G1 X54.635 Y98.332 E7.33603
G1 X54.635 Y99.372 E0.09546
G1 X110.128 Y154.865 E7.20103
G1 X109.088 Y154.865 E0.09546
G1 X54.635 Y100.412 E7.06602
G1 X54.635 Y101.453 E0.09546
G1 X108.047 Y154.865 E6.93101
G1 X107.007 Y154.865 E0.09546
G1 X85.128 Y132.987 E2.83903
G1 X85.556 Y134.455 E0.14029
G1 X105.966 Y154.865 E2.64855
G1 X104.926 Y154.865 E0.09546
G1 X85.622 Y135.561 E2.50495
G1 X85.524 Y136.503 E0.08690
G1 X103.886 Y154.865 E2.38272
G1 X102.845 Y154.865 E0.09546
