; generated by Slic3r 1.2.9 on 2017-05-18 at 11:31:50

; external perimeters extrusion width = 0.50mm
; perimeters extrusion width = 0.50mm
; infill extrusion width = 0.50mm
; solid infill extrusion width = 0.50mm
; top infill extrusion width = 0.50mm

M107
M190 S57 ; set bed temperature
G28 ; home all axes
M83;
G10 P0 S195 R160                       ; Set tool 0 operating and standby temperatures
T0

G21 ; set units to millimeters
G90 ; use absolute coordinates
M83 ; use relative distances for extrusion
G1 E-3.50000 F2400.00000
G1 Z0.300 F9000.000
G1 X53.725 Y44.860 F9000.000
G1 E3.50000 F2400.00000
G1 X54.810 Y43.561 E0.15524 F600.000
G1 X57.050 Y42.814 E0.21667
G1 X142.950 Y42.814 E7.88137
G1 X144.621 Y43.209 E0.15755
G1 X145.939 Y44.310 E0.15755 F600.000
G1 X146.686 Y46.550 E0.21667
G1 X146.686 Y153.450 E9.80813
G1 X146.291 Y155.121 E0.15755
G1 X145.190 Y156.439 E0.15755
G1 X142.950 Y157.186 E0.21667
G1 X57.050 Y157.186 E7.88137
G1 X55.379 Y156.791 E0.15755
G1 X54.061 Y155.690 E0.15755
G1 X53.314 Y153.450 E0.21667
G1 X53.314 Y46.550 E9.80813
G1 X53.698 Y44.927 E0.15298
G1 E-3.50000 F2400.00000
G1 X101.138 Y122.966 F9000.000
G1 E3.50000 F2400.00000
G1 X101.795 Y123.166 E0.06304 F450.000
G1 X102.606 Y123.599 E0.08438
G1 X103.317 Y124.183 E0.08438
G1 X103.901 Y124.894 E0.08438
G1 X104.334 Y125.705 E0.08438
G1 X104.601 Y126.585 E0.08438
G1 X104.691 Y127.500 E0.08438
G1 X104.601 Y128.415 E0.08438
G1 X104.334 Y129.295 E0.08438
G1 X103.901 Y130.106 E0.08438
G1 X103.317 Y130.817 E0.08438
G1 X102.606 Y131.401 E0.08438
G1 X101.795 Y131.834 E0.08438
G1 X100.915 Y132.101 E0.08438
G1 X100.000 Y132.191 E0.08438
G1 X99.085 Y132.101 E0.08438
G1 X98.205 Y131.834 E0.08438
G1 X97.394 Y131.401 E0.08438
G1 X96.683 Y130.817 E0.08438
G1 X96.099 Y130.106 E0.08438
G1 X95.666 Y129.295 E0.08438
G1 X95.399 Y128.415 E0.08438
G1 X95.309 Y127.500 E0.08438
G1 X95.399 Y126.585 E0.08438
G1 X95.666 Y125.705 E0.08438
G1 X96.099 Y124.894 E0.08438
G1 X96.683 Y124.183 E0.08438
G1 X97.394 Y123.599 E0.08438
G1 X98.205 Y123.166 E0.08438
G1 X99.085 Y122.899 E0.08438
G1 X99.955 Y122.813 E0.08023 F450.000
G1 X100.910 Y122.897 E0.08791
G1 X101.066 Y122.945 E0.01500
G1 X100.924 Y123.670 F9000.000
G1 X101.512 Y123.849 E0.05639 F450.000
G1 X102.196 Y124.214 E0.07109
G1 X102.795 Y124.705 E0.07108
G1 X103.286 Y125.304 E0.07108
G1 X103.651 Y125.988 E0.07109
G1 X103.876 Y126.729 E0.07108
G1 X103.952 Y127.500 E0.07109
G1 X103.876 Y128.271 E0.07109
G1 X103.651 Y129.012 E0.07108
G1 X103.286 Y129.696 E0.07108
G1 X102.795 Y130.295 E0.07109
G1 X102.196 Y130.786 E0.07109
G1 X101.512 Y131.151 E0.07109
G1 X100.771 Y131.376 E0.07108
G1 X100.000 Y131.452 E0.07108
G1 X99.229 Y131.376 E0.07108
G1 X98.488 Y131.151 E0.07109
G1 X97.804 Y130.786 E0.07109
G1 X97.205 Y130.295 E0.07108
G1 X96.714 Y129.696 E0.07109
G1 X96.349 Y129.012 E0.07108
G1 X96.124 Y128.271 E0.07108
G1 X96.048 Y127.500 E0.07108
G1 X96.124 Y126.729 E0.07109
G1 X96.349 Y125.988 E0.07108
G1 X96.714 Y125.304 E0.07108
G1 X97.205 Y124.705 E0.07109
G1 X97.804 Y124.214 E0.07108
G1 X98.488 Y123.849 E0.07109
G1 X99.229 Y123.624 E0.07108
G1 X99.959 Y123.552 E0.06729 F450.000
G1 X100.769 Y123.623 E0.07462
G1 X100.852 Y123.648 E0.00800
G1 X101.289 Y123.328 F9000.000
G1 X110.764 Y119.711 F9000.000
G1 X110.764 Y107.314 E1.13736 F450.000
G1 X124.236 Y107.314 E1.23599
G1 X124.236 Y119.711 E1.13736
G1 X110.839 Y119.711 E1.22911
G1 X111.500 Y118.975 F9000.000
G1 X111.500 Y108.050 E1.00237 F450.000
G1 X123.500 Y108.050 E1.10101
G1 X123.500 Y118.975 E1.00237
G1 X111.575 Y118.975 E1.09412
G1 X111.000 Y118.975 F9000.000
G1 X94.186 Y92.686 F9000.000
G1 X90.814 Y92.686 E0.30931 F450.000
G1 X90.814 Y90.991 E0.15547
G1 X90.186 Y90.362 E0.08158
G1 X90.186 Y92.686 E0.21316
G1 X86.814 Y92.686 E0.30931
G1 X86.814 Y83.314 E0.85982
G1 X90.186 Y83.314 E0.30931
G1 X90.186 Y85.009 E0.15547
G1 X90.814 Y85.638 E0.08158
G1 X90.814 Y83.314 E0.21316
G1 X94.186 Y83.314 E0.30931
G1 X94.186 Y83.638 E0.02966
G1 X94.509 Y83.314 E0.04195
G1 X98.491 Y83.314 E0.36537
G1 X100.186 Y85.009 E0.21987
G1 X100.186 Y90.991 E0.54887
G1 X98.491 Y92.686 E0.21987
G1 X94.509 Y92.686 E0.36537
G1 X94.186 Y92.362 E0.04195
G1 X94.186 Y92.611 E0.02278
G1 X93.450 Y91.950 F9000.000
G1 X91.550 Y91.950 E0.17433 F450.000
G1 X91.550 Y90.686 E0.11594
G1 X89.450 Y88.586 E0.27249
G1 X89.450 Y91.950 E0.30861
G1 X87.550 Y91.950 E0.17433
G1 X87.550 Y84.050 E0.72483
G1 X89.450 Y84.050 E0.17433
G1 X89.450 Y85.314 E0.11594
G1 X91.550 Y87.414 E0.27249
G1 X91.550 Y84.050 E0.30861
G1 X93.450 Y84.050 E0.17433
G1 X93.450 Y85.414 E0.12511
G1 X94.814 Y84.050 E0.17693
G1 X98.186 Y84.050 E0.30946
G1 X99.450 Y85.314 E0.16396
G1 X99.450 Y90.686 E0.49296
G1 X98.186 Y91.950 E0.16396
G1 X94.814 Y91.950 E0.30946
G1 X93.450 Y90.586 E0.17693
G1 X93.450 Y91.875 E0.11823
G1 X93.450 Y92.450 F9000.000
G1 X99.814 Y95.686 F9000.000
G1 X99.814 Y93.009 E0.24559 F450.000
G1 X101.509 Y91.314 E0.21987
G1 X102.138 Y91.314 E0.05769
G1 X101.814 Y90.991 E0.04195
G1 X101.814 Y88.314 E0.24559
G1 X102.138 Y88.314 E0.02966
G1 X101.814 Y87.991 E0.04195
G1 X101.814 Y85.009 E0.27362
G1 X103.509 Y83.314 E0.21987
G1 X106.814 Y83.314 E0.30328
G1 X106.814 Y81.686 E0.14944
G1 X104.814 Y81.686 E0.18350
G1 X104.814 Y78.314 E0.30931
G1 X106.814 Y78.314 E0.18350
G1 X106.814 Y76.314 E0.18350
G1 X110.186 Y76.314 E0.30931
G1 X110.186 Y78.314 E0.18350
G1 X115.814 Y78.314 E0.51644
G1 X115.814 Y77.009 E0.11978
G1 X117.509 Y75.314 E0.21987
G1 X121.491 Y75.314 E0.36537
G1 X124.186 Y78.009 E0.34963
G1 X124.186 Y78.314 E0.02803
G1 X135.186 Y78.314 E1.00926
G1 X135.186 Y81.686 E0.30931
G1 X124.186 Y81.686 E1.00926
G1 X124.186 Y81.991 E0.02803
G1 X122.862 Y83.314 E0.17170
G1 X132.186 Y83.314 E0.85542
G1 X132.186 Y86.314 E0.27525
G1 X132.814 Y86.314 E0.05769
G1 X132.814 Y83.314 E0.27525
G1 X136.186 Y83.314 E0.30931
G1 X136.186 Y88.859 E0.50872
G1 X134.549 Y91.314 E0.27076
G1 X135.186 Y91.314 E0.05844
G1 X135.186 Y94.686 E0.30931
G1 X134.186 Y94.686 E0.09175
G1 X134.186 Y96.314 E0.14944
G1 X135.186 Y96.314 E0.09175
G1 X135.186 Y99.686 E0.30931
G1 X134.186 Y99.686 E0.09175
G1 X134.186 Y100.686 E0.09175
G1 X130.814 Y100.686 E0.30931
G1 X130.814 Y99.362 E0.12141
G1 X129.491 Y100.686 E0.17170
G1 X122.106 Y100.686 E0.67762
G1 X121.666 Y99.148 E0.14669
G1 X121.334 Y99.148 E0.03055
G1 X120.894 Y100.686 E0.14669
G1 X117.428 Y100.686 E0.31802
G1 X119.714 Y92.686 E0.76338
G1 X118.633 Y92.686 E0.09918
G1 X118.793 Y91.568 E0.10357
G1 X118.463 Y91.442 E0.03234
G1 X117.635 Y92.686 E0.13709
G1 X113.186 Y92.686 E0.40819
G1 X113.186 Y100.686 E0.73400
G1 X108.509 Y100.686 E0.42909
G1 X107.000 Y99.177 E0.19579
G1 X105.491 Y100.686 E0.19579
G1 X101.509 Y100.686 E0.36537
G1 X99.814 Y98.991 E0.21987
G1 X99.814 Y96.314 E0.24559
G1 X102.491 Y96.314 E0.24559
G1 X103.500 Y97.323 E0.13091
G1 X103.814 Y97.009 E0.04079
G1 X103.814 Y94.991 E0.18513
G1 X103.500 Y94.677 E0.04079
G1 X102.491 Y95.686 E0.13091
G1 X99.889 Y95.686 E0.23871
G1 E-3.50000 F2400.00000
G1 X91.527 Y110.701 F9000.000
G1 X105.435 Y106.164 F9000.000
G1 X115.329 Y103.624 F9000.000
G1 X115.374 Y99.912 F9000.000
G1 X115.993 Y95.493 F9000.000
G1 X113.050 Y92.550 F9000.000
G1 X113.550 Y84.050 F9000.000
G1 E3.50000 F2400.00000
G1 X115.450 Y84.050 E0.17433 F450.000
G1 X115.450 Y87.050 E0.27525
G1 X117.550 Y87.050 E0.19268
G1 X117.550 Y84.050 E0.27525
G1 X117.914 Y84.050 E0.03336
G1 X116.550 Y82.686 E0.17693
G1 X116.550 Y80.950 E0.15932
G1 X112.550 Y80.950 E0.36700
G1 X112.550 Y79.050 E0.17433
G1 X116.550 Y79.050 E0.36700
G1 X116.550 Y77.314 E0.15932
G1 X117.814 Y76.050 E0.16396
G1 X121.186 Y76.050 E0.30946
G1 X123.450 Y78.314 E0.29371
G1 X123.450 Y79.050 E0.06756
G1 X127.450 Y79.050 E0.36700
G1 X127.450 Y80.950 E0.17433
G1 X123.450 Y80.950 E0.36700
G1 X123.450 Y81.686 E0.06756
G1 X121.086 Y84.050 E0.30669
G1 X122.324 Y84.050 E0.11358
G1 X122.341 Y84.100 E0.00482
G1 X122.659 Y84.100 E0.02919
G1 X122.676 Y84.050 E0.00482
G1 X131.450 Y84.050 E0.80505
G1 X131.450 Y87.050 E0.27525
G1 X133.550 Y87.050 E0.19268
G1 X133.550 Y84.050 E0.27525
G1 X135.450 Y84.050 E0.17433
G1 X135.450 Y88.636 E0.42079
G1 X133.174 Y92.050 E0.37644
G1 X134.450 Y92.050 E0.11706
G1 X134.450 Y93.950 E0.17433
G1 X133.450 Y93.950 E0.09175
G1 X133.450 Y97.050 E0.28443
G1 X134.450 Y97.050 E0.09175
G1 X134.450 Y98.950 E0.17433
G1 X133.450 Y98.950 E0.09175
G1 X133.450 Y99.950 E0.09175
G1 X131.550 Y99.950 E0.17433
G1 X131.550 Y93.950 E0.55050
G1 X130.550 Y93.950 E0.09175
G1 X130.550 Y93.650 E0.02753
G1 X126.450 Y96.725 E0.47022
G1 X126.450 Y98.050 E0.12157
G1 X128.550 Y98.050 E0.19268
G1 X128.550 Y97.050 E0.09175
G1 X130.450 Y97.050 E0.17433
G1 X130.450 Y98.686 E0.15014
G1 X129.186 Y99.950 E0.16396
G1 X125.814 Y99.950 E0.30946
G1 X124.591 Y98.728 E0.15861
G1 X124.297 Y98.901 E0.03134
G1 X124.597 Y99.950 E0.10011
G1 X122.661 Y99.950 E0.17763
G1 X121.666 Y96.471 E0.33201
G1 X121.334 Y96.471 E0.03055
G1 X120.339 Y99.950 E0.33201
G1 X118.403 Y99.950 E0.17763
G1 X120.689 Y91.950 E0.76338
G1 X119.481 Y91.950 E0.11083
G1 X120.624 Y83.950 E0.74146
G1 X119.450 Y83.950 E0.10772
G1 X119.450 Y88.636 E0.42997
G1 X117.241 Y91.950 E0.36541
G1 X115.759 Y91.950 E0.13594
G1 X113.550 Y88.636 E0.36541
G1 X113.550 Y84.125 E0.41391
G1 X113.550 Y83.550 F9000.000
G1 X111.450 Y80.950 F9000.000
G1 X109.450 Y80.950 E0.18350 F450.000
G1 X109.450 Y82.950 E0.18350
G1 X107.550 Y82.950 E0.17433
G1 X107.550 Y80.950 E0.18350
G1 X105.550 Y80.950 E0.18350
G1 X105.550 Y79.050 E0.17433
G1 X107.550 Y79.050 E0.18350
G1 X107.550 Y77.050 E0.18350
G1 X109.450 Y77.050 E0.17433
G1 X109.450 Y79.050 E0.18350
G1 X111.450 Y79.050 E0.18350
G1 X111.450 Y80.875 E0.16744
G1 X111.450 Y81.450 F9000.000
G1 X110.550 Y84.050 F9000.000
G1 X112.450 Y84.050 E0.17433 F450.000
G1 X112.450 Y88.364 E0.39579
G1 X114.841 Y91.950 E0.39546
G1 X112.759 Y91.950 E0.19099
G1 X111.500 Y90.061 E0.20827
G1 X110.174 Y92.050 E0.21930
G1 X112.450 Y92.050 E0.20881
G1 X112.450 Y99.950 E0.72483
G1 X108.814 Y99.950 E0.33364
G1 X106.450 Y97.586 E0.30669
G1 X106.450 Y98.686 E0.10093
G1 X105.186 Y99.950 E0.16396
G1 X101.814 Y99.950 E0.30946
G1 X100.550 Y98.686 E0.16396
G1 X100.550 Y97.050 E0.15014
G1 X102.186 Y97.050 E0.15014
G1 X103.186 Y98.050 E0.12975
G1 X103.814 Y98.050 E0.05755
G1 X104.550 Y97.314 E0.09555
G1 X104.550 Y94.686 E0.24105
G1 X103.814 Y93.950 E0.09555
G1 X103.186 Y93.950 E0.05755
G1 X102.186 Y94.950 E0.12975
G1 X100.550 Y94.950 E0.15014
G1 X100.550 Y93.314 E0.15014
G1 X101.814 Y92.050 E0.16396
G1 X103.914 Y92.050 E0.19268
G1 X102.550 Y90.686 E0.17693
G1 X102.550 Y89.050 E0.15014
G1 X103.914 Y89.050 E0.12511
G1 X102.550 Y87.686 E0.17693
G1 X102.550 Y85.314 E0.21770
G1 X103.814 Y84.050 E0.16396
G1 X107.186 Y84.050 E0.30946
G1 X108.450 Y85.314 E0.16396
G1 X108.450 Y86.950 E0.15014
G1 X107.086 Y86.950 E0.12511
G1 X108.450 Y88.314 E0.17693
G1 X108.450 Y90.686 E0.21770
G1 X107.186 Y91.950 E0.16396
G1 X105.086 Y91.950 E0.19268
G1 X106.450 Y93.314 E0.17693
G1 X106.450 Y94.414 E0.10093
G1 X108.914 Y91.950 E0.31966
G1 X108.159 Y91.950 E0.06922
G1 X110.550 Y88.364 E0.39546
G1 X110.550 Y84.125 E0.38891
G1 X110.550 Y83.550 F9000.000
G1 E-3.50000 F2400.00000
G1 X119.124 Y90.207 F9000.000
G1 X117.562 Y94.309 F9000.000
G1 X117.608 Y104.000 F9000.000
G1 X129.435 Y106.062 F9000.000
G1 X137.591 Y103.091 F9000.000
G1 X139.000 Y83.450 F9000.000
G1 X132.500 Y82.553 F9000.000
G1 X124.814 Y82.500 F9000.000
G1 X124.435 Y81.935 F9000.000
G1 X124.050 Y81.550 F9000.000
G1 X128.550 Y80.950 F9000.000
G1 E3.50000 F2400.00000
G1 X128.550 Y79.050 E0.17433 F450.000
G1 X134.450 Y79.050 E0.54133
G1 X134.450 Y80.950 E0.17433
G1 X128.625 Y80.950 E0.53445
G1 X128.050 Y80.950 F9000.000
G1 X124.050 Y81.550 F9000.000
G1 X135.050 Y82.500 F9000.000
G1 X136.050 Y83.450 F9000.000
G1 X138.500 Y99.550 F9000.000
G1 X125.483 Y135.983 F9000.000
G1 X123.748 Y136.012 F9000.000
G1 X117.050 Y146.450 F9000.000
G1 X111.050 Y146.450 F9000.000
G1 X111.186 Y146.314 F9000.000
G1 X88.814 Y146.314 E2.05257 F450.000
G1 X88.814 Y152.314 E0.55050
G1 X58.186 Y152.314 E2.81020
G1 X58.186 Y47.686 E9.59974
G1 X141.814 Y47.686 E7.67298
G1 X141.814 Y152.314 E9.59974
G1 X111.186 Y152.314 E2.81020
G1 X111.186 Y146.389 E0.54362
G1 E-3.50000 F2400.00000
G1 X111.050 Y146.450 F9000.000
G1 X127.950 Y97.450 F9000.000
G1 X127.814 Y97.314 F9000.000
G1 E3.50000 F2400.00000
G1 X127.393 Y97.314 E0.03864 F450.000
G1 X127.293 Y97.013 E0.02919
G1 X127.814 Y96.621 E0.05984
G1 X127.814 Y97.239 E0.05671
G1 X128.727 Y96.314 F9000.000
G1 X128.626 Y96.013 E0.02919 F450.000
G1 X130.395 Y94.686 E0.20292
G1 X130.814 Y94.686 E0.03846
G1 X130.814 Y96.314 E0.14944
G1 X128.802 Y96.314 E0.18468
G1 E-3.50000 F2400.00000
G1 X127.950 Y96.406 F9000.000
G1 X124.343 Y95.052 F9000.000
G1 X125.041 Y94.987 F9000.000
G1 E3.50000 F2400.00000
G1 X124.137 Y95.665 E0.10361 F450.000
G1 X123.858 Y94.686 E0.09345
G1 X124.940 Y94.686 E0.09933
G1 X125.017 Y94.916 E0.02231
G1 X123.814 Y93.151 F9000.000
G1 X123.434 Y93.204 E0.03522 F450.000
G1 X123.286 Y92.686 E0.04947
G1 X123.814 Y92.686 E0.04847
G1 X123.814 Y93.076 E0.03580
G1 X126.171 Y91.314 F9000.000
G1 X125.510 Y86.686 E0.42900 F450.000
G1 X126.814 Y86.686 E0.11969
G1 X126.814 Y91.314 E0.42469
G1 X126.246 Y91.314 E0.05214
G1 E-3.50000 F2400.00000
G1 X126.054 Y91.450 F9000.000
G1 X116.950 Y86.450 F9000.000
G1 X116.814 Y86.314 F9000.000
G1 E3.50000 F2400.00000
G1 X116.186 Y86.314 E0.05769 F450.000
G1 X116.186 Y83.362 E0.27085
G1 X116.814 Y83.991 E0.08158
G1 X116.814 Y86.239 E0.20628
G1 X116.138 Y83.314 F9000.000
G1 X110.186 Y83.314 E0.54610 F450.000
G1 X110.186 Y81.686 E0.14944
G1 X115.814 Y81.686 E0.51644
G1 X115.814 Y82.991 E0.11978
G1 X116.085 Y83.261 E0.03507
G1 E-3.50000 F2400.00000
G1 X116.050 Y83.278 F9000.000
G1 X109.050 Y87.763 F9000.000
G1 X109.186 Y87.686 F9000.000
G1 E3.50000 F2400.00000
G1 X109.186 Y85.009 E0.24559 F450.000
G1 X107.862 Y83.686 E0.17170
G1 X109.814 Y83.686 E0.17910
G1 X109.814 Y88.141 E0.40879
G1 X109.499 Y88.614 E0.05215
G1 X109.186 Y88.519 E0.03005
G1 X109.186 Y88.009 E0.04681
G1 X108.862 Y87.686 E0.04195
G1 X109.111 Y87.686 E0.02278
G1 E-3.50000 F2400.00000
G1 X109.050 Y87.763 F9000.000
G1 X111.050 Y146.450 F9000.000
G1 X110.450 Y147.050 F9000.000
G1 E3.50000 F2400.00000
G1 X89.550 Y147.050 E1.91759 F450.000
G1 X89.550 Y153.050 E0.55050
G1 X57.450 Y153.050 E2.94519
G1 X57.450 Y46.950 E9.73473
G1 X142.550 Y46.950 E7.80797
G1 X142.550 Y153.050 E9.73473
G1 X110.450 Y153.050 E2.94519
G1 X110.450 Y147.125 E0.54362
G1 X110.450 Y146.550 F9000.000
G1 E-3.50000 F2400.00000
G1 X111.050 Y146.450 F9000.000
G1 X131.000 Y107.450 F9000.000
G1 X125.479 Y104.137 F9000.000
G1 X124.100 Y104.000 F9000.000
G1 X122.208 Y104.000 F9000.000
G1 X122.208 Y100.550 F9000.000
G1 X129.450 Y92.050 F9000.000
G1 E3.50000 F2400.00000
G1 X129.450 Y89.051 E0.27513 F450.000
G1 X129.763 Y88.956 E0.03005
G1 X131.826 Y92.050 E0.34113
G1 X129.525 Y92.050 E0.21110
G1 X129.700 Y91.617 F9000.000
G1 X129.500 Y88.618 F9000.000
G1 X129.500 Y84.450 E0.38244 F450.000
G1 E-3.50000 F2400.00000
G1 X132.050 Y86.450 F9000.000
G1 X132.050 Y86.450 F9000.000
G1 X124.550 Y93.950 F9000.000
G1 E3.50000 F2400.00000
G1 X127.147 Y93.950 E0.23828 F450.000
G1 X127.248 Y94.252 E0.02919
G1 X124.550 Y96.275 E0.30938
G1 X124.550 Y98.403 E0.19526
G1 X124.170 Y98.456 E0.03522
G1 X122.339 Y92.050 E0.61132
G1 X121.376 Y92.050 E0.08840
G1 X121.823 Y88.922 E0.28994
G1 X122.164 Y88.885 E0.03144
G1 X122.500 Y89.782 E0.08790
G1 X122.836 Y88.885 E0.08790
G1 X123.177 Y88.922 E0.03144
G1 X123.610 Y91.950 E0.28068
G1 X124.550 Y91.950 E0.08627
G1 X124.550 Y93.875 E0.17662
G1 X124.550 Y94.450 F9000.000
G1 E-3.50000 F2400.00000
G1 X134.050 Y94.550 F9000.000
G1 X134.050 Y94.550 F9000.000
G1 X125.533 Y92.050 F9000.000
G1 E3.50000 F2400.00000
G1 X124.662 Y85.950 E0.56536 F450.000
G1 X127.550 Y85.950 E0.26500
G1 X127.550 Y92.050 E0.55968
G1 X125.608 Y92.050 E0.17817
G1 X125.741 Y91.595 F9000.000
G1 E-3.50000 F2400.00000
G1 X122.535 Y83.450 F9000.000
G1 X122.535 Y83.450 F9000.000
G1 X116.950 Y80.979 F9000.000
G1 E3.50000 F2400.00000
G1 X117.748 Y81.108 E0.07418 F450.000
G1 X118.023 Y81.285 E0.02996
G1 X118.709 Y81.821 E0.07986
