; generated by Slic3r 1.2.9 on 2017-05-11 at 09:33:46

; external perimeters extrusion width = 0.50mm
; perimeters extrusion width = 0.50mm
; infill extrusion width = 0.50mm
; solid infill extrusion width = 0.50mm
; top infill extrusion width = 0.50mm

M107
M190 S57 ; set bed temperature
G28 ; home all axes
M83;
G10 P0 S195 R160                       ; Set tool 0 operating and standby temperatures
T0

G21 ; set units to millimeters
G90 ; use absolute coordinates
M83 ; use relative distances for extrusion
G1 E-3.50000 F2400.00000
G1 Z0.300 F9000.000
G1 X58.942 Y54.978 F9000.000
G1 E3.50000 F2400.00000
G1 X60.197 Y53.806 E0.15755 F600.000
G1 X62.050 Y53.314 E0.17589
G1 X137.950 Y53.314 E6.96386
G1 X139.621 Y53.709 E0.15755
G1 X141.058 Y54.978 E0.17589 F600.000
G1 X143.058 Y57.978 E0.33081
G1 X143.686 Y60.050 E0.19864
G1 X143.686 Y139.950 E7.33087
G1 X143.058 Y142.022 E0.19864
G1 X141.058 Y145.022 E0.33081
G1 X139.803 Y146.194 E0.15755
G1 X137.950 Y146.686 E0.17589
G1 X62.050 Y146.686 E6.96386
G1 X60.379 Y146.291 E0.15755
G1 X58.942 Y145.022 E0.17589
G1 X56.942 Y142.022 E0.33081
G1 X56.314 Y139.950 E0.19864
G1 X56.314 Y60.050 E7.33087
G1 X56.942 Y57.978 E0.19864
G1 X58.900 Y55.040 E0.32393
G1 E-3.50000 F2400.00000
G1 X134.550 Y135.550 F9000.000
G1 E3.50000 F2400.00000
G1 X137.450 Y135.550 E0.26608 F450.000
G1 X137.450 Y138.450 E0.26608
G1 X134.550 Y138.450 E0.26608
G1 X134.550 Y135.625 E0.25920
G1 X134.550 Y135.050 F9000.000
G1 X132.814 Y133.814 F9000.000
G1 X132.186 Y133.814 E0.05769 F450.000
G1 X132.186 Y133.186 E0.05769
G1 X132.814 Y133.186 E0.05769
G1 X132.814 Y133.739 E0.05081
G1 E-3.50000 F2400.00000
G1 X132.950 Y133.950 F9000.000
G1 X132.050 Y138.050 F9000.000
G1 X132.186 Y138.186 F9000.000
G1 E3.50000 F2400.00000
G1 X133.814 Y138.186 E0.14944 F450.000
G1 X133.814 Y138.814 E0.05769
G1 X132.186 Y138.814 E0.14944
G1 X132.186 Y138.261 E0.05081
G1 X135.186 Y139.186 F9000.000
G1 X136.814 Y139.186 E0.14944 F450.000
G1 X136.814 Y141.814 E0.24119
G1 X135.186 Y141.814 E0.14944
G1 X135.186 Y139.261 E0.23431
G1 E-3.50000 F2400.00000
G1 X135.050 Y139.050 F9000.000
G1 X138.050 Y134.950 F9000.000
G1 X138.186 Y134.814 F9000.000
G1 E3.50000 F2400.00000
G1 X137.186 Y134.814 E0.09175 F450.000
G1 X137.186 Y133.186 E0.14944
G1 X138.814 Y133.186 E0.14944
G1 X138.814 Y138.814 E0.51644
G1 X138.186 Y138.814 E0.05769
G1 X138.186 Y134.889 E0.36012
G1 X136.450 Y134.450 F9000.000
G1 X133.550 Y134.450 E0.26608 F450.000
G1 X133.550 Y132.450 E0.18350
G1 X131.550 Y132.450 E0.18350
G1 X131.550 Y129.550 E0.26608
G1 X133.550 Y129.550 E0.18350
G1 X133.550 Y127.550 E0.18350
G1 X136.450 Y127.550 E0.26608
G1 X136.450 Y129.550 E0.18350
G1 X138.450 Y129.550 E0.18350
G1 X138.450 Y132.450 E0.26608
G1 X136.450 Y132.450 E0.18350
G1 X136.450 Y134.375 E0.17662
G1 X136.450 Y134.950 F9000.000
G1 E-3.50000 F2400.00000
G1 X132.050 Y133.950 F9000.000
G1 X124.950 Y133.950 F9000.000
G1 X124.814 Y133.814 F9000.000
G1 E3.50000 F2400.00000
G1 X123.186 Y133.814 E0.14944 F450.000
G1 X123.186 Y132.186 E0.14944
G1 X124.814 Y132.186 E0.14944
G1 X124.814 Y133.739 E0.14256
G1 X125.450 Y134.550 F9000.000
G1 X125.450 Y137.450 E0.26608 F450.000
G1 X122.550 Y137.450 E0.26608
G1 X122.550 Y134.550 E0.26608
G1 X125.375 Y134.550 E0.25920
G1 X125.950 Y134.550 F9000.000
G1 X112.450 Y135.450 F9000.000
G1 X111.450 Y135.450 E0.09175 F450.000
G1 X111.450 Y137.450 E0.18350
G1 X109.450 Y137.450 E0.18350
G1 X109.450 Y138.450 E0.09175
G1 X106.550 Y138.450 E0.26608
G1 X106.550 Y137.450 E0.09175
G1 X104.550 Y137.450 E0.18350
G1 X104.550 Y135.450 E0.18350
G1 X103.550 Y135.450 E0.09175
G1 X103.550 Y132.550 E0.26608
G1 X104.550 Y132.550 E0.09175
G1 X104.550 Y130.550 E0.18350
G1 X106.550 Y130.550 E0.18350
G1 X106.550 Y129.550 E0.09175
G1 X109.450 Y129.550 E0.26608
G1 X109.450 Y130.550 E0.09175
G1 X111.450 Y130.550 E0.18350
G1 X111.450 Y132.550 E0.18350
G1 X112.450 Y132.550 E0.09175
G1 X112.450 Y135.375 E0.25920
G1 X112.450 Y135.950 F9000.000
G1 E-3.50000 F2400.00000
G1 X105.950 Y138.050 F9000.000
G1 X104.000 Y139.000 F9000.000
G1 X103.000 Y138.000 F9000.000
G1 X103.000 Y137.000 F9000.000
G1 X103.950 Y136.050 F9000.000
G1 X102.450 Y135.450 F9000.000
G1 E3.50000 F2400.00000
G1 X101.450 Y135.450 E0.09175 F450.000
G1 X101.450 Y137.450 E0.18350
G1 X98.550 Y137.450 E0.26608
G1 X98.550 Y135.450 E0.18350
G1 X97.450 Y135.450 E0.10093
G1 X97.450 Y137.450 E0.18350
G1 X94.550 Y137.450 E0.26608
G1 X94.550 Y135.450 E0.18350
G1 X93.450 Y135.450 E0.10093
G1 X93.450 Y137.450 E0.18350
G1 X86.550 Y137.450 E0.63308
G1 X86.550 Y134.550 E0.26608
G1 X93.550 Y134.550 E0.64225
G1 X93.550 Y132.550 E0.18350
G1 X94.550 Y132.550 E0.09175
G1 X94.550 Y130.550 E0.18350
G1 X97.450 Y130.550 E0.26608
G1 X97.450 Y132.550 E0.18350
G1 X98.550 Y132.550 E0.10093
G1 X98.550 Y130.550 E0.18350
G1 X101.450 Y130.550 E0.26608
G1 X101.450 Y132.550 E0.18350
G1 X102.450 Y132.550 E0.09175
G1 X102.450 Y135.375 E0.25920
G1 X102.450 Y135.950 F9000.000
G1 E-3.50000 F2400.00000
G1 X93.950 Y131.950 F9000.000
G1 X92.950 Y131.050 F9000.000
G1 X92.500 Y133.500 F9000.000
G1 X92.050 Y133.950 F9000.000
G1 X91.450 Y133.450 F9000.000
G1 E3.50000 F2400.00000
G1 X88.550 Y133.450 E0.26608 F450.000
G1 X88.550 Y130.550 E0.26608
G1 X91.450 Y130.550 E0.26608
G1 X91.450 Y133.375 E0.25920
G1 X91.450 Y133.950 F9000.000
G1 X90.550 Y115.450 F9000.000
G1 X90.550 Y112.550 E0.26608 F450.000
G1 X97.450 Y112.550 E0.63308
G1 X97.450 Y115.450 E0.26608
G1 X90.625 Y115.450 E0.62620
G1 X90.050 Y115.450 F9000.000
G1 E-3.50000 F2400.00000
G1 X91.950 Y111.950 F9000.000
G1 X91.950 Y111.950 F9000.000
G1 X92.550 Y111.450 F9000.000
G1 E3.50000 F2400.00000
G1 X92.550 Y108.550 E0.26608 F450.000
G1 X95.450 Y108.550 E0.26608
G1 X95.450 Y111.450 E0.26608
G1 X92.625 Y111.450 E0.25920
G1 X92.050 Y111.450 F9000.000
G1 E-3.50000 F2400.00000
G1 X96.050 Y108.050 F9000.000
G1 X97.435 Y109.435 F9000.000
G1 X97.862 Y109.050 F9000.000
G1 X98.950 Y109.050 F9000.000
G1 X99.550 Y108.450 F9000.000
G1 E3.50000 F2400.00000
G1 X99.550 Y105.550 E0.26608 F450.000
G1 X102.450 Y105.550 E0.26608
G1 X102.450 Y108.450 E0.26608
G1 X99.625 Y108.450 E0.25920
G1 X99.050 Y108.450 F9000.000
G1 X103.050 Y108.050 F9000.000
G1 X103.050 Y108.050 F9000.000
G1 X103.550 Y107.450 F9000.000
G1 X103.550 Y104.550 E0.26608 F450.000
G1 X105.550 Y104.550 E0.18350
G1 X105.550 Y102.550 E0.18350
G1 X108.450 Y102.550 E0.26608
G1 X108.450 Y104.550 E0.18350
G1 X110.450 Y104.550 E0.18350
G1 X110.450 Y107.450 E0.26608
G1 X108.450 Y107.450 E0.18350
G1 X108.450 Y109.450 E0.18350
G1 X105.550 Y109.450 E0.26608
G1 X105.550 Y107.450 E0.18350
G1 X103.625 Y107.450 E0.17662
G1 X103.050 Y107.450 F9000.000
G1 E-3.50000 F2400.00000
G1 X104.950 Y108.050 F9000.000
G1 X104.950 Y108.050 F9000.000
G1 X109.550 Y108.550 F9000.000
G1 E3.50000 F2400.00000
G1 X117.450 Y108.550 E0.72483 F450.000
G1 X117.450 Y112.450 E0.35783
G1 X109.550 Y112.450 E0.72483
G1 X109.550 Y108.625 E0.35095
G1 X109.550 Y108.050 F9000.000
G1 X114.550 Y97.450 F9000.000
G1 X114.550 Y94.550 E0.26608 F450.000
G1 X119.550 Y94.550 E0.45875
G1 X119.550 Y92.450 E0.19268
G1 X114.550 Y92.450 E0.45875
G1 X114.550 Y89.550 E0.26608
G1 X122.450 Y89.550 E0.72483
G1 X122.450 Y114.550 E2.29376
G1 X124.450 Y114.550 E0.18350
G1 X124.450 Y131.450 E1.55058
G1 X122.450 Y131.450 E0.18350
G1 X122.450 Y133.450 E0.18350
G1 X119.550 Y133.450 E0.26608
G1 X119.550 Y128.550 E0.44958
G1 X121.550 Y128.550 E0.18350
G1 X121.550 Y117.450 E1.01843
G1 X119.550 Y117.450 E0.18350
G1 X119.550 Y97.450 E1.83501
G1 X114.625 Y97.450 E0.45187
G1 X114.050 Y97.450 F9000.000
G1 E-3.50000 F2400.00000
G1 X113.950 Y93.950 F9000.000
G1 X101.050 Y79.950 F9000.000
G1 X101.186 Y79.814 F9000.000
G1 E3.50000 F2400.00000
G1 X100.686 Y79.814 E0.04588 F450.000
G1 X100.686 Y75.186 E0.42469
G1 X101.814 Y75.186 E0.10356
G1 X101.814 Y82.814 E0.69994
G1 X101.186 Y82.814 E0.05769
G1 X101.186 Y79.889 E0.26837
G1 E-3.50000 F2400.00000
G1 X101.050 Y79.950 F9000.000
G1 X96.950 Y87.050 F9000.000
G1 X96.814 Y87.186 F9000.000
G1 E3.50000 F2400.00000
G1 X96.814 Y91.509 E0.39666 F450.000
G1 X96.186 Y92.138 E0.08158
G1 X96.186 Y87.509 E0.42469
G1 X95.862 Y87.186 E0.04195
G1 X96.739 Y87.186 E0.08047
G1 E-3.50000 F2400.00000
G1 X96.950 Y87.050 F9000.000
G1 X89.050 Y84.050 F9000.000
G1 X89.186 Y84.186 F9000.000
G1 E3.50000 F2400.00000
G1 X89.186 Y80.186 E0.36700 F450.000
G1 X89.814 Y80.186 E0.05769
G1 X89.814 Y85.491 E0.48678
G1 X90.138 Y85.814 E0.04195
G1 X86.186 Y85.814 E0.36260
G1 X86.186 Y84.186 E0.14944
G1 X89.111 Y84.186 E0.26837
G1 E-3.50000 F2400.00000
G1 X89.050 Y84.050 F9000.000
G1 X86.950 Y90.050 F9000.000
G1 X86.814 Y90.186 F9000.000
G1 E3.50000 F2400.00000
G1 X86.814 Y90.814 E0.05769 F450.000
G1 X82.509 Y90.814 E0.39503
G1 X82.186 Y91.138 E0.04195
G1 X82.186 Y90.509 E0.05769
G1 X81.862 Y90.186 E0.04195
G1 X86.739 Y90.186 E0.44747
G1 E-3.50000 F2400.00000
G1 X86.950 Y90.050 F9000.000
G1 X83.465 Y85.950 F9000.000
G1 X83.138 Y85.814 F9000.000
G1 E3.50000 F2400.00000
G1 X82.186 Y85.814 E0.08735 F450.000
G1 X82.186 Y84.862 E0.08735
G1 X83.085 Y85.761 E0.11665
G1 X79.814 Y86.186 F9000.000
G1 X79.814 Y88.138 E0.17910 F450.000
G1 X79.186 Y87.509 E0.08158
G1 X79.186 Y86.186 E0.12141
G1 X79.739 Y86.186 E0.05081
G1 X78.814 Y83.814 F9000.000
G1 X75.686 Y83.814 E0.28707 F450.000
G1 X75.686 Y80.186 E0.33294
G1 X78.814 Y80.186 E0.28707
G1 X78.814 Y83.739 E0.32606
G1 E-3.50000 F2400.00000
G1 X78.950 Y83.950 F9000.000
G1 X75.950 Y96.050 F9000.000
G1 X75.814 Y96.186 F9000.000
G1 E3.50000 F2400.00000
G1 X83.491 Y96.186 E0.70434 F450.000
G1 X84.491 Y95.186 E0.12975
G1 X93.814 Y95.186 E0.85542
G1 X93.814 Y103.186 E0.73400
G1 X95.814 Y103.186 E0.18350
G1 X95.814 Y103.509 E0.02966
G1 X95.509 Y103.814 E0.03964
G1 X92.186 Y103.814 E0.30491
G1 X92.186 Y97.814 E0.55050
G1 X77.814 Y97.814 E1.31857
G1 X77.814 Y102.814 E0.45875
G1 X75.186 Y102.814 E0.24119
G1 X75.186 Y90.862 E1.09661
G1 X75.814 Y91.491 E0.08158
G1 X75.814 Y96.111 E0.42384
G1 X78.550 Y98.550 F9000.000
G1 X91.450 Y98.550 E1.18358 F450.000
G1 X91.450 Y103.450 E0.44958
G1 X85.550 Y103.450 E0.54133
G1 X85.550 Y101.450 E0.18350
G1 X82.450 Y101.450 E0.28443
G1 X82.450 Y102.450 E0.09175
G1 X78.550 Y102.450 E0.35783
G1 X78.550 Y98.625 E0.35095
G1 X78.550 Y98.050 F9000.000
G1 E-3.50000 F2400.00000
G1 X77.950 Y102.950 F9000.000
G1 X77.950 Y102.950 F9000.000
G1 X76.500 Y101.500 F9000.000
G1 X75.050 Y102.950 F9000.000
G1 X74.450 Y107.550 F9000.000
G1 E3.50000 F2400.00000
G1 X74.450 Y111.450 E0.35783 F450.000
G1 X70.550 Y111.450 E0.35783
G1 X70.550 Y107.550 E0.35783
G1 X74.375 Y107.550 E0.35095
G1 X74.950 Y107.550 F9000.000
G1 E-3.50000 F2400.00000
G1 X72.050 Y112.050 F9000.000
G1 X72.050 Y112.050 F9000.000
G1 X71.450 Y112.550 F9000.000
G1 E3.50000 F2400.00000
G1 X71.450 Y115.450 E0.26608 F450.000
G1 X69.450 Y115.450 E0.18350
G1 X69.450 Y117.450 E0.18350
G1 X66.550 Y117.450 E0.26608
G1 X66.550 Y115.450 E0.18350
G1 X64.550 Y115.450 E0.18350
G1 X64.550 Y112.550 E0.26608
G1 X66.550 Y112.550 E0.18350
G1 X66.550 Y110.550 E0.18350
G1 X69.450 Y110.550 E0.26608
G1 X69.450 Y112.550 E0.18350
G1 X71.375 Y112.550 E0.17662
G1 X71.950 Y112.550 F9000.000
G1 X71.450 Y121.550 F9000.000
G1 X71.450 Y124.450 E0.26608 F450.000
G1 X64.550 Y124.450 E0.63308
G1 X64.550 Y121.550 E0.26608
G1 X71.375 Y121.550 E0.62620
G1 X71.950 Y121.550 F9000.000
G1 X72.050 Y124.950 F9000.000
G1 X72.050 Y124.950 F9000.000
G1 X70.550 Y125.550 F9000.000
G1 X74.450 Y125.550 E0.35783 F450.000
G1 X74.450 Y129.450 E0.35783
G1 X70.550 Y129.450 E0.35783
G1 X70.550 Y125.625 E0.35095
G1 X70.550 Y125.050 F9000.000
G1 X69.950 Y130.050 F9000.000
G1 X69.950 Y130.500 F9000.000
G1 X72.050 Y130.500 F9000.000
G1 X72.050 Y130.950 F9000.000
G1 X71.450 Y131.550 F9000.000
G1 X71.450 Y133.550 E0.18350 F450.000
G1 X73.450 Y133.550 E0.18350
G1 X73.450 Y136.450 E0.26608
G1 X71.450 Y136.450 E0.18350
G1 X71.450 Y138.450 E0.18350
G1 X68.550 Y138.450 E0.26608
G1 X68.550 Y136.450 E0.18350
G1 X66.550 Y136.450 E0.18350
G1 X66.550 Y133.550 E0.26608
G1 X68.550 Y133.550 E0.18350
G1 X68.550 Y131.550 E0.18350
G1 X71.375 Y131.550 E0.25920
G1 X71.950 Y131.550 F9000.000
G1 X65.450 Y130.550 F9000.000
G1 X65.450 Y133.450 E0.26608 F450.000
G1 X61.550 Y133.450 E0.35783
G1 X61.550 Y130.550 E0.26608
G1 X65.375 Y130.550 E0.35095
G1 X65.950 Y130.550 F9000.000
G1 X65.450 Y134.550 F9000.000
G1 X65.450 Y138.450 E0.35783 F450.000
G1 X61.550 Y138.450 E0.35783
G1 X61.550 Y134.550 E0.35783
G1 X65.375 Y134.550 E0.35095
G1 X65.950 Y134.550 F9000.000
G1 X66.186 Y137.186 F9000.000
G1 X67.814 Y137.186 E0.14944 F450.000
G1 X67.814 Y138.814 E0.14944
G1 X66.186 Y138.814 E0.14944
G1 X66.186 Y137.261 E0.14256
G1 X64.814 Y139.186 F9000.000
G1 X64.814 Y141.814 E0.24119 F450.000
G1 X63.186 Y141.814 E0.14944
G1 X63.186 Y139.186 E0.24119
G1 X64.739 Y139.186 E0.14256
G1 E-3.50000 F2400.00000
G1 X64.950 Y139.050 F9000.000
G1 X68.435 Y108.050 F9000.000
G1 X65.450 Y103.450 F9000.000
G1 E3.50000 F2400.00000
G1 X61.550 Y103.450 E0.35783 F450.000
G1 X61.550 Y99.550 E0.35783
G1 X65.450 Y99.550 E0.35783
G1 X65.450 Y103.375 E0.35095
G1 X65.450 Y103.950 F9000.000
G1 X65.814 Y98.814 F9000.000
G1 X61.186 Y98.814 E0.42469 F450.000
G1 X61.186 Y98.186 E0.05769
G1 X65.814 Y98.186 E0.42469
G1 X65.814 Y98.739 E0.05081
G1 X65.450 Y97.450 F9000.000
G1 X61.550 Y97.450 E0.35783 F450.000
G1 X61.550 Y93.550 E0.35783
G1 X65.450 Y93.550 E0.35783
G1 X65.450 Y97.375 E0.35095
G1 X65.450 Y97.950 F9000.000
G1 X61.050 Y98.050 F9000.000
G1 X61.050 Y98.050 F9000.000
G1 X61.550 Y92.450 F9000.000
G1 X61.550 Y89.550 E0.26608 F450.000
G1 X69.450 Y89.550 E0.72483
G1 X69.450 Y106.186 E1.52640
G1 X68.186 Y107.450 E0.16396
G1 X61.550 Y107.450 E0.60889
G1 X61.550 Y104.550 E0.26608
G1 X65.814 Y104.550 E0.39119
G1 X66.550 Y103.814 E0.09555
G1 X66.550 Y92.450 E1.04262
G1 X61.625 Y92.450 E0.45187
G1 X61.050 Y92.450 F9000.000
G1 E-3.50000 F2400.00000
G1 X70.050 Y88.950 F9000.000
G1 X70.050 Y88.950 F9000.000
G1 X70.186 Y88.814 F9000.000
G1 E3.50000 F2400.00000
G1 X61.186 Y88.814 E0.82575 F450.000
G1 X61.186 Y70.186 E1.70920
G1 X65.814 Y70.186 E0.42469
G1 X65.814 Y77.491 E0.67028
G1 X68.138 Y79.814 E0.30146
G1 X67.814 Y79.814 E0.02966
G1 X67.814 Y85.186 E0.49281
G1 X70.814 Y85.186 E0.27525
G1 X70.814 Y106.814 E1.98445
G1 X69.862 Y106.814 E0.08735
G1 X70.186 Y106.491 E0.04195
G1 X70.186 Y88.889 E1.61497
G1 E-3.50000 F2400.00000
G1 X70.050 Y88.950 F9000.000
G1 X69.000 Y87.000 F9000.000
G1 X70.950 Y85.050 F9000.000
G1 X71.450 Y79.450 F9000.000
G1 E3.50000 F2400.00000
G1 X68.814 Y79.450 E0.24189 F450.000
G1 X66.550 Y77.186 E0.29371
G1 X66.550 Y69.450 E0.70982
G1 X61.550 Y69.450 E0.45875
G1 X61.550 Y66.550 E0.26608
G1 X69.450 Y66.550 E0.72483
G1 X69.450 Y74.814 E0.75819
G1 X71.450 Y76.814 E0.25951
G1 X71.450 Y79.375 E0.23501
G1 X71.450 Y79.950 F9000.000
G1 E-3.50000 F2400.00000
G1 X70.050 Y74.565 F9000.000
G1 X65.950 Y70.050 F9000.000
G1 X65.450 Y65.450 F9000.000
G1 E3.50000 F2400.00000
G1 X61.550 Y65.450 E0.35783 F450.000
G1 X61.550 Y61.550 E0.35783
G1 X65.450 Y61.550 E0.35783
G1 X65.450 Y65.375 E0.35095
G1 X65.450 Y65.950 F9000.000
G1 X64.950 Y60.950 F9000.000
G1 X64.950 Y60.950 F9000.000
G1 X64.814 Y60.814 F9000.000
G1 X63.186 Y60.814 E0.14944 F450.000
G1 X63.186 Y58.186 E0.24119
G1 X64.814 Y58.186 E0.14944
G1 X64.814 Y60.739 E0.23431
G1 X71.186 Y61.186 F9000.000
G1 X71.186 Y58.186 E0.27525 F450.000
G1 X72.814 Y58.186 E0.14944
G1 X72.814 Y61.186 E0.27525
G1 X78.814 Y61.186 E0.55050
G1 X78.814 Y71.814 E0.97519
G1 X71.314 Y71.814 E0.68813
G1 X71.314 Y75.638 E0.35079
G1 X70.186 Y74.509 E0.14646
G1 X70.186 Y65.814 E0.79773
G1 X66.186 Y65.814 E0.36700
G1 X66.186 Y61.186 E0.42469
G1 X71.111 Y61.186 E0.45187
G1 X79.186 Y60.814 F9000.000
G1 X79.186 Y58.186 E0.24119 F450.000
G1 X80.814 Y58.186 E0.14944
G1 X80.814 Y60.814 E0.24119
G1 X79.261 Y60.814 E0.14256
G1 X87.186 Y60.814 F9000.000
G1 X87.186 Y58.186 E0.24119 F450.000
G1 X88.814 Y58.186 E0.14944
G1 X88.814 Y60.814 E0.24119
G1 X87.261 Y60.814 E0.14256
G1 E-3.50000 F2400.00000
G1 X87.050 Y60.950 F9000.000
G1 X88.950 Y66.950 F9000.000
G1 X89.550 Y67.550 F9000.000
G1 E3.50000 F2400.00000
G1 X96.450 Y67.550 E0.63308 F450.000
