; generated by Slic3r 1.2.9 on 2017-05-11 at 12:24:47

; external perimeters extrusion width = 0.50mm
; perimeters extrusion width = 0.50mm
; infill extrusion width = 0.50mm
; solid infill extrusion width = 0.50mm
; top infill extrusion width = 0.50mm

M107
M190 S57 ; set bed temperature
G28 ; home all axes
M83;
G10 P0 S195 R160                       ; Set tool 0 operating and standby temperatures
T0

G21 ; set units to millimeters
G90 ; use absolute coordinates
M83 ; use relative distances for extrusion
G1 E-3.50000 F2400.00000
G1 Z0.300 F9000.000
G1 X54.810 Y57.061 F9000.000
G1 E3.50000 F2400.00000
G1 X57.050 Y56.314 E0.21667 F600.000
G1 X142.950 Y56.314 E7.88137
G1 X144.621 Y56.709 E0.15755
G1 X145.939 Y57.810 E0.15755 F600.000
G1 X146.686 Y60.050 E0.21667
G1 X146.686 Y139.950 E7.33087
G1 X146.291 Y141.621 E0.15755
G1 X145.190 Y142.939 E0.15755
G1 X142.950 Y143.686 E0.21667
G1 X57.050 Y143.686 E7.88137
G1 X55.379 Y143.291 E0.15755
G1 X54.061 Y142.190 E0.15755
G1 X53.314 Y139.950 E0.21667
G1 X53.314 Y60.050 E7.33087
G1 X53.709 Y58.379 E0.15755
G1 X54.762 Y57.118 E0.15067
G1 E-3.50000 F2400.00000
G1 X113.186 Y113.814 F9000.000
G1 E3.50000 F2400.00000
G1 X113.186 Y124.186 E0.95157 F450.000
G1 X97.814 Y124.186 E1.41032
G1 X97.814 Y113.814 E0.95157
G1 X113.111 Y113.814 E1.40344
G1 X112.450 Y114.550 F9000.000
G1 X112.450 Y123.450 E0.81658 F450.000
G1 X98.550 Y123.450 E1.27533
G1 X98.550 Y114.550 E0.81658
G1 X112.375 Y114.550 E1.26845
G1 X112.950 Y114.550 F9000.000
G1 X110.786 Y89.586 F9000.000
G1 X94.814 Y89.586 E1.46537 F450.000
G1 X94.814 Y86.414 E0.29096
G1 X96.414 Y86.414 E0.14680
G1 X96.414 Y82.386 E0.36964
G1 X93.214 Y82.386 E0.29360
G1 X93.214 Y77.586 E0.44040
G1 X90.014 Y77.586 E0.29360
G1 X90.014 Y74.414 E0.29096
G1 X90.708 Y74.414 E0.06364
G1 X91.614 Y69.883 E0.42403
G1 X91.614 Y67.214 E0.24481
G1 X94.786 Y67.214 E0.29096
G1 X94.786 Y68.738 E0.13976
G1 X96.309 Y67.214 E0.19765
G1 X104.491 Y67.214 E0.75072
G1 X105.200 Y67.923 E0.09198
G1 X105.909 Y67.214 E0.09198
G1 X109.291 Y67.214 E0.31032
G1 X110.786 Y68.709 E0.19392
G1 X110.786 Y89.511 E1.90857
G1 X110.050 Y88.850 F9000.000
G1 X108.350 Y88.850 E0.15598 F450.000
G1 X108.350 Y87.786 E0.09759
G1 X106.850 Y86.286 E0.19463
G1 X106.850 Y88.850 E0.23521
G1 X105.150 Y88.850 E0.15598
G1 X105.150 Y87.886 E0.08841
G1 X104.186 Y88.850 E0.12503
G1 X101.414 Y88.850 E0.25441
G1 X100.450 Y87.886 E0.12503
G1 X100.450 Y88.850 E0.08841
G1 X95.550 Y88.850 E0.44958
G1 X95.550 Y87.150 E0.15598
G1 X97.150 Y87.150 E0.14680
G1 X97.150 Y82.350 E0.44040
G1 X98.850 Y82.350 E0.15598
G1 X98.850 Y87.150 E0.44040
G1 X100.350 Y87.150 E0.13763
G1 X100.350 Y83.414 E0.34282
G1 X101.414 Y82.350 E0.13801
G1 X104.186 Y82.350 E0.25440
G1 X105.150 Y83.314 E0.12503
G1 X105.150 Y82.350 E0.08841
G1 X106.850 Y82.350 E0.15598
G1 X106.850 Y83.414 E0.09759
G1 X108.350 Y84.914 E0.19463
G1 X108.350 Y82.350 E0.23521
G1 X110.050 Y82.350 E0.15598
G1 X110.050 Y88.775 E0.58950
G1 X110.050 Y89.350 F9000.000
G1 X110.050 Y81.650 F9000.000
G1 X106.214 Y81.650 E0.35199 F450.000
G1 X105.250 Y80.686 E0.12503
G1 X105.250 Y81.650 E0.08841
G1 X100.350 Y81.650 E0.44958
G1 X100.350 Y79.886 E0.16181
G1 X98.586 Y81.650 E0.22884
G1 X97.414 Y81.650 E0.10760
G1 X95.650 Y79.886 E0.22884
G1 X95.650 Y81.650 E0.16181
G1 X93.950 Y81.650 E0.15598
G1 X93.950 Y76.850 E0.44040
G1 X90.750 Y76.850 E0.29360
G1 X90.750 Y75.150 E0.15598
G1 X97.250 Y75.150 E0.59638
G1 X97.250 Y77.550 E0.22020
G1 X98.750 Y77.550 E0.13763
G1 X98.750 Y75.150 E0.22020
G1 X106.536 Y75.150 E0.71439
G1 X108.350 Y76.359 E0.20000
G1 X108.350 Y75.150 E0.11094
G1 X110.050 Y75.150 E0.15598
G1 X110.050 Y81.575 E0.58950
G1 X110.050 Y82.150 F9000.000
G1 X110.050 Y74.450 F9000.000
G1 X108.350 Y74.450 E0.15598 F450.000
G1 X108.350 Y69.650 E0.44040
G1 X106.850 Y69.650 E0.13763
G1 X106.850 Y74.450 E0.44040
G1 X105.150 Y74.450 E0.15598
G1 X105.150 Y73.486 E0.08841
G1 X104.186 Y74.450 E0.12503
G1 X101.414 Y74.450 E0.25440
G1 X100.450 Y73.486 E0.12503
G1 X100.450 Y74.450 E0.08841
G1 X97.414 Y74.450 E0.27859
G1 X96.350 Y73.386 E0.13801
G1 X96.350 Y71.786 E0.14680
G1 X95.550 Y70.986 E0.10380
G1 X95.550 Y69.014 E0.18101
G1 X96.614 Y67.950 E0.13801
G1 X100.450 Y67.950 E0.35199
G1 X100.450 Y68.914 E0.08841
G1 X101.414 Y67.950 E0.12503
G1 X104.186 Y67.950 E0.25440
G1 X105.200 Y68.964 E0.13152
G1 X106.214 Y67.950 E0.13152
G1 X108.986 Y67.950 E0.25441
G1 X110.050 Y69.014 E0.13801
G1 X110.050 Y74.375 E0.49191
G1 X110.050 Y74.950 F9000.000
G1 X94.949 Y74.450 F9000.000
G1 X91.451 Y74.450 E0.32093 F450.000
G1 X92.411 Y69.650 E0.44912
G1 X92.350 Y69.650 E0.00560
G1 X92.350 Y67.950 E0.15598
G1 X94.050 Y67.950 E0.15598
G1 X94.050 Y69.650 E0.15598
G1 X93.989 Y69.650 E0.00560
G1 X94.934 Y74.376 E0.44224
G1 X94.982 Y74.949 F9000.000
G1 E-3.50000 F2400.00000
G1 X107.450 Y89.450 F9000.000
G1 X101.050 Y101.700 F9000.000
G1 X78.000 Y113.950 F9000.000
G1 X88.950 Y123.950 F9000.000
G1 X88.950 Y132.950 F9000.000
G1 X88.814 Y132.814 F9000.000
G1 E3.50000 F2400.00000
G1 X88.814 Y138.814 E0.55050 F450.000
G1 X58.186 Y138.814 E2.81020
G1 X58.186 Y61.186 E7.12248
G1 X141.814 Y61.186 E7.67298
G1 X141.814 Y138.814 E7.12248
G1 X111.186 Y138.814 E2.81020
G1 X111.186 Y132.814 E0.55050
G1 X88.889 Y132.814 E2.04569
G1 X89.550 Y133.550 F9000.000
G1 X89.550 Y139.550 E0.55050 F450.000
G1 X57.450 Y139.550 E2.94519
G1 X57.450 Y60.450 E7.25747
G1 X142.550 Y60.450 E7.80797
G1 X142.550 Y139.550 E7.25747
G1 X110.450 Y139.550 E2.94519
G1 X110.450 Y133.550 E0.55050
G1 X89.625 Y133.550 E1.91070
G1 X89.050 Y133.550 F9000.000
G1 X105.200 Y87.271 F9000.000
G1 X105.200 Y83.929 E0.30657 F450.000
G1 E-3.50000 F2400.00000
G1 X107.450 Y87.735 F9000.000
G1 X107.450 Y87.735 F9000.000
G1 X101.150 Y79.250 F9000.000
G1 E3.50000 F2400.00000
G1 X103.550 Y79.250 E0.22020 F450.000
G1 X103.550 Y79.950 E0.06423
G1 X100.450 Y79.950 E0.28443
G1 X100.450 Y76.850 E0.28443
G1 X103.550 Y76.850 E0.28443
G1 X103.550 Y77.550 E0.06423
G1 X101.150 Y77.550 E0.22020
G1 X101.150 Y79.175 E0.14910
G1 X101.150 Y79.750 F9000.000
G1 E-3.50000 F2400.00000
G1 X96.665 Y81.750 F9000.000
G1 X96.665 Y81.750 F9000.000
G1 X105.250 Y78.514 F9000.000
G1 E3.50000 F2400.00000
G1 X105.250 Y76.708 E0.16571 F450.000
G1 X106.334 Y77.430 E0.11950
G1 X105.303 Y78.461 E0.13373
G1 X105.379 Y78.031 F9000.000
G1 E-3.50000 F2400.00000
G1 X105.200 Y68.115 F9000.000
G1 X105.200 Y68.115 F9000.000
G1 X103.550 Y72.750 F9000.000
G1 E3.50000 F2400.00000
G1 X102.050 Y72.750 E0.13763 F450.000
G1 X102.050 Y72.050 E0.06423
G1 X103.550 Y72.050 E0.13763
G1 X103.550 Y72.675 E0.05734
G1 X103.117 Y72.500 F9000.000
G1 E-3.50000 F2400.00000
G1 X105.200 Y68.115 F9000.000
G1 X105.200 Y68.115 F9000.000
G1 X105.150 Y71.314 F9000.000
G1 E3.50000 F2400.00000
G1 X104.286 Y70.450 E0.11206 F450.000
G1 X105.150 Y70.450 E0.07924
G1 X105.150 Y71.239 E0.07235
G1 X104.900 Y70.881 F9000.000
G1 X103.550 Y70.350 F9000.000
G1 X102.050 Y70.350 E0.13763 F450.000
G1 X102.050 Y69.650 E0.06423
G1 X103.550 Y69.650 E0.13763
G1 X103.550 Y70.275 E0.05734
G1 X103.117 Y70.100 F9000.000
G1 E-3.50000 F2400.00000
G1 X101.050 Y67.465 F9000.000
G1 X101.050 Y67.465 F9000.000
G1 X101.314 Y71.950 F9000.000
G1 E3.50000 F2400.00000
G1 X100.450 Y71.950 E0.07924 F450.000
G1 X100.450 Y71.086 E0.07924
G1 X101.261 Y71.897 E0.10518
G1 X100.831 Y71.821 F9000.000
G1 E-3.50000 F2400.00000
G1 X96.665 Y74.550 F9000.000
G1 X96.665 Y74.550 F9000.000
G1 X95.600 Y75.550 F9000.000
G1 E3.50000 F2400.00000
G1 X95.600 Y79.271 E0.34137 F450.000
G1 E-3.50000 F2400.00000
G1 X57.050 Y60.050 F9000.000
G1 X57.050 Y60.050 F9000.000
G1 X102.050 Y84.050 F9000.000
G1 E3.50000 F2400.00000
G1 X103.550 Y84.050 E0.13763 F450.000
G1 X103.550 Y87.150 E0.28443
G1 X102.050 Y87.150 E0.13763
G1 X102.050 Y84.125 E0.27755
G1 X102.483 Y84.300 F9000.000
G1 E-3.50000 F2400.00000
G1 X142.950 Y60.050 F9000.000
G1 X142.950 Y60.050 F9000.000
G1 X98.000 Y80.164 F9000.000
G1 E3.50000 F2400.00000
G1 X97.086 Y79.250 E0.11854 F450.000
G1 X98.914 Y79.250 E0.16765
G1 X98.053 Y80.111 E0.11166
G1 X97.871 Y79.681 F9000.000
G1 E-3.50000 F2400.00000
G1 X142.950 Y60.050 F9000.000
G1 X142.950 Y60.050 F9000.000
G1 X106.850 Y79.950 F9000.000
G1 E3.50000 F2400.00000
G1 X106.850 Y79.250 E0.06423 F450.000
G1 X108.350 Y79.250 E0.13763
G1 X108.350 Y79.950 E0.06423
G1 X106.925 Y79.950 E0.13074
G1 X107.100 Y79.517 F9000.000
G1 E-3.50000 F2400.00000
G1 X142.950 Y60.050 F9000.000
G1 X142.950 Y60.050 F9000.000
G1 X98.750 Y72.750 F9000.000
G1 E3.50000 F2400.00000
G1 X98.050 Y72.750 E0.06423 F450.000
G1 X98.050 Y72.050 E0.06423
G1 X98.750 Y72.050 E0.06423
G1 X98.750 Y72.675 E0.05734
G1 X98.317 Y72.500 F9000.000
G1 E-3.50000 F2400.00000
G1 X57.050 Y60.050 F9000.000
G1 X57.050 Y60.050 F9000.000
G1 X98.750 Y70.350 F9000.000
G1 E3.50000 F2400.00000
G1 X97.250 Y70.350 E0.13763 F450.000
G1 X97.250 Y69.650 E0.06423
G1 X98.750 Y69.650 E0.13763
G1 X98.750 Y70.275 E0.05734
G1 X98.317 Y70.100 F9000.000
G1 E-3.50000 F2400.00000
G1 X57.050 Y60.050 F9000.000
G1 X57.050 Y60.050 F9000.000
G1 X94.800 Y69.243 F9000.000
G1 E3.50000 F2400.00000
G1 X94.800 Y69.881 E0.12215 F300.000
G1 X94.925 Y71.139 E0.24204
G1 X94.985 Y71.336 E0.03948
G1 X95.430 Y72.167 E0.18066
G1 X95.566 Y73.539 E0.26395
G1 X95.664 Y73.857 E0.06375
G1 X96.159 Y74.782 E0.20102
G1 X96.232 Y74.764 F9000.000
G1 X97.012 Y74.568 E0.07379 F300.000
G1 X98.000 Y74.818 F9000.000
G1 X98.000 Y77.182 E0.45285 F300.000
G1 E-3.50000 F2400.00000
G1 X96.250 Y81.335 F9000.000
G1 X96.403 Y81.705 F9000.000
G1 X96.550 Y81.702 F9000.000
G1 X96.665 Y81.750 F9000.000
G1 X99.600 Y81.157 F9000.000
G1 E3.50000 F2400.00000
G1 X99.600 Y82.018 E0.16496 F300.000
G1 X99.813 Y82.589 E0.11668
G1 X99.666 Y82.945 E0.07382
G1 X99.600 Y83.261 E0.06193
G1 X99.600 Y86.782 E0.67437
G1 E-3.50000 F2400.00000
G1 X110.050 Y133.950 F9000.000
G1 X110.050 Y133.950 F9000.000
G1 X102.800 Y86.782 F9000.000
G1 E3.50000 F2400.00000
G1 X102.800 Y84.418 E0.45285 F300.000
G1 E-3.50000 F2400.00000
G1 X142.950 Y60.050 F9000.000
G1 X142.950 Y60.050 F9000.000
G1 X107.600 Y83.643 F9000.000
G1 E3.50000 F2400.00000
G1 X107.600 Y82.018 E0.31136 F300.000
G1 E-3.50000 F2400.00000
G1 X110.650 Y82.250 F9000.000
G1 X110.650 Y82.250 F9000.000
G1 X107.600 Y87.557 F9000.000
G1 E3.50000 F2400.00000
G1 X107.600 Y89.218 E0.31818 F300.000
G1 E-3.50000 F2400.00000
G1 X110.650 Y101.700 F9000.000
G1 X126.300 Y89.450 F9000.000
G1 X110.650 Y82.250 F9000.000
G1 X110.650 Y82.250 F9000.000
G1 X107.600 Y75.417 F9000.000
G1 E3.50000 F2400.00000
G1 X107.600 Y70.018 E1.03413 F300.000
G1 E-3.50000 F2400.00000
G1 X101.050 Y67.465 F9000.000
G1 X101.050 Y64.200 F9000.000
G1 X95.508 Y64.258 F9000.000
G1 X95.508 Y66.492 F9000.000
G1 X95.360 Y67.350 F9000.000
G1 X95.590 Y67.390 F9000.000
G1 E3.50000 F2400.00000
G1 X89.835 Y61.635 E0.74968 F450.000
G1 X90.879 Y61.635 E0.09621
G1 X96.112 Y66.867 E0.68165
G1 X97.054 Y66.765 E0.08730
G1 X91.924 Y61.635 E0.66833
G1 X92.968 Y61.635 E0.09621
G1 X98.099 Y66.765 E0.66833
G1 X99.143 Y66.765 E0.09621
G1 X94.013 Y61.635 E0.66833
G1 X95.057 Y61.635 E0.09621
G1 X100.188 Y66.765 E0.66833
G1 X101.232 Y66.765 E0.09621
G1 X96.102 Y61.635 E0.66833
G1 X97.146 Y61.635 E0.09621
G1 X102.276 Y66.765 E0.66833
G1 X103.321 Y66.765 E0.09621
G1 X98.191 Y61.635 E0.66833
G1 X99.235 Y61.635 E0.09621
G1 X104.365 Y66.765 E0.66833
G1 X105.612 Y66.967 E0.11634
G1 X100.279 Y61.635 E0.69467
G1 X101.324 Y61.635 E0.09621
G1 X106.454 Y66.765 E0.66833
G1 X107.499 Y66.765 E0.09621
G1 X102.368 Y61.635 E0.66833
G1 X103.413 Y61.635 E0.09621
G1 X108.543 Y66.765 E0.66833
G1 X109.588 Y66.765 E0.09621
G1 X104.457 Y61.635 E0.66833
G1 X105.502 Y61.635 E0.09621
G1 X141.365 Y97.498 E4.67192
G1 X141.365 Y96.454 E0.09621
G1 X106.546 Y61.635 E4.53586
G1 X107.591 Y61.635 E0.09621
G1 X141.365 Y95.409 E4.39980
G1 X141.365 Y94.365 E0.09621
G1 X108.635 Y61.635 E4.26374
G1 X109.680 Y61.635 E0.09621
G1 X141.365 Y93.320 E4.12768
G1 X141.365 Y92.276 E0.09621
G1 X110.724 Y61.635 E3.99162
G1 X111.768 Y61.635 E0.09621
G1 X141.365 Y91.232 E3.85556
G1 X141.365 Y90.187 E0.09621
G1 X112.813 Y61.635 E3.71950
G1 X113.857 Y61.635 E0.09621
G1 X141.365 Y89.143 E3.58344
G1 X141.365 Y88.098 E0.09621
G1 X114.902 Y61.635 E3.44738
G1 X115.946 Y61.635 E0.09621
G1 X141.365 Y87.054 E3.31132
G1 X141.365 Y86.009 E0.09621
G1 X116.991 Y61.635 E3.17526
G1 X118.035 Y61.635 E0.09621
G1 X141.365 Y84.965 E3.03920
G1 X141.365 Y83.920 E0.09621
G1 X119.080 Y61.635 E2.90314
G1 X120.124 Y61.635 E0.09621
G1 X141.365 Y82.876 E2.76708
G1 X141.365 Y81.831 E0.09621
G1 X121.168 Y61.635 E2.63101
G1 X122.213 Y61.635 E0.09621
G1 X141.365 Y80.787 E2.49495
G1 X141.365 Y79.743 E0.09621
G1 X123.257 Y61.635 E2.35889
G1 X124.302 Y61.635 E0.09621
G1 X141.365 Y78.698 E2.22283
G1 X141.365 Y77.654 E0.09621
G1 X125.346 Y61.635 E2.08677
G1 X126.391 Y61.635 E0.09621
G1 X141.365 Y76.609 E1.95071
G1 X141.365 Y75.565 E0.09621
G1 X127.435 Y61.635 E1.81465
G1 X128.480 Y61.635 E0.09621
G1 X141.365 Y74.520 E1.67859
G1 X141.365 Y73.476 E0.09621
G1 X129.524 Y61.635 E1.54253
G1 X130.569 Y61.635 E0.09621
G1 X141.365 Y72.431 E1.40647
G1 X141.365 Y71.387 E0.09621
G1 X131.613 Y61.635 E1.27041
G1 X132.657 Y61.635 E0.09621
G1 X141.365 Y70.343 E1.13435
G1 X141.365 Y69.298 E0.09621
G1 X133.702 Y61.635 E0.99829
G1 X134.746 Y61.635 E0.09621
G1 X141.365 Y68.254 E0.86223
G1 X141.365 Y67.209 E0.09621
G1 X135.791 Y61.635 E0.72617
G1 X136.835 Y61.635 E0.09621
G1 X141.365 Y66.165 E0.59011
G1 X141.365 Y65.120 E0.09621
G1 X137.880 Y61.635 E0.45405
G1 X138.924 Y61.635 E0.09621
G1 X141.365 Y64.076 E0.31799
G1 X141.365 Y63.031 E0.09621
G1 X139.969 Y61.635 E0.18193
G1 X141.013 Y61.635 E0.09621
G1 X141.365 Y61.987 E0.04587
G1 X141.365 Y98.543 F9000.000
G1 X111.235 Y68.412 E3.92507 F450.000
G1 X111.235 Y69.457 E0.09621
G1 X141.365 Y99.587 E3.92507
G1 X141.365 Y100.632 E0.09621
G1 X111.235 Y70.501 E3.92507
G1 X111.235 Y71.546 E0.09621
G1 X141.365 Y101.676 E3.92507
G1 X141.365 Y102.721 E0.09621
G1 X111.235 Y72.590 E3.92507
G1 X111.235 Y73.635 E0.09621
G1 X141.365 Y103.765 E3.92507
G1 X141.365 Y104.809 E0.09621
G1 X111.235 Y74.679 E3.92507
G1 X111.235 Y75.724 E0.09621
G1 X141.365 Y105.854 E3.92507
G1 X141.365 Y106.898 E0.09621
G1 X111.235 Y76.768 E3.92507
G1 X111.235 Y77.812 E0.09621
G1 X141.365 Y107.943 E3.92507
G1 X141.365 Y108.987 E0.09621
G1 X111.235 Y78.857 E3.92507
G1 X111.235 Y79.901 E0.09621
G1 X141.365 Y110.032 E3.92507
G1 X141.365 Y111.076 E0.09621
G1 X111.235 Y80.946 E3.92507
G1 X111.235 Y81.990 E0.09621
G1 X141.365 Y112.121 E3.92507
G1 X141.365 Y113.165 E0.09621
G1 X111.235 Y83.035 E3.92507
G1 X111.235 Y84.079 E0.09621
G1 X141.365 Y114.209 E3.92507
G1 X141.365 Y115.254 E0.09621
G1 X111.235 Y85.124 E3.92507
G1 X111.235 Y86.168 E0.09621
G1 X141.365 Y116.298 E3.92507
G1 X141.365 Y117.343 E0.09621
G1 X111.235 Y87.212 E3.92507
G1 X111.235 Y88.257 E0.09621
G1 X141.365 Y118.387 E3.92507
G1 X141.365 Y119.432 E0.09621
G1 X111.235 Y89.301 E3.92507
G1 X110.924 Y90.035 F9000.000
G1 X141.365 Y120.476 E3.96559 F450.000
G1 X141.365 Y121.521 E0.09621
G1 X109.879 Y90.035 E4.10165
G1 X108.835 Y90.035 E0.09621
G1 X141.365 Y122.565 E4.23771
G1 X141.365 Y123.610 E0.09621
G1 X107.790 Y90.035 E4.37377
G1 X106.746 Y90.035 E0.09621
G1 X141.365 Y124.654 E4.50983
G1 X141.365 Y125.698 E0.09621
G1 X105.702 Y90.035 E4.64589
G1 X104.657 Y90.035 E0.09621
G1 X141.365 Y126.743 E4.78195
G1 X141.365 Y127.787 E0.09621
G1 X103.613 Y90.035 E4.91801
G1 X102.568 Y90.035 E0.09621
G1 X141.365 Y128.832 E5.05407
G1 X141.365 Y129.876 E0.09621
G1 X101.524 Y90.035 E5.19013
G1 X100.479 Y90.035 E0.09621
G1 X141.365 Y130.921 E5.32619
G1 X141.365 Y131.965 E0.09621
G1 X99.435 Y90.035 E5.46225
G1 X98.390 Y90.035 E0.09621
G1 X141.365 Y133.010 E5.59831
G1 X141.365 Y134.054 E0.09621
G1 X97.346 Y90.035 E5.73437
G1 X96.301 Y90.035 E0.09621
G1 X141.365 Y135.099 E5.87043
G1 X137.321 Y138.365 F9000.000
G1 X113.635 Y114.679 E3.08555 F450.000
G1 X113.635 Y115.724 E0.09621
G1 X136.276 Y138.365 E2.94949
G1 X135.232 Y138.365 E0.09621
G1 X113.635 Y116.768 E2.81343
G1 X113.635 Y117.813 E0.09621
G1 X134.187 Y138.365 E2.67737
G1 X133.143 Y138.365 E0.09621
G1 X113.635 Y118.857 E2.54131
