; generated by Slic3r 1.2.9 on 2017-05-23 at 09:35:24

; external perimeters extrusion width = 0.50mm
; perimeters extrusion width = 0.50mm
; infill extrusion width = 0.50mm
; solid infill extrusion width = 0.50mm
; top infill extrusion width = 0.50mm

M107
M190 S57 ; set bed temperature
G28 ; home all axes
M83;
G10 P0 S195 R160                       ; Set tool 0 operating and standby temperatures
T0

G21 ; set units to millimeters
G90 ; use absolute coordinates
M83 ; use relative distances for extrusion
G1 E-3.50000 F2400.00000
G1 Z0.300 F9000.000
G1 X48.810 Y51.561 F9000.000
G1 E3.50000 F2400.00000
G1 X51.050 Y50.814 E0.21667 F600.000
G1 X148.950 Y50.814 E8.98238
G1 X150.621 Y51.209 E0.15755
G1 X151.939 Y52.310 E0.15755 F600.000
G1 X152.686 Y54.550 E0.21667
G1 X152.686 Y145.450 E8.34012
G1 X152.291 Y147.121 E0.15755
G1 X151.190 Y148.439 E0.15755
G1 X148.950 Y149.186 E0.21667
G1 X51.050 Y149.186 E8.98238
G1 X49.379 Y148.791 E0.15755
G1 X48.061 Y147.690 E0.15755
G1 X47.314 Y145.450 E0.21667
G1 X47.314 Y54.550 E8.34012
G1 X47.709 Y52.879 E0.15755
G1 X48.762 Y51.618 E0.15067
G1 E-3.50000 F2400.00000
G1 X52.186 Y144.314 F9000.000
G1 E3.50000 F2400.00000
G1 X52.186 Y55.686 E8.13173 F450.000
G1 X147.814 Y55.686 E8.77399
G1 X147.814 Y144.314 E8.13173
G1 X52.261 Y144.314 E8.76711
G1 X51.450 Y145.050 F9000.000
G1 X51.450 Y54.950 E8.26672 F450.000
G1 X148.550 Y54.950 E8.90897
G1 X148.550 Y145.050 E8.26672
G1 X51.525 Y145.050 E8.90209
G1 X51.700 Y144.617 F9000.000
G1 X52.635 Y143.513 F9000.000
G1 X52.987 Y143.865 E0.04586 F450.000
G1 X54.031 Y143.865 E0.09623
G1 X52.635 Y142.469 E0.18195
G1 X52.635 Y141.424 E0.09623
G1 X55.076 Y143.865 E0.31804
G1 X56.121 Y143.865 E0.09623
G1 X52.635 Y140.379 E0.45414
G1 X52.635 Y139.335 E0.09623
G1 X57.165 Y143.865 E0.59023
G1 X58.210 Y143.865 E0.09623
G1 X52.635 Y138.290 E0.72632
G1 X52.635 Y137.246 E0.09623
G1 X59.254 Y143.865 E0.86242
G1 X60.299 Y143.865 E0.09623
G1 X52.635 Y136.201 E0.99851
G1 X52.635 Y135.157 E0.09623
G1 X61.343 Y143.865 E1.13461
G1 X62.388 Y143.865 E0.09623
G1 X52.635 Y134.112 E1.27070
G1 X52.635 Y133.067 E0.09623
G1 X63.433 Y143.865 E1.40679
G1 X64.477 Y143.865 E0.09623
G1 X52.635 Y132.023 E1.54289
G1 X52.635 Y130.978 E0.09623
G1 X65.522 Y143.865 E1.67898
G1 X66.566 Y143.865 E0.09623
G1 X52.635 Y129.934 E1.81507
G1 X52.635 Y128.889 E0.09623
G1 X67.611 Y143.865 E1.95117
G1 X68.655 Y143.865 E0.09623
G1 X52.635 Y127.845 E2.08726
G1 X52.635 Y126.800 E0.09623
G1 X69.700 Y143.865 E2.22335
G1 X70.745 Y143.865 E0.09623
G1 X52.635 Y125.755 E2.35945
G1 X52.635 Y124.711 E0.09623
G1 X71.789 Y143.865 E2.49554
G1 X72.834 Y143.865 E0.09623
G1 X52.635 Y123.666 E2.63163
G1 X52.635 Y122.622 E0.09623
G1 X73.878 Y143.865 E2.76773
G1 X74.923 Y143.865 E0.09623
G1 X52.635 Y121.577 E2.90382
G1 X52.635 Y120.532 E0.09623
G1 X75.968 Y143.865 E3.03991
G1 X77.012 Y143.865 E0.09623
G1 X52.635 Y119.488 E3.17601
G1 X52.635 Y118.443 E0.09623
G1 X78.057 Y143.865 E3.31210
G1 X79.101 Y143.865 E0.09623
G1 X52.635 Y117.399 E3.44819
G1 X52.635 Y116.354 E0.09623
G1 X80.146 Y143.865 E3.58429
G1 X81.190 Y143.865 E0.09623
G1 X52.635 Y115.310 E3.72038
G1 X52.635 Y114.265 E0.09623
G1 X82.235 Y143.865 E3.85647
G1 X83.280 Y143.865 E0.09623
G1 X52.635 Y113.220 E3.99257
G1 X52.635 Y112.176 E0.09623
G1 X84.324 Y143.865 E4.12866
G1 X85.369 Y143.865 E0.09623
G1 X52.635 Y111.131 E4.26475
G1 X52.635 Y110.087 E0.09623
G1 X86.413 Y143.865 E4.40085
G1 X87.458 Y143.865 E0.09623
G1 X52.635 Y109.042 E4.53694
G1 X52.635 Y107.998 E0.09623
G1 X88.502 Y143.865 E4.67303
G1 X89.547 Y143.865 E0.09623
G1 X52.635 Y106.953 E4.80913
G1 X52.635 Y105.908 E0.09623
G1 X90.592 Y143.865 E4.94522
G1 X91.636 Y143.865 E0.09623
G1 X52.635 Y104.864 E5.08132
G1 X52.635 Y103.819 E0.09623
G1 X92.681 Y143.865 E5.21741
G1 X93.725 Y143.865 E0.09623
G1 X52.635 Y102.775 E5.35350
G1 X52.635 Y101.730 E0.09623
G1 X94.770 Y143.865 E5.48960
G1 X95.815 Y143.865 E0.09623
G1 X52.635 Y100.685 E5.62569
G1 X52.635 Y99.641 E0.09623
G1 X96.859 Y143.865 E5.76178
G1 X97.904 Y143.865 E0.09623
G1 X52.635 Y98.596 E5.89788
G1 X52.635 Y97.552 E0.09623
G1 X98.948 Y143.865 E6.03397
G1 X99.993 Y143.865 E0.09623
G1 X52.635 Y96.507 E6.17006
G1 X52.635 Y95.463 E0.09623
G1 X101.037 Y143.865 E6.30616
G1 X102.082 Y143.865 E0.09623
G1 X52.635 Y94.418 E6.44225
G1 X52.635 Y93.373 E0.09623
G1 X103.127 Y143.865 E6.57834
G1 X104.171 Y143.865 E0.09623
G1 X52.635 Y92.329 E6.71444
G1 X52.635 Y91.284 E0.09623
G1 X105.216 Y143.865 E6.85053
G1 X106.260 Y143.865 E0.09623
G1 X52.635 Y90.240 E6.98662
G1 X52.635 Y89.195 E0.09623
G1 X107.305 Y143.865 E7.12272
G1 X108.349 Y143.865 E0.09623
G1 X52.635 Y88.151 E7.25881
G1 X52.635 Y87.106 E0.09623
G1 X109.394 Y143.865 E7.39490
G1 X110.439 Y143.865 E0.09623
G1 X52.635 Y86.061 E7.53100
G1 X52.635 Y85.017 E0.09623
G1 X111.483 Y143.865 E7.66709
G1 X112.528 Y143.865 E0.09623
G1 X52.635 Y83.972 E7.80318
G1 X52.635 Y82.928 E0.09623
G1 X113.572 Y143.865 E7.93928
G1 X114.617 Y143.865 E0.09623
G1 X52.635 Y81.883 E8.07537
G1 X52.635 Y80.839 E0.09623
G1 X115.661 Y143.865 E8.21146
G1 X116.706 Y143.865 E0.09623
G1 X52.635 Y79.794 E8.34756
G1 X52.635 Y78.749 E0.09623
G1 X117.751 Y143.865 E8.48365
G1 X118.795 Y143.865 E0.09623
G1 X52.635 Y77.705 E8.61975
G1 X52.635 Y76.660 E0.09623
G1 X119.840 Y143.865 E8.75584
G1 X120.884 Y143.865 E0.09623
G1 X52.635 Y75.616 E8.89193
G1 X52.635 Y74.571 E0.09623
G1 X121.929 Y143.865 E9.02803
G1 X122.974 Y143.865 E0.09623
G1 X52.635 Y73.526 E9.16412
G1 X52.635 Y72.482 E0.09623
G1 X124.018 Y143.865 E9.30021
G1 X125.063 Y143.865 E0.09623
G1 X52.635 Y71.437 E9.43631
G1 X52.635 Y70.393 E0.09623
G1 X126.107 Y143.865 E9.57240
G1 X127.152 Y143.865 E0.09623
G1 X52.635 Y69.348 E9.70849
G1 X52.635 Y68.304 E0.09623
G1 X128.196 Y143.865 E9.84459
G1 X129.241 Y143.865 E0.09623
G1 X52.635 Y67.259 E9.98068
G1 X52.635 Y66.214 E0.09623
G1 X130.286 Y143.865 E10.11677
G1 X131.330 Y143.865 E0.09623
G1 X52.635 Y65.170 E10.25287
G1 X52.635 Y64.125 E0.09623
G1 X132.375 Y143.865 E10.38896
G1 X133.419 Y143.865 E0.09623
G1 X52.635 Y63.081 E10.52505
G1 X52.635 Y62.036 E0.09623
G1 X134.464 Y143.865 E10.66115
G1 X135.508 Y143.865 E0.09623
G1 X52.635 Y60.992 E10.79724
G1 X52.635 Y59.947 E0.09623
G1 X136.553 Y143.865 E10.93333
G1 X137.598 Y143.865 E0.09623
G1 X52.635 Y58.902 E11.06943
G1 X52.635 Y57.858 E0.09623
G1 X138.642 Y143.865 E11.20552
G1 X139.687 Y143.865 E0.09623
G1 X52.635 Y56.813 E11.34161
G1 X53.001 Y56.135 E0.07102
G1 X140.731 Y143.865 E11.43000
G1 X141.776 Y143.865 E0.09623
G1 X54.046 Y56.135 E11.43000
G1 X55.090 Y56.135 E0.09623
G1 X142.821 Y143.865 E11.43000
G1 X143.865 Y143.865 E0.09623
G1 X56.135 Y56.135 E11.43000
G1 X57.179 Y56.135 E0.09623
G1 X144.910 Y143.865 E11.43000
G1 X145.954 Y143.865 E0.09623
G1 X58.224 Y56.135 E11.43000
G1 X59.268 Y56.135 E0.09623
G1 X146.999 Y143.865 E11.43000
G1 X147.365 Y143.187 E0.07102
G1 X60.313 Y56.135 E11.34163
G1 X61.358 Y56.135 E0.09623
G1 X147.365 Y142.142 E11.20554
G1 X147.365 Y141.098 E0.09623
G1 X62.402 Y56.135 E11.06944
G1 X63.447 Y56.135 E0.09623
G1 X147.365 Y140.053 E10.93335
G1 X147.365 Y139.009 E0.09623
G1 X64.491 Y56.135 E10.79726
G1 X65.536 Y56.135 E0.09623
G1 X147.365 Y137.964 E10.66116
G1 X147.365 Y136.919 E0.09623
G1 X66.581 Y56.135 E10.52507
G1 X67.625 Y56.135 E0.09623
G1 X147.365 Y135.875 E10.38898
G1 X147.365 Y134.830 E0.09623
G1 X68.670 Y56.135 E10.25288
G1 X69.714 Y56.135 E0.09623
G1 X147.365 Y133.786 E10.11679
G1 X147.365 Y132.741 E0.09623
G1 X70.759 Y56.135 E9.98070
G1 X71.803 Y56.135 E0.09623
G1 X147.365 Y131.697 E9.84460
G1 X147.365 Y130.652 E0.09623
G1 X72.848 Y56.135 E9.70851
G1 X73.893 Y56.135 E0.09623
G1 X147.365 Y129.607 E9.57242
G1 X147.365 Y128.563 E0.09623
G1 X74.937 Y56.135 E9.43632
G1 X75.982 Y56.135 E0.09623
G1 X147.365 Y127.518 E9.30023
G1 X147.365 Y126.474 E0.09623
G1 X77.026 Y56.135 E9.16413
G1 X78.071 Y56.135 E0.09623
G1 X147.365 Y125.429 E9.02804
G1 X147.365 Y124.385 E0.09623
G1 X79.115 Y56.135 E8.89195
G1 X80.160 Y56.135 E0.09623
G1 X147.365 Y123.340 E8.75585
G1 X147.365 Y122.295 E0.09623
G1 X81.205 Y56.135 E8.61976
G1 X82.249 Y56.135 E0.09623
G1 X147.365 Y121.251 E8.48367
G1 X147.365 Y120.206 E0.09623
G1 X83.294 Y56.135 E8.34757
G1 X84.338 Y56.135 E0.09623
G1 X147.365 Y119.162 E8.21148
G1 X147.365 Y118.117 E0.09623
G1 X85.383 Y56.135 E8.07539
G1 X86.428 Y56.135 E0.09623
G1 X147.365 Y117.072 E7.93929
G1 X147.365 Y116.028 E0.09623
G1 X87.472 Y56.135 E7.80320
G1 X88.517 Y56.135 E0.09623
G1 X147.365 Y114.983 E7.66711
G1 X147.365 Y113.939 E0.09623
G1 X89.561 Y56.135 E7.53101
G1 X90.606 Y56.135 E0.09623
G1 X147.365 Y112.894 E7.39492
G1 X147.365 Y111.850 E0.09623
G1 X91.650 Y56.135 E7.25883
G1 X92.695 Y56.135 E0.09623
G1 X147.365 Y110.805 E7.12273
G1 X147.365 Y109.760 E0.09623
G1 X93.740 Y56.135 E6.98664
G1 X94.784 Y56.135 E0.09623
G1 X147.365 Y108.716 E6.85055
G1 X147.365 Y107.671 E0.09623
G1 X95.829 Y56.135 E6.71445
G1 X96.873 Y56.135 E0.09623
G1 X147.365 Y106.627 E6.57836
G1 X147.365 Y105.582 E0.09623
G1 X97.918 Y56.135 E6.44227
G1 X98.962 Y56.135 E0.09623
G1 X147.365 Y104.538 E6.30617
G1 X147.365 Y103.493 E0.09623
G1 X100.007 Y56.135 E6.17008
G1 X101.052 Y56.135 E0.09623
G1 X147.365 Y102.448 E6.03399
G1 X147.365 Y101.404 E0.09623
G1 X102.096 Y56.135 E5.89789
G1 X103.141 Y56.135 E0.09623
G1 X147.365 Y100.359 E5.76180
G1 X147.365 Y99.315 E0.09623
G1 X104.185 Y56.135 E5.62571
G1 X105.230 Y56.135 E0.09623
G1 X147.365 Y98.270 E5.48961
G1 X147.365 Y97.225 E0.09623
G1 X106.275 Y56.135 E5.35352
G1 X107.319 Y56.135 E0.09623
G1 X147.365 Y96.181 E5.21742
G1 X147.365 Y95.136 E0.09623
G1 X108.364 Y56.135 E5.08133
G1 X109.408 Y56.135 E0.09623
G1 X147.365 Y94.092 E4.94524
G1 X147.365 Y93.047 E0.09623
G1 X110.453 Y56.135 E4.80914
G1 X111.497 Y56.135 E0.09623
G1 X147.365 Y92.003 E4.67305
G1 X147.365 Y90.958 E0.09623
G1 X112.542 Y56.135 E4.53696
G1 X113.587 Y56.135 E0.09623
G1 X147.365 Y89.913 E4.40086
G1 X147.365 Y88.869 E0.09623
G1 X114.631 Y56.135 E4.26477
G1 X115.676 Y56.135 E0.09623
G1 X147.365 Y87.824 E4.12868
G1 X147.365 Y86.780 E0.09623
G1 X116.720 Y56.135 E3.99258
G1 X117.765 Y56.135 E0.09623
G1 X147.365 Y85.735 E3.85649
G1 X147.365 Y84.691 E0.09623
G1 X118.809 Y56.135 E3.72040
G1 X119.854 Y56.135 E0.09623
G1 X147.365 Y83.646 E3.58430
G1 X147.365 Y82.601 E0.09623
G1 X120.899 Y56.135 E3.44821
G1 X121.943 Y56.135 E0.09623
G1 X147.365 Y81.557 E3.31212
G1 X147.365 Y80.512 E0.09623
G1 X122.988 Y56.135 E3.17602
G1 X124.032 Y56.135 E0.09623
G1 X147.365 Y79.468 E3.03993
G1 X147.365 Y78.423 E0.09623
G1 X125.077 Y56.135 E2.90384
G1 X126.122 Y56.135 E0.09623
G1 X147.365 Y77.378 E2.76774
G1 X147.365 Y76.334 E0.09623
G1 X127.166 Y56.135 E2.63165
G1 X128.211 Y56.135 E0.09623
G1 X147.365 Y75.289 E2.49556
G1 X147.365 Y74.245 E0.09623
G1 X129.255 Y56.135 E2.35946
G1 X130.300 Y56.135 E0.09623
G1 X147.365 Y73.200 E2.22337
G1 X147.365 Y72.156 E0.09623
G1 X131.344 Y56.135 E2.08727
G1 X132.389 Y56.135 E0.09623
G1 X147.365 Y71.111 E1.95118
G1 X147.365 Y70.066 E0.09623
G1 X133.434 Y56.135 E1.81509
G1 X134.478 Y56.135 E0.09623
G1 X147.365 Y69.022 E1.67899
G1 X147.365 Y67.977 E0.09623
G1 X135.523 Y56.135 E1.54290
G1 X136.567 Y56.135 E0.09623
G1 X147.365 Y66.933 E1.40681
G1 X147.365 Y65.888 E0.09623
G1 X137.612 Y56.135 E1.27071
G1 X138.656 Y56.135 E0.09623
G1 X147.365 Y64.844 E1.13462
G1 X147.365 Y63.799 E0.09623
G1 X139.701 Y56.135 E0.99853
G1 X140.746 Y56.135 E0.09623
G1 X147.365 Y62.754 E0.86243
G1 X147.365 Y61.710 E0.09623
G1 X141.790 Y56.135 E0.72634
G1 X142.835 Y56.135 E0.09623
G1 X147.365 Y60.665 E0.59025
G1 X147.365 Y59.621 E0.09623
G1 X143.879 Y56.135 E0.45415
G1 X144.924 Y56.135 E0.09623
G1 X147.365 Y58.576 E0.31806
G1 X147.365 Y57.532 E0.09623
G1 X145.968 Y56.135 E0.18197
G1 X147.013 Y56.135 E0.09623
G1 X147.365 Y56.487 E0.04587
G1 E-3.50000 F2400.00000
G1 Z0.600 F9000.000
G1 X51.736 Y144.764 F9000.000
G1 E3.50000 F2400.00000
G1 X51.736 Y55.236 E4.86435 F1800.000
G1 X148.264 Y55.236 E5.24468
G1 X148.264 Y144.764 E4.86435
G1 X51.811 Y144.764 E5.24061
G1 X51.300 Y145.200 F9000.000
G1 X51.300 Y54.800 E4.91169 F1800.000
G1 X148.700 Y54.800 E5.29202
G1 X148.700 Y145.200 E4.91169
G1 X51.375 Y145.200 E5.28795
G1 X51.550 Y144.767 F9000.000
G1 X52.835 Y55.493 F9000.000
G1 X51.993 Y56.335 E0.06483 F1800.000
G1 X51.993 Y56.953 E0.03361
G1 X53.453 Y55.493 E0.11235
G1 X54.070 Y55.493 E0.03361
G1 X51.993 Y57.570 E0.15988
G1 X51.993 Y58.187 E0.03361
G1 X54.687 Y55.493 E0.20741
G1 X55.305 Y55.493 E0.03361
G1 X51.993 Y58.805 E0.25494
G1 X51.993 Y59.422 E0.03361
G1 X55.922 Y55.493 E0.30247
G1 X56.539 Y55.493 E0.03361
G1 X51.993 Y60.039 E0.35000
G1 X51.993 Y60.657 E0.03361
G1 X57.157 Y55.493 E0.39753
G1 X57.774 Y55.493 E0.03361
G1 X51.993 Y61.274 E0.44506
G1 X51.993 Y61.891 E0.03361
G1 X58.391 Y55.493 E0.49259
G1 X59.009 Y55.493 E0.03361
G1 X51.993 Y62.509 E0.54012
G1 X51.993 Y63.126 E0.03361
G1 X59.626 Y55.493 E0.58765
G1 X60.243 Y55.493 E0.03361
G1 X51.993 Y63.743 E0.63518
G1 X51.993 Y64.360 E0.03361
G1 X60.860 Y55.493 E0.68271
G1 X61.478 Y55.493 E0.03361
G1 X51.993 Y64.978 E0.73024
G1 X51.993 Y65.595 E0.03361
G1 X62.095 Y55.493 E0.77777
G1 X62.712 Y55.493 E0.03361
G1 X51.993 Y66.212 E0.82530
G1 X51.993 Y66.830 E0.03361
G1 X63.330 Y55.493 E0.87283
G1 X63.947 Y55.493 E0.03361
G1 X51.993 Y67.447 E0.92036
G1 X51.993 Y68.064 E0.03361
G1 X64.564 Y55.493 E0.96789
G1 X65.182 Y55.493 E0.03361
G1 X51.993 Y68.682 E1.01542
G1 X51.993 Y69.299 E0.03361
G1 X65.799 Y55.493 E1.06295
G1 X66.416 Y55.493 E0.03361
G1 X51.993 Y69.916 E1.11048
G1 X51.993 Y70.534 E0.03361
G1 X67.034 Y55.493 E1.15801
G1 X67.651 Y55.493 E0.03361
G1 X51.993 Y71.151 E1.20554
G1 X51.993 Y71.768 E0.03361
G1 X68.268 Y55.493 E1.25307
G1 X68.886 Y55.493 E0.03361
G1 X51.993 Y72.386 E1.30060
G1 X51.993 Y73.003 E0.03361
G1 X69.503 Y55.493 E1.34813
G1 X70.120 Y55.493 E0.03361
G1 X51.993 Y73.620 E1.39566
G1 X51.993 Y74.237 E0.03361
G1 X70.737 Y55.493 E1.44319
G1 X71.355 Y55.493 E0.03361
G1 X51.993 Y74.855 E1.49072
G1 X51.993 Y75.472 E0.03361
G1 X71.972 Y55.493 E1.53825
G1 X72.589 Y55.493 E0.03361
G1 X51.993 Y76.089 E1.58578
G1 X51.993 Y76.707 E0.03361
G1 X73.207 Y55.493 E1.63331
G1 X73.824 Y55.493 E0.03361
G1 X51.993 Y77.324 E1.68084
G1 X51.993 Y77.941 E0.03361
G1 X74.441 Y55.493 E1.72837
G1 X75.059 Y55.493 E0.03361
G1 X51.993 Y78.559 E1.77590
G1 X51.993 Y79.176 E0.03361
G1 X75.676 Y55.493 E1.82343
G1 X76.293 Y55.493 E0.03361
G1 X51.993 Y79.793 E1.87096
G1 X51.993 Y80.411 E0.03361
G1 X76.911 Y55.493 E1.91849
G1 X77.528 Y55.493 E0.03361
G1 X51.993 Y81.028 E1.96602
G1 X51.993 Y81.645 E0.03361
G1 X78.145 Y55.493 E2.01355
G1 X78.763 Y55.493 E0.03361
G1 X51.993 Y82.263 E2.06108
G1 X51.993 Y82.880 E0.03361
G1 X79.380 Y55.493 E2.10861
G1 X79.997 Y55.493 E0.03361
G1 X51.993 Y83.497 E2.15614
G1 X51.993 Y84.115 E0.03361
G1 X80.615 Y55.493 E2.20367
G1 X81.232 Y55.493 E0.03361
G1 X51.993 Y84.732 E2.25120
G1 X51.993 Y85.349 E0.03361
G1 X81.849 Y55.493 E2.29873
G1 X82.466 Y55.493 E0.03361
G1 X51.993 Y85.966 E2.34626
G1 X51.993 Y86.584 E0.03361
G1 X83.084 Y55.493 E2.39379
G1 X83.701 Y55.493 E0.03361
G1 X51.993 Y87.201 E2.44132
G1 X51.993 Y87.818 E0.03361
G1 X84.318 Y55.493 E2.48885
G1 X84.936 Y55.493 E0.03361
G1 X51.993 Y88.436 E2.53638
G1 X51.993 Y89.053 E0.03361
G1 X85.553 Y55.493 E2.58391
G1 X86.170 Y55.493 E0.03361
G1 X51.993 Y89.670 E2.63144
G1 X51.993 Y90.288 E0.03361
G1 X86.788 Y55.493 E2.67897
G1 X87.405 Y55.493 E0.03361
G1 X51.993 Y90.905 E2.72650
G1 X51.993 Y91.522 E0.03361
G1 X88.022 Y55.493 E2.77403
G1 X88.640 Y55.493 E0.03361
G1 X51.993 Y92.140 E2.82156
G1 X51.993 Y92.757 E0.03361
G1 X89.257 Y55.493 E2.86909
G1 X89.874 Y55.493 E0.03361
G1 X51.993 Y93.374 E2.91662
G1 X51.993 Y93.992 E0.03361
G1 X90.492 Y55.493 E2.96415
G1 X91.109 Y55.493 E0.03361
G1 X51.993 Y94.609 E3.01168
G1 X51.993 Y95.226 E0.03361
G1 X91.726 Y55.493 E3.05921
G1 X92.343 Y55.493 E0.03361
G1 X51.993 Y95.843 E3.10674
G1 X51.993 Y96.461 E0.03361
G1 X92.961 Y55.493 E3.15427
G1 X93.578 Y55.493 E0.03361
G1 X51.993 Y97.078 E3.20180
G1 X51.993 Y97.695 E0.03361
G1 X94.195 Y55.493 E3.24933
G1 X94.813 Y55.493 E0.03361
G1 X51.993 Y98.313 E3.29686
G1 X51.993 Y98.930 E0.03361
